P3
160 120
255
253 253 253 255 255 255 254 254 254 253 253 253 255 255 255 254 254 254 252 252 252 254 254 254 
254 254 254 254 254 254 254 254 254 254 254 254 254 254 254 254 254 254 253 253 253 253 253 253 
255 255 255 253 253 253 253 253 253 254 254 254 254 254 254 252 252 252 252 252 252 254 254 254 
252 252 252 252 252 252 252 252 252 253 253 253 253 253 253 253 253 253 253 253 253 252 252 252 
252 252 252 255 255 255 248 248 248 255 255 255 251 251 251 255 255 255 253 253 253 253 253 253 
255 255 255 250 250 250 253 253 253 250 250 250 255 255 255 251 251 251 255 255 255 252 252 252 
254 254 254 254 254 254 254 254 254 254 254 254 254 254 254 254 254 254 255 255 255 255 255 255 
255 255 255 252 252 252 252 252 252 254 254 254 254 254 254 252 252 252 252 252 252 254 254 254 
251 251 251 253 253 253 255 255 255 254 254 254 254 254 254 255 255 255 255 255 255 254 254 254 
255 255 255 252 252 252 252 252 252 252 252 252 247 247 247 255 255 255 253 253 253 255 255 255 
251 251 251 252 252 252 252 252 252 252 252 252 255 255 255 255 255 255 253 253 253 252 252 252 
251 251 251 254 254 254 255 255 255 254 254 254 254 254 254 254 254 254 253 253 253 249 249 249 
252 252 250 253 253 251 251 250 248 255 255 253 255 255 253 253 253 251 254 254 252 251 251 249 
252 252 250 251 251 249 255 255 253 254 254 252 254 254 252 254 254 252 251 251 249 252 252 250 
253 253 253 255 255 255 253 253 253 252 252 252 254 254 254 249 249 249 248 248 248 255 255 255 
255 255 255 249 249 249 252 252 252 252 252 252 255 255 255 252 252 252 254 254 254 253 253 253 
253 253 251 253 253 251 253 253 251 253 253 251 253 253 251 253 253 251 253 253 251 253 253 251 
253 253 253 253 253 253 253 253 253 253 253 253 253 253 253 253 253 253 253 253 253 253 253 253 
253 253 253 254 254 254 254 254 254 254 254 254 254 254 254 254 254 254 254 254 254 254 254 254 
253 253 253 253 253 253 253 253 253 253 253 253 253 253 253 253 253 253 253 253 253 253 253 253 

255 255 255 255 255 255 255 255 255 254 254 254 255 255 255 253 253 253 252 252 252 254 254 254 
253 253 253 253 253 253 253 253 253 253 253 253 253 253 253 253 253 253 252 252 252 252 252 252 
252 252 252 251 251 251 251 251 251 253 253 253 253 253 253 252 252 252 252 252 252 254 254 254 
252 252 252 252 252 252 253 253 253 253 253 253 253 253 253 253 253 253 253 253 253 253 253 253 
255 255 255 251 251 251 251 251 251 255 255 255 253 253 253 255 255 255 249 249 249 255 255 255 
252 252 252 255 255 255 255 255 255 255 255 255 255 255 255 255 255 255 254 254 254 251 251 251 
252 252 252 252 252 252 252 252 252 252 252 252 253 253 253 253 253 253 253 253 253 253 253 253 
252 252 252 251 251 251 250 250 250 252 252 252 255 255 255 255 255 255 254 254 254 252 252 252 
255 255 255 254 254 254 247 247 247 247 247 247 251 251 251 254 254 254 254 254 254 248 248 248 
252 252 252 251 251 251 255 255 255 255 255 255 252 252 252 255 255 255 247 247 247 255 255 255 
255 255 255 254 254 254 250 250 250 252 252 252 254 254 254 252 252 252 252 252 252 254 254 254 
255 255 255 254 254 254 249 249 249 251 251 251 254 254 254 255 255 255 255 255 255 255 255 255 
255 255 253 255 255 253 255 255 253 251 250 248 251 250 248 254 254 252 255 255 253 253 253 251 
252 252 250 255 255 253 254 254 252 254 254 252 252 252 250 249 248 247 253 253 251 254 254 252 
249 249 249 253 253 253 255 255 255 253 253 253 255 255 255 255 255 255 255 255 255 250 250 250 
253 253 253 255 255 255 255 255 255 249 249 249 252 252 252 252 252 252 255 255 255 255 255 255 
253 253 251 253 253 251 253 253 251 253 253 251 253 253 251 253 253 251 253 253 251 253 253 251 
253 253 253 253 253 253 253 253 253 253 253 253 253 253 253 254 254 254 254 254 254 254 254 254 
253 253 253 254 254 254 254 254 254 254 254 254 254 254 254 254 254 254 254 254 254 254 254 254 
253 253 253 253 253 253 253 253 253 253 253 253 253 253 253 253 253 253 253 253 253 253 253 253 

255 255 255 255 255 255 253 253 253 251 251 251 252 252 252 251 251 251 249 249 249 251 251 251 
250 250 250 249 249 249 249 249 249 249 249 249 250 250 250 250 250 250 250 250 250 249 249 249 
249 249 249 248 248 248 249 249 249 252 252 252 253 253 253 252 252 252 253 253 253 254 254 254 
253 253 253 253 253 253 254 254 254 254 254 254 254 254 254 254 254 254 254 254 254 254 254 254 
253 253 253 254 254 254 255 255 255 249 249 249 245 245 245 255 255 255 252 252 252 253 253 253 
254 254 254 255 255 255 252 252 252 251 251 251 247 247 247 255 255 255 253 253 253 255 255 255 
255 255 255 255 255 255 255 255 255 255 255 255 255 255 255 255 255 255 255 255 255 255 255 255 
255 255 255 255 255 255 255 255 255 252 252 252 250 250 250 251 251 251 253 253 253 254 254 254 
249 249 249 255 255 255 254 254 254 255 255 255 254 254 254 251 251 251 255 255 255 254 254 254 
251 251 251 254 254 254 255 255 255 255 255 255 254 254 254 255 255 255 251 251 251 255 255 255 
247 247 247 248 248 248 255 255 255 255 255 255 252 252 252 249 249 249 252 252 252 254 254 254 
251 251 251 252 252 252 255 255 255 255 255 255 255 255 255 252 252 252 250 250 250 250 250 250 
251 251 249 249 248 247 253 253 251 254 254 252 254 254 252 253 253 251 249 248 247 251 251 249 
255 255 253 255 255 253 249 248 247 253 253 251 255 255 253 254 254 252 255 255 253 251 251 249 
255 255 255 253 253 253 255 255 255 255 255 255 249 249 249 251 251 251 254 254 254 250 250 250 
253 253 253 251 251 251 253 253 253 252 252 252 255 255 255 254 254 254 254 254 254 251 251 251 
254 254 252 254 254 252 254 254 252 254 254 252 254 254 252 254 254 252 254 254 252 254 254 252 
253 253 253 253 253 253 253 253 253 254 254 254 254 254 254 254 254 254 255 255 255 255 255 255 
254 254 254 254 254 254 254 254 254 254 254 254 255 255 255 255 255 255 254 254 254 254 254 254 
254 254 254 254 254 254 254 254 254 254 254 254 254 254 254 254 254 254 254 254 254 254 254 254 

253 253 253 254 254 254 251 251 251 249 249 249 251 251 251 250 250 250 248 248 248 250 250 250 
249 249 249 248 248 248 247 247 247 247 247 247 249 249 249 249 249 249 249 249 249 248 248 248 
247 247 247 247 247 247 249 249 249 251 251 251 252 252 252 253 253 253 253 253 253 254 254 254 
254 254 254 254 254 254 254 254 254 255 255 255 255 255 255 255 255 255 254 254 254 254 254 254 
255 255 255 252 252 252 254 254 254 255 255 255 255 255 255 252 252 252 250 250 250 255 255 255 
253 253 253 255 255 255 254 254 254 255 255 255 255 255 255 255 255 255 253 253 253 255 255 255 
254 254 254 254 254 254 254 254 254 254 254 254 254 254 254 254 254 254 254 254 254 254 254 254 
252 252 252 253 253 253 253 253 253 253 253 253 253 253 253 253 253 253 254 254 254 255 255 255 
249 249 249 250 250 250 250 250 250 252 252 252 253 253 253 253 253 253 252 252 252 250 250 250 
251 251 251 255 255 255 254 254 254 250 250 250 253 253 253 255 255 255 255 255 255 253 253 253 
255 255 255 255 255 255 255 255 255 251 251 251 250 250 250 255 255 255 255 255 255 251 251 251 
251 251 251 255 255 255 255 255 255 253 253 253 253 253 253 255 255 255 255 255 255 255 255 255 
255 255 253 252 252 250 255 255 253 251 251 249 251 251 249 255 255 253 253 253 251 255 255 253 
251 250 248 254 254 252 255 255 253 255 255 253 254 254 252 252 252 250 254 254 252 255 255 253 
255 255 255 254 254 254 255 255 255 254 254 254 253 253 253 254 254 254 255 255 255 255 255 255 
253 253 253 253 253 253 254 254 254 255 255 255 255 255 255 255 255 255 255 255 255 254 254 254 
254 254 252 254 254 252 254 254 252 254 254 252 254 254 252 254 254 252 255 255 253 255 255 253 
254 254 254 254 254 254 254 254 254 254 254 254 254 254 254 255 255 255 255 255 255 255 255 255 
254 254 254 254 254 254 254 254 254 255 255 255 255 255 255 255 255 255 254 254 254 254 254 254 
254 254 254 254 254 254 254 254 254 254 254 254 254 254 254 254 254 254 254 254 254 254 254 254 

254 254 254 255 255 255 251 251 251 249 249 249 251 251 251 250 250 250 248 248 248 250 250 250 
250 250 250 248 248 248 247 247 247 247 247 247 249 249 249 250 250 250 249 249 249 248 248 248 
247 247 247 248 248 248 250 250 250 251 251 251 252 252 252 253 253 253 254 254 254 253 253 253 
254 254 254 254 254 254 255 255 255 255 255 255 255 255 255 255 255 255 255 255 255 255 255 255 
255 255 255 255 255 255 251 251 251 253 253 253 253 253 253 249 249 249 255 255 255 255 255 255 
255 255 255 252 252 252 253 253 253 251 251 251 255 255 255 253 253 253 255 255 255 255 255 255 
255 255 255 255 255 255 255 255 255 255 255 255 255 255 255 255 255 255 255 255 255 255 255 255 
255 255 255 252 252 252 250 250 250 255 255 255 255 255 255 255 255 255 249 249 249 246 246 246 
255 255 255 251 251 251 255 255 255 251 251 251 249 249 249 253 253 253 250 250 250 255 255 255 
252 252 252 255 255 255 255 255 255 253 253 253 255 255 255 255 255 255 254 254 254 249 249 249 
251 251 251 253 253 253 255 255 255 254 254 254 253 253 253 255 255 255 255 255 255 254 254 254 
255 255 255 255 255 255 255 255 255 254 254 254 255 255 255 255 255 255 253 253 253 246 246 246 
251 251 249 255 255 253 255 255 253 251 251 249 251 250 248 255 255 253 255 255 253 249 248 247 
255 255 253 251 251 249 255 255 253 253 253 251 255 255 253 255 255 253 253 253 251 254 254 252 
250 250 250 255 255 255 253 253 253 249 249 249 255 255 255 255 255 255 251 251 251 248 248 248 
249 249 249 255 255 255 255 255 255 251 251 251 248 248 248 253 253 253 255 255 255 255 255 255 
254 254 252 254 254 252 254 254 252 255 255 253 255 255 253 255 255 253 255 255 253 255 255 253 
255 255 255 255 255 255 255 255 255 255 255 255 255 255 255 254 254 254 254 254 254 254 254 254 
254 254 254 254 254 254 254 254 254 255 255 255 255 255 255 255 255 255 255 255 255 254 254 254 
255 255 255 254 254 254 254 254 254 254 254 254 254 254 254 254 254 254 254 254 254 254 254 254 

255 255 255 255 255 255 251 251 251 249 249 249 250 250 250 249 249 249 245 245 245 246 246 246 
248 248 248 246 246 246 244 244 244 244 244 244 246 246 246 247 247 247 246 246 246 245 245 245 
246 246 246 248 248 248 250 250 250 251 251 251 252 252 252 254 254 254 254 254 254 253 253 253 
254 254 254 254 254 254 255 255 255 255 255 255 255 255 255 255 255 255 255 255 255 255 255 255 
253 253 253 255 255 255 253 253 253 250 250 250 254 254 254 252 252 252 255 255 255 252 252 252 
255 255 255 250 250 250 255 255 255 251 251 251 254 254 254 251 251 251 255 255 255 254 254 254 
255 255 255 255 255 255 255 255 255 255 255 255 255 255 255 255 255 255 255 255 255 255 255 255 
255 255 255 255 255 255 254 254 254 253 253 253 253 253 253 252 252 252 253 253 253 255 255 255 
249 249 249 247 247 247 252 252 252 252 252 252 251 251 251 252 252 252 249 249 249 252 252 252 
255 255 255 251 251 251 253 253 253 255 255 255 255 255 255 249 249 249 255 255 255 255 255 255 
251 251 251 254 254 254 255 255 255 255 255 255 255 255 255 252 252 252 249 249 249 255 255 255 
254 254 254 251 251 251 253 253 253 255 255 255 255 255 255 252 252 252 252 252 252 255 255 255 
253 253 251 253 253 251 249 248 247 255 255 253 255 255 253 252 252 250 254 254 252 252 252 250 
252 252 250 251 251 249 255 255 253 251 251 249 249 248 247 251 251 249 251 250 248 255 255 253 
255 255 255 254 254 254 252 252 252 254 254 254 255 255 255 248 248 248 247 247 247 255 255 255 
255 255 255 252 252 252 248 248 248 255 255 255 255 255 255 255 255 255 252 252 252 254 254 254 
254 254 252 254 254 252 254 254 252 254 254 252 255 255 253 255 255 253 255 255 253 255 255 253 
255 255 255 255 255 255 255 255 255 255 255 255 254 254 254 254 254 254 254 254 254 254 254 254 
254 254 254 254 254 254 255 255 255 255 255 255 255 255 255 255 255 255 255 255 255 255 255 255 
255 255 255 255 255 255 255 255 255 255 255 255 254 254 254 254 254 254 254 254 254 254 254 254 

254 254 254 254 254 254 250 250 250 248 248 248 249 249 249 247 247 247 243 243 243 243 243 243 
247 247 247 244 244 244 242 242 242 242 242 242 243 243 243 244 244 244 243 243 243 242 242 242 
245 245 245 248 248 248 250 250 250 250 250 250 252 252 252 254 254 254 254 254 254 253 253 253 
254 254 254 254 254 254 255 255 255 255 255 255 255 255 255 255 255 255 255 255 255 255 255 255 
255 255 255 243 243 243 255 255 255 249 249 249 255 255 255 255 255 255 248 248 248 254 254 254 
252 252 252 253 253 253 255 255 255 255 255 255 248 248 248 253 253 253 255 255 255 248 248 248 
251 251 251 251 251 251 251 251 251 251 251 251 251 251 251 251 251 251 250 250 250 250 250 250 
245 245 245 251 251 251 253 253 253 249 249 249 250 250 250 255 255 255 254 254 254 248 248 248 
251 251 251 255 255 255 249 249 249 255 255 255 255 255 255 248 248 248 255 255 255 253 253 253 
255 255 255 249 249 249 252 252 252 253 253 253 251 251 251 250 250 250 255 255 255 242 242 242 
250 250 250 255 255 255 252 252 252 246 246 246 255 255 255 255 255 255 251 251 251 252 252 252 
252 252 252 252 252 252 251 251 251 250 250 250 252 252 252 255 255 255 255 255 255 252 252 252 
255 255 255 255 255 255 243 243 243 253 253 253 255 255 255 248 248 248 255 255 255 254 254 254 
253 253 253 255 255 255 247 247 247 255 255 255 255 255 255 255 255 255 255 255 255 250 250 250 
255 255 255 249 249 249 254 254 254 255 255 255 249 249 249 252 252 252 255 255 255 252 252 252 
252 252 252 254 254 254 250 250 250 254 254 254 251 251 251 255 255 255 255 255 255 255 255 255 
254 254 252 254 254 252 254 254 252 254 254 252 255 255 253 255 255 253 255 255 253 255 255 253 
255 255 255 255 255 255 255 255 255 254 254 254 254 254 254 254 254 254 254 254 254 254 254 254 
254 254 254 254 254 254 255 255 255 255 255 255 255 255 255 255 255 255 255 255 255 255 255 255 
255 255 255 255 255 255 255 255 255 255 255 255 254 254 254 254 254 254 254 254 254 254 254 254 

254 254 254 254 254 254 251 251 251 249 249 249 251 251 251 250 250 250 245 245 245 245 245 245 
249 249 249 246 246 246 243 243 243 243 243 243 245 245 245 246 246 246 244 244 244 243 243 243 
244 244 244 247 247 247 249 249 249 250 250 250 252 252 252 254 254 254 255 255 255 253 253 253 
254 254 254 254 254 254 255 255 255 255 255 255 255 255 255 255 255 255 255 255 255 255 255 255 
254 254 254 254 254 254 253 253 253 182 181 182 193 194 191 255 255 255 255 255 255 252 252 252 
255 255 255 252 252 252 245 245 245 231 230 231 208 210 207 235 235 235 255 255 255 253 253 253 
255 255 255 255 255 255 255 255 255 255 255 255 255 255 255 255 255 255 255 255 255 255 255 255 
253 253 253 255 255 255 254 254 254 250 250 250 255 255 255 255 255 255 226 226 228 193 194 191 
222 222 215 255 255 255 249 249 249 245 245 245 208 210 207 182 181 182 235 235 235 255 255 255 
249 249 249 250 250 250 254 254 254 249 249 249 250 250 250 254 254 254 251 251 251 203 203 200 
166 166 165 226 226 228 255 255 255 252 252 252 252 252 252 253 253 253 251 251 251 255 255 255 
251 251 251 255 255 255 255 255 255 251 251 251 255 255 255 254 254 254 216 212 216 166 166 165 
226 226 228 255 255 255 253 253 253 253 253 253 254 254 254 252 252 252 249 249 249 208 210 207 
170 173 173 237 236 237 255 255 255 255 255 255 208 210 207 173 177 172 226 226 228 254 254 254 
251 251 251 251 251 251 255 255 255 241 241 241 231 230 231 255 255 255 249 249 249 188 182 185 
222 222 215 255 255 255 255 255 255 221 223 223 202 204 202 240 240 240 255 255 255 250 250 250 
253 253 251 254 254 252 254 254 252 254 254 252 254 254 252 255 255 253 255 255 253 255 255 253 
254 254 254 254 254 254 254 254 254 254 254 254 254 254 254 254 254 254 254 254 254 254 254 254 
254 254 254 254 254 254 255 255 255 255 255 255 255 255 255 255 255 255 255 255 255 255 255 255 
255 255 255 255 255 255 255 255 255 255 255 255 255 255 255 254 254 254 254 254 254 254 254 254 

255 255 255 254 254 254 252 252 252 250 250 250 250 250 250 250 250 250 250 250 250 251 251 251 
249 249 249 248 248 248 247 247 247 246 246 246 246 246 246 246 246 246 247 247 247 248 248 248 
247 247 247 247 247 247 248 248 248 250 250 250 252 252 252 254 254 254 254 254 254 254 254 254 
254 254 254 254 254 254 254 254 254 254 254 254 254 254 254 255 255 255 254 254 254 254 254 254 
253 253 253 182 181 182 147 150 146 7 7 7 43 46 42 160 160 159 182 181 182 84 84 82 
43 46 42 32 32 30 8 8 11 0 0 0 4 4 2 151 152 150 235 235 235 117 116 117 
127 130 126 122 124 121 133 133 129 122 124 121 127 130 126 119 117 120 117 116 117 119 117 120 
122 124 121 122 124 121 113 113 110 151 152 150 255 255 255 255 255 255 193 194 191 2 2 1 
106 105 107 251 251 251 255 255 255 253 253 253 84 84 82 0 0 0 223 219 223 252 252 252 
249 249 249 255 255 255 249 249 249 254 254 254 255 255 255 251 251 251 253 253 253 92 93 95 
0 0 0 208 210 207 255 255 255 250 250 250 255 255 255 250 250 250 254 254 254 188 182 185 
166 166 165 166 166 165 166 166 165 193 194 191 134 134 135 240 240 240 160 160 159 0 0 1 
189 187 187 231 230 231 117 116 117 223 219 223 255 255 255 248 248 248 254 254 254 90 92 89 
0 0 0 208 210 207 255 255 255 255 255 255 133 133 129 0 0 0 180 181 179 255 255 255 
250 250 250 255 255 255 255 255 255 137 138 135 14 16 17 180 181 179 235 235 235 13 13 13 
134 134 135 216 212 216 253 253 253 113 113 110 0 0 1 241 241 241 249 249 249 255 255 255 
255 255 253 254 254 252 253 253 251 255 255 253 255 255 253 253 253 251 254 254 252 255 255 253 
253 253 253 253 253 253 253 253 253 254 254 254 254 254 254 254 254 254 254 254 254 254 254 254 
254 254 254 254 254 254 255 255 255 255 255 255 255 255 255 255 255 255 255 255 255 255 255 255 
255 255 255 255 255 255 255 255 255 255 255 255 255 255 255 254 254 254 254 254 254 253 253 253 

255 255 255 254 254 254 252 252 252 250 250 250 249 249 249 249 249 249 249 249 249 249 249 249 
250 250 250 249 249 249 249 249 249 248 248 248 248 248 248 249 249 249 249 249 249 250 250 250 
249 249 249 249 249 249 250 250 250 252 252 252 254 254 254 255 255 255 255 255 255 255 255 255 
255 255 255 254 254 254 254 254 254 254 254 254 254 254 254 255 255 255 254 254 254 254 254 254 
255 255 255 89 91 83 43 46 42 0 0 0 27 28 24 64 62 60 133 133 129 8 8 7 
53 56 53 173 177 172 180 181 179 202 204 202 216 212 216 255 255 255 182 181 182 0 0 0 
4 4 2 0 0 0 0 0 0 0 0 0 0 0 0 0 0 0 2 2 1 2 2 1 
0 0 0 0 0 0 0 0 0 72 73 71 180 181 179 117 116 117 117 116 117 8 8 7 
21 16 17 117 116 117 106 105 107 208 210 207 37 34 37 37 34 37 208 210 207 211 212 213 
208 210 207 231 230 231 211 212 213 64 62 60 58 58 56 64 62 60 64 62 60 29 29 29 
0 0 1 58 58 56 53 56 53 64 62 60 53 56 53 100 102 97 255 255 255 36 37 33 
0 0 0 0 0 0 14 16 17 127 130 126 0 0 0 221 223 223 173 177 172 0 0 0 
211 212 213 199 195 202 0 0 0 173 177 172 173 177 172 72 73 71 98 95 96 32 32 30 
0 0 0 72 73 71 81 83 84 81 83 84 53 56 53 4 4 2 53 56 53 84 84 82 
66 69 70 221 223 223 199 195 202 0 0 0 64 62 60 52 50 44 134 134 135 37 34 37 
133 133 129 39 42 37 180 181 179 66 69 70 58 58 56 245 245 245 235 235 235 240 240 240 
255 255 253 253 253 251 253 253 251 255 255 253 255 255 253 254 254 252 254 254 252 255 255 253 
253 253 253 253 253 253 254 254 254 254 254 254 254 254 254 254 254 254 254 254 254 254 254 254 
254 254 254 254 254 254 255 255 255 255 255 255 255 255 255 255 255 255 255 255 255 255 255 255 
255 255 255 255 255 255 255 255 255 255 255 255 255 255 255 254 254 254 254 254 254 253 253 253 

255 255 255 255 255 255 254 254 254 253 253 253 252 252 252 252 252 252 252 252 252 251 251 251 
251 251 251 251 251 251 251 251 251 251 251 251 251 251 251 252 252 252 252 252 252 253 253 253 
251 251 251 252 252 252 252 252 252 253 253 253 255 255 255 255 255 255 255 255 255 255 255 255 
255 255 255 254 254 254 254 254 254 254 254 254 254 254 254 255 255 255 254 254 254 254 254 254 
255 255 255 166 166 165 144 144 145 13 13 13 36 37 33 100 101 105 158 154 157 8 8 7 
39 42 37 100 101 105 106 105 107 100 101 105 81 83 84 72 73 71 221 223 223 193 194 191 
189 187 187 21 16 17 37 34 37 203 203 200 208 210 207 208 210 207 43 46 42 6 6 4 
182 181 182 189 187 187 196 198 193 223 219 223 98 95 96 0 0 0 6 6 4 0 0 0 
7 7 5 0 0 0 6 6 4 133 133 129 0 0 0 0 0 0 6 6 4 2 2 1 
6 6 4 133 133 129 196 198 193 0 0 0 14 16 17 22 23 18 14 16 17 13 13 13 
2 2 1 8 8 7 22 23 18 22 23 18 4 4 2 39 42 37 255 255 255 202 204 202 
64 62 60 8 8 11 188 182 185 158 154 157 6 6 4 72 73 71 53 56 53 0 0 0 
64 62 60 66 69 70 6 6 4 182 181 182 133 133 129 0 0 0 5 5 3 2 2 1 
8 8 11 0 0 0 0 0 1 0 0 0 0 0 0 2 2 1 13 13 13 0 0 1 
7 7 7 170 169 172 36 37 33 13 13 13 231 230 231 64 62 60 144 144 145 43 46 42 
142 142 140 52 50 44 166 166 165 27 28 24 5 5 3 14 16 17 0 0 0 170 173 173 
254 254 252 253 253 251 254 254 252 255 255 253 255 255 253 254 254 252 254 254 252 255 255 253 
253 253 253 254 254 254 254 254 254 254 254 254 254 254 254 254 254 254 254 254 254 254 254 254 
254 254 254 254 254 254 255 255 255 255 255 255 255 255 255 255 255 255 255 255 255 255 255 255 
255 255 255 255 255 255 255 255 255 255 255 255 255 255 255 254 254 254 254 254 254 253 253 253 

255 255 255 255 255 255 255 255 255 255 255 255 255 255 255 255 255 255 255 255 255 255 255 255 
253 253 253 253 253 253 253 253 253 253 253 253 253 253 253 253 253 253 254 254 254 254 254 254 
254 254 254 253 253 253 254 254 254 255 255 255 255 255 255 255 255 255 255 255 255 255 255 255 
255 255 255 254 254 254 254 254 254 254 254 254 255 255 255 255 255 255 254 254 254 254 254 254 
250 250 250 92 93 95 64 62 60 14 16 17 27 28 24 133 133 129 122 124 121 0 0 1 
72 73 71 107 112 109 29 29 29 2 2 1 98 95 96 106 105 107 226 226 228 255 255 255 
182 181 182 2 2 1 90 92 89 237 236 237 211 212 213 240 240 240 58 58 56 13 13 13 
241 241 241 255 255 255 235 235 235 255 255 255 223 223 223 189 187 187 133 133 129 196 198 193 
170 173 173 122 124 121 235 235 235 92 93 95 6 6 4 90 92 89 92 93 95 8 8 7 
8 8 7 193 194 191 199 195 202 0 0 0 122 124 121 255 255 255 255 255 255 90 92 89 
0 0 0 222 222 215 252 252 252 240 240 240 13 13 13 43 46 42 255 255 255 247 247 247 
90 92 89 0 0 0 255 255 255 208 210 207 58 58 56 43 46 42 53 56 53 72 73 71 
58 58 56 52 50 44 58 58 56 202 204 202 250 250 250 216 212 216 234 235 232 84 84 82 
0 0 0 193 194 191 254 254 254 251 251 251 117 116 117 0 0 0 151 152 150 231 230 231 
235 235 235 189 187 187 4 4 2 158 154 157 234 235 232 53 56 53 37 34 37 7 7 7 
29 29 29 22 23 18 127 130 126 7 7 7 90 92 89 29 29 29 29 29 29 208 210 207 
252 252 250 253 253 251 254 254 252 255 255 253 255 255 253 255 255 253 254 254 252 254 254 252 
254 254 254 254 254 254 254 254 254 254 254 254 254 254 254 254 254 254 254 254 254 254 254 254 
254 254 254 254 254 254 255 255 255 255 255 255 255 255 255 255 255 255 255 255 255 255 255 255 
255 255 255 255 255 255 255 255 255 255 255 255 255 255 255 254 254 254 254 254 254 253 253 253 

253 253 253 253 253 253 253 253 253 254 254 254 254 254 254 254 254 254 254 254 254 254 254 254 
255 255 255 254 254 254 254 254 254 254 254 254 254 254 254 254 254 254 254 254 254 254 254 254 
254 254 254 254 254 254 254 254 254 255 255 255 255 255 255 255 255 255 255 255 255 255 255 255 
255 255 255 254 254 254 254 254 254 254 254 254 255 255 255 255 255 255 255 255 255 254 254 254 
253 253 253 211 212 213 106 105 107 0 0 0 100 101 105 242 242 242 21 16 17 27 28 24 
226 226 228 255 255 255 90 92 89 13 13 13 246 246 246 255 255 255 255 255 255 250 250 250 
58 58 56 0 0 0 7 7 7 0 0 0 2 2 1 98 95 96 53 56 53 4 4 2 
244 244 244 203 203 200 8 8 7 133 133 129 255 255 255 117 116 117 0 0 0 199 195 202 
127 130 126 8 8 7 127 130 126 29 29 29 5 5 3 226 226 228 231 230 231 0 0 0 
90 92 89 255 255 255 182 181 182 0 0 0 122 124 121 250 250 250 251 251 251 90 92 89 
0 0 0 203 203 200 255 255 255 231 230 231 5 5 3 53 56 53 255 255 255 255 255 255 
84 84 82 6 6 4 234 235 232 193 194 191 144 144 145 160 160 159 160 160 159 151 152 150 
158 154 157 160 160 159 134 134 135 160 160 159 247 247 247 255 255 255 255 255 255 193 194 191 
166 166 165 211 212 213 90 92 89 180 181 179 208 210 207 151 152 150 226 226 228 255 255 255 
255 255 255 243 243 243 223 223 223 142 142 140 7 7 5 133 133 129 100 101 105 117 116 117 
113 113 110 122 124 121 66 69 70 5 5 3 251 251 251 43 46 42 90 92 89 255 255 255 
252 252 250 253 253 251 254 254 252 255 255 253 255 255 253 255 255 253 254 254 252 253 253 251 
254 254 254 254 254 254 254 254 254 254 254 254 254 254 254 254 254 254 254 254 254 254 254 254 
254 254 254 254 254 254 255 255 255 255 255 255 255 255 255 255 255 255 255 255 255 255 255 255 
255 255 255 255 255 255 255 255 255 255 255 255 255 255 255 254 254 254 254 254 254 253 253 253 

255 255 255 255 255 255 255 255 255 254 254 254 254 254 254 254 254 254 254 254 254 254 254 254 
255 255 255 255 255 255 254 254 254 254 254 254 254 254 254 254 254 254 253 253 253 253 253 253 
255 255 255 254 254 254 254 254 254 255 255 255 255 255 255 255 255 255 255 255 255 254 254 254 
255 255 255 254 254 254 254 254 254 254 254 254 255 255 255 255 255 255 255 255 255 254 254 254 
255 255 255 166 166 165 43 46 42 72 73 71 173 177 172 199 195 202 81 83 84 7 7 5 
127 130 126 216 212 216 117 116 117 72 73 71 203 203 200 202 204 202 251 251 251 158 154 157 
0 0 0 64 62 60 137 138 135 98 95 96 0 0 0 134 134 135 64 62 60 22 23 18 
166 166 165 13 13 13 4 4 2 137 138 135 173 177 172 2 2 1 72 73 71 247 247 247 
247 247 247 58 58 56 8 8 7 5 5 3 0 0 1 173 177 172 196 198 193 0 0 1 
133 133 129 250 250 250 170 173 173 0 0 0 7 7 7 5 5 3 8 8 7 7 7 7 
6 6 4 0 0 0 0 0 1 4 4 2 0 0 0 52 50 44 249 249 249 98 95 96 
0 0 0 0 0 0 53 56 53 90 92 89 0 0 0 4 4 2 0 0 1 0 0 0 
0 0 0 5 5 3 0 0 0 39 42 37 255 255 255 253 253 253 252 252 252 216 212 216 
189 187 187 193 194 191 8 8 11 37 34 37 246 246 246 252 252 252 243 243 243 231 230 231 
255 255 255 255 255 255 208 210 207 0 0 0 92 93 95 173 177 172 117 116 117 133 133 129 
122 124 121 142 142 140 32 32 30 4 4 2 202 204 202 22 23 18 117 116 117 255 255 255 
251 251 249 253 253 251 254 254 252 254 254 252 255 255 253 255 255 253 255 255 253 253 253 251 
254 254 254 254 254 254 254 254 254 254 254 254 254 254 254 254 254 254 254 254 254 255 255 255 
254 254 254 254 254 254 255 255 255 255 255 255 255 255 255 255 255 255 255 255 255 255 255 255 
255 255 255 255 255 255 255 255 255 255 255 255 255 255 255 254 254 254 254 254 254 253 253 253 

255 255 255 255 255 255 255 255 255 254 254 254 254 254 254 254 254 254 254 254 254 255 255 255 
254 254 254 254 254 254 254 254 254 254 254 254 254 254 254 254 254 254 254 254 254 254 254 254 
255 255 255 254 254 254 254 254 254 255 255 255 255 255 255 255 255 255 255 255 255 255 255 255 
255 255 255 255 255 255 254 254 254 254 254 254 255 255 255 255 255 255 255 255 255 254 254 254 
242 242 242 52 50 44 43 46 42 53 56 53 39 42 37 37 34 37 52 50 44 29 29 29 
32 32 30 39 42 37 58 58 56 52 50 44 27 28 24 14 16 17 151 152 150 22 23 18 
8 8 7 199 195 202 252 252 252 127 130 126 0 0 0 189 187 187 64 62 60 0 0 0 
2 2 1 14 16 17 166 166 165 255 255 255 100 101 105 27 28 24 216 212 216 255 255 255 
193 194 191 81 83 84 106 105 107 144 144 145 0 0 1 113 113 110 142 142 140 0 0 0 
182 181 182 255 255 255 202 204 202 81 83 84 81 83 84 81 83 84 84 84 82 29 29 29 
0 0 0 72 73 71 89 91 83 90 92 89 92 93 95 117 116 117 252 252 252 144 144 145 
22 23 18 7 7 7 106 105 107 223 223 223 211 212 213 235 235 235 64 62 60 27 28 24 
211 212 213 216 212 216 223 219 223 221 223 223 242 242 242 147 150 146 100 102 97 113 113 110 
2 2 1 196 198 193 134 134 135 0 0 0 134 134 135 253 253 253 64 62 60 37 34 37 
243 243 243 250 250 250 66 69 70 0 0 0 147 150 146 122 124 121 29 29 29 53 56 53 
43 46 42 72 73 71 170 173 173 14 16 17 138 135 139 4 4 2 166 166 165 253 253 253 
251 251 249 253 253 251 254 254 252 254 254 252 254 254 252 255 255 253 255 255 253 253 253 251 
254 254 254 254 254 254 254 254 254 254 254 254 254 254 254 254 254 254 255 255 255 255 255 255 
254 254 254 254 254 254 255 255 255 255 255 255 255 255 255 255 255 255 255 255 255 255 255 255 
255 255 255 255 255 255 255 255 255 255 255 255 255 255 255 254 254 254 254 254 254 253 253 253 

255 255 255 254 254 254 253 253 253 252 252 252 252 252 252 253 253 253 254 254 254 254 254 254 
253 253 253 254 254 254 254 254 254 254 254 254 255 255 255 255 255 255 255 255 255 254 254 254 
255 255 255 255 255 255 255 255 255 255 255 255 255 255 255 255 255 255 255 255 255 255 255 255 
255 255 255 255 255 255 254 254 254 254 254 254 255 255 255 255 255 255 255 255 255 254 254 254 
251 251 251 235 235 235 160 160 159 106 105 107 119 117 120 117 116 117 116 116 111 117 116 117 
122 124 121 116 116 111 116 116 111 106 105 107 166 166 165 240 240 240 160 160 159 0 0 0 
90 92 89 7 7 5 142 142 140 36 37 33 22 23 18 237 239 238 53 56 53 0 0 1 
66 69 70 223 219 223 254 254 254 252 252 252 255 255 255 142 142 140 4 4 2 202 204 202 
66 69 70 2 2 1 223 223 223 255 255 255 64 62 60 14 16 17 32 32 30 21 16 17 
239 239 239 252 252 252 255 255 255 251 251 251 255 255 255 249 249 249 255 255 255 107 112 109 
29 29 29 243 243 243 255 255 255 253 253 253 248 248 248 253 253 253 254 254 254 254 254 254 
90 92 89 0 0 0 255 255 255 134 134 135 14 16 17 32 32 30 0 0 1 7 7 5 
32 32 30 21 16 17 8 8 7 133 133 129 255 255 255 52 50 44 32 32 30 113 113 110 
0 0 0 190 194 189 240 240 240 6 6 4 64 62 60 252 252 252 92 93 95 4 4 2 
180 181 179 166 166 165 0 0 0 0 0 0 144 144 145 237 239 238 160 160 159 166 166 165 
160 160 159 199 195 202 253 253 253 43 46 42 37 34 37 7 7 5 216 212 216 255 255 255 
251 251 249 253 253 251 254 254 252 253 253 251 254 254 252 255 255 253 255 255 253 253 253 251 
254 254 254 254 254 254 254 254 254 254 254 254 254 254 254 255 255 255 255 255 255 255 255 255 
254 254 254 254 254 254 255 255 255 255 255 255 255 255 255 255 255 255 255 255 255 255 255 255 
255 255 255 255 255 255 255 255 255 255 255 255 255 255 255 254 254 254 254 254 254 253 253 253 

253 255 254 253 255 254 253 255 254 253 255 254 253 255 254 253 255 255 253 255 255 253 255 255 
254 254 254 254 254 254 254 254 254 254 254 254 254 254 254 254 254 254 254 254 254 254 254 254 
255 255 255 255 255 255 255 255 255 255 255 255 255 255 255 255 255 255 255 255 255 255 255 255 
255 255 255 255 255 255 255 255 255 255 255 255 255 255 255 255 255 255 255 255 255 255 255 255 
250 250 250 255 255 255 180 181 179 100 101 105 117 116 117 117 116 117 117 116 117 113 113 110 
113 113 110 113 113 110 113 113 110 100 101 105 189 187 187 255 255 255 240 240 240 170 169 172 
223 219 223 52 50 44 0 0 0 0 0 0 122 124 121 254 254 254 37 34 37 8 8 7 
237 239 238 255 255 255 166 166 165 193 194 191 255 255 255 202 204 202 14 16 17 13 13 13 
0 0 0 100 101 105 255 255 255 251 251 251 166 166 165 2 2 1 0 0 0 113 113 110 
255 255 255 255 255 255 170 173 173 84 84 82 158 154 157 37 34 37 180 181 179 100 102 97 
0 0 0 133 133 129 255 255 255 208 210 207 27 28 24 133 133 129 250 250 250 255 255 255 
84 84 82 2 2 1 255 255 255 113 113 110 2 2 1 92 93 95 14 16 17 117 116 117 
8 8 11 113 113 110 2 2 1 119 117 120 243 243 243 0 0 0 92 93 95 127 130 126 
0 0 0 182 181 182 255 255 255 193 194 191 237 236 237 255 255 255 211 212 213 0 0 0 
58 58 56 202 204 202 84 84 82 0 0 0 151 152 150 170 169 172 7 7 5 8 8 11 
0 0 0 90 92 89 254 254 254 98 95 96 0 0 0 53 56 53 249 249 249 255 255 255 
252 252 252 252 252 252 253 253 253 254 254 254 254 254 254 254 254 254 253 253 253 253 253 253 
255 255 255 254 254 254 254 254 254 254 254 254 254 254 254 255 255 255 255 255 255 255 255 255 
254 254 254 254 254 254 255 255 255 255 255 255 255 255 255 255 255 255 255 255 255 255 255 255 
255 255 255 255 255 255 255 255 255 255 255 255 255 255 255 255 255 255 254 254 254 254 254 254 

253 255 254 253 255 254 253 255 254 253 255 254 253 255 254 253 255 255 253 255 255 253 255 255 
255 255 255 255 255 255 254 254 254 254 254 254 254 254 254 254 254 254 255 255 255 255 255 255 
255 255 255 255 255 255 255 255 255 255 255 255 255 255 255 255 255 255 255 255 255 255 255 255 
255 255 255 255 255 255 255 255 255 255 255 255 255 255 255 255 255 255 255 255 255 255 255 255 
253 253 253 255 255 255 182 181 182 98 95 96 117 116 117 106 105 107 117 116 117 106 105 107 
106 105 107 116 116 111 113 113 110 100 102 97 182 181 182 255 255 255 244 244 244 255 255 255 
254 254 254 166 166 165 5 5 3 22 23 18 226 226 228 255 255 255 37 34 37 8 8 7 
226 226 228 252 252 252 64 62 60 8 8 11 237 236 237 250 250 250 170 173 173 0 0 0 
0 0 0 160 160 159 254 254 254 255 255 255 211 212 213 13 13 13 4 4 2 180 181 179 
250 250 250 254 254 254 90 92 89 4 4 2 133 133 129 0 0 0 158 154 157 241 241 241 
14 16 17 43 46 42 223 219 223 216 212 216 27 28 24 0 0 1 223 219 223 254 254 254 
84 84 82 7 7 5 151 152 150 90 92 89 36 37 33 182 181 182 27 28 24 196 198 193 
14 16 17 216 212 216 0 0 0 133 133 129 158 154 157 4 4 2 166 166 165 122 124 121 
0 0 0 180 181 179 249 249 249 254 254 254 252 252 252 64 62 60 107 112 109 72 73 71 
0 0 0 208 210 207 223 223 223 0 0 0 160 160 159 166 166 165 0 0 0 237 236 237 
29 29 29 90 92 89 255 255 255 166 166 165 0 0 0 116 116 111 255 255 255 246 246 246 
252 252 252 253 253 253 253 253 253 254 254 254 254 254 254 254 254 254 254 254 254 253 253 253 
255 255 255 254 254 254 254 254 254 254 254 254 254 254 254 255 255 255 255 255 255 255 255 255 
254 254 254 254 254 254 255 255 255 255 255 255 255 255 255 255 255 255 255 255 255 255 255 255 
255 255 255 255 255 255 255 255 255 255 255 255 255 255 255 255 255 255 254 254 254 254 254 254 

253 255 254 253 255 254 253 255 254 253 255 254 253 255 254 253 255 254 253 255 255 253 255 255 
255 255 255 255 255 255 255 255 255 255 255 255 255 255 255 255 255 255 255 255 255 255 255 255 
255 255 255 255 255 255 255 255 255 255 255 255 255 255 255 255 255 255 255 255 255 255 255 255 
255 255 255 255 255 255 255 255 255 255 255 255 255 255 255 255 255 255 255 255 255 255 255 255 
255 255 255 251 251 251 166 166 165 84 84 82 90 92 89 90 92 89 92 93 95 98 95 96 
90 92 89 90 92 89 92 93 95 84 84 82 173 177 172 255 255 255 255 255 255 249 249 249 
173 177 172 8 8 7 0 0 0 160 160 159 254 254 254 249 249 249 37 34 37 13 13 13 
243 243 243 254 254 254 43 46 42 21 16 17 255 255 255 231 230 231 52 50 44 0 0 0 
7 7 5 7 7 7 182 181 182 245 245 245 43 46 42 0 0 0 6 6 4 27 28 24 
216 212 216 241 241 241 0 0 0 64 62 60 170 169 172 2 2 1 160 160 159 255 255 255 
221 223 223 255 255 255 133 133 129 37 34 37 134 134 135 0 0 0 81 83 84 122 124 121 
13 13 13 0 0 0 27 28 24 72 73 71 27 28 24 173 177 172 32 32 30 189 187 187 
14 16 17 199 195 202 8 8 11 122 124 121 151 152 150 0 0 1 221 223 223 113 113 110 
0 0 0 182 181 182 255 255 255 250 250 250 245 245 245 0 0 0 53 56 53 188 182 185 
138 135 139 248 248 248 211 212 213 0 0 0 160 160 159 144 144 145 2 2 1 239 239 239 
39 42 37 0 0 0 117 116 117 72 73 71 0 0 0 29 29 29 223 219 223 253 253 253 
253 253 253 253 253 253 253 253 253 253 253 253 254 254 254 254 254 254 254 254 254 254 254 254 
255 255 255 254 254 254 254 254 254 254 254 254 254 254 254 255 255 255 255 255 255 255 255 255 
254 254 254 254 254 254 255 255 255 255 255 255 255 255 255 255 255 255 255 255 255 255 255 255 
255 255 255 255 255 255 255 255 255 255 255 255 255 255 255 255 255 255 254 254 254 254 254 254 

253 255 254 253 255 254 253 255 254 253 255 254 253 255 254 253 255 254 253 255 255 253 255 255 
255 255 255 255 255 255 255 255 255 254 254 254 254 254 254 255 255 255 255 255 255 255 255 255 
255 255 255 255 255 255 255 255 255 255 255 255 255 255 255 255 255 255 255 255 255 255 255 255 
254 254 254 254 254 254 254 254 254 254 254 254 254 254 254 254 254 254 254 254 254 254 254 254 
247 247 247 253 253 253 122 124 121 0 0 0 117 116 117 160 160 159 147 150 146 138 135 139 
144 144 145 158 154 157 92 93 95 4 4 2 134 134 135 254 254 254 237 236 237 106 105 107 
2 2 1 0 0 0 142 142 140 255 255 255 240 240 240 255 255 255 53 56 53 0 0 0 
52 50 44 53 56 53 0 0 0 72 73 71 173 177 172 22 23 18 0 0 0 119 117 120 
170 169 172 0 0 0 90 92 89 43 46 42 7 7 5 98 95 96 122 124 121 0 0 0 
27 28 24 117 116 117 2 2 1 158 154 157 182 181 182 0 0 0 72 73 71 144 144 145 
147 150 146 133 133 129 32 32 30 0 0 0 202 204 202 122 124 121 189 187 187 64 62 60 
14 16 17 100 101 105 216 212 216 113 113 110 32 32 30 180 181 179 22 23 18 193 194 191 
21 16 17 170 173 173 8 8 7 107 112 109 250 250 250 223 219 223 252 252 252 133 133 129 
0 0 0 58 58 56 98 95 96 98 95 96 58 58 56 0 0 0 92 93 95 250 250 250 
248 248 248 255 255 255 202 204 202 0 0 1 151 152 150 39 42 37 58 58 56 241 241 241 
14 16 17 37 34 37 90 92 89 7 7 7 98 95 96 7 7 7 27 28 24 208 210 207 
253 253 253 253 253 253 253 253 253 253 253 253 253 253 253 254 254 254 254 254 254 255 255 255 
255 255 255 254 254 254 254 254 254 254 254 254 254 254 254 254 254 254 255 255 255 255 255 255 
254 254 254 254 254 254 255 255 255 255 255 255 255 255 255 255 255 255 255 255 255 255 255 255 
255 255 255 255 255 255 255 255 255 255 255 255 255 255 255 255 255 255 254 254 254 254 254 254 

253 255 254 253 255 254 253 255 254 253 255 254 253 255 254 253 255 254 253 255 254 253 255 255 
254 254 254 254 254 254 254 254 254 254 254 254 254 254 254 254 254 254 254 254 254 254 254 254 
255 255 255 255 255 255 255 255 255 255 255 255 255 255 255 255 255 255 255 255 255 255 255 255 
254 254 254 254 254 254 254 254 254 254 254 254 254 254 254 254 254 254 254 254 254 254 254 254 
254 254 254 254 254 254 117 116 117 0 0 0 32 32 30 53 56 53 32 32 30 52 50 44 
39 42 37 43 46 42 32 32 30 0 0 0 144 144 145 253 253 253 223 219 223 37 34 37 
0 0 0 144 144 145 252 252 252 239 239 239 255 255 255 255 255 255 160 160 159 27 28 24 
7 7 7 14 16 17 32 32 30 208 210 207 134 134 135 0 0 0 117 116 117 247 247 247 
251 251 251 221 223 223 122 124 121 0 0 0 90 92 89 252 252 252 254 254 254 106 105 107 
0 0 0 203 203 200 237 236 237 242 242 242 223 223 223 21 16 17 0 0 0 0 0 0 
0 0 0 4 4 2 2 2 1 72 73 71 255 255 255 253 253 253 255 255 255 223 223 223 
248 248 248 253 253 253 249 249 249 106 105 107 13 13 13 196 198 193 90 92 89 202 204 202 
64 62 60 22 23 18 0 0 0 137 138 135 255 255 255 254 254 254 250 250 250 211 212 213 
27 28 24 0 0 0 0 0 0 0 0 0 0 0 0 22 23 18 208 210 207 255 255 255 
251 251 251 253 253 253 203 203 200 0 0 0 84 84 82 8 8 11 180 181 179 255 255 255 
142 142 140 182 181 182 8 8 11 98 95 96 255 255 255 119 117 120 8 8 7 223 219 223 
253 253 253 253 253 253 253 253 253 253 253 253 253 253 253 254 254 254 254 254 254 255 255 255 
255 255 255 255 255 255 254 254 254 254 254 254 254 254 254 254 254 254 254 254 254 255 255 255 
254 254 254 254 254 254 255 255 255 255 255 255 255 255 255 255 255 255 255 255 255 255 255 255 
255 255 255 255 255 255 255 255 255 255 255 255 255 255 255 255 255 255 254 254 254 254 254 254 

253 255 254 253 255 254 253 255 254 253 254 252 253 255 254 253 255 254 253 255 254 253 255 254 
254 254 254 254 254 254 254 254 254 254 254 254 254 254 254 254 254 254 254 254 254 254 254 254 
255 255 255 255 255 255 255 255 255 255 255 255 255 255 255 255 255 255 255 255 255 255 255 255 
254 254 254 254 254 254 254 254 254 254 254 254 254 254 254 254 254 254 254 254 254 254 254 254 
251 251 251 251 251 251 166 166 165 84 84 82 160 160 159 193 194 191 189 187 187 189 187 187 
193 194 191 196 198 193 158 154 157 72 73 71 170 173 173 255 255 255 255 255 255 208 210 207 
173 177 172 255 255 255 242 242 242 255 255 255 247 247 247 254 254 254 250 250 250 244 244 244 
235 235 235 226 226 228 249 249 249 248 248 248 237 236 237 173 177 172 250 250 250 255 255 255 
248 248 248 243 243 243 239 239 239 158 154 157 254 254 254 253 253 253 245 245 245 250 250 250 
190 194 189 246 246 246 255 255 255 250 250 250 254 254 254 234 235 232 166 166 165 189 187 187 
180 181 179 170 173 173 190 194 189 245 245 245 254 254 254 254 254 254 243 243 243 255 255 255 
251 251 251 247 247 247 255 255 255 173 177 172 137 138 135 250 250 250 250 250 250 255 255 255 
255 255 255 160 160 159 158 154 157 245 245 245 255 255 255 250 250 250 254 254 254 255 255 255 
237 236 237 208 210 207 211 212 213 203 203 200 216 212 216 246 246 246 247 247 247 245 245 245 
245 245 245 255 255 255 226 226 228 107 112 109 182 181 182 223 219 223 248 248 248 255 255 255 
251 251 251 255 255 255 180 181 179 247 247 247 246 246 246 239 239 239 216 212 216 254 254 254 
253 253 253 253 253 253 253 253 253 254 254 254 254 254 254 254 254 254 254 254 254 254 254 254 
255 255 255 255 255 255 254 254 254 254 254 254 254 254 254 254 254 254 254 254 254 254 254 254 
254 254 254 254 254 254 255 255 255 255 255 255 255 255 255 255 255 255 255 255 255 255 255 255 
255 255 255 255 255 255 255 255 255 255 255 255 255 255 255 255 255 255 254 254 254 254 254 254 

253 255 254 253 255 254 253 255 254 253 254 252 253 254 252 253 255 254 253 255 254 253 255 254 
255 255 255 254 254 254 254 254 254 254 254 254 254 254 254 254 254 254 254 254 254 255 255 255 
255 255 255 255 255 255 255 255 255 255 255 255 255 255 255 255 255 255 255 255 255 255 255 255 
254 254 254 254 254 254 254 254 254 254 254 254 254 254 254 254 254 254 254 254 254 254 254 254 
254 254 254 255 255 255 254 254 254 255 255 255 255 255 255 255 255 255 252 252 252 253 253 253 
250 250 250 251 251 251 255 255 255 249 249 249 255 255 255 255 255 255 248 248 248 254 254 254 
255 255 255 243 243 243 252 252 252 255 255 255 255 255 255 248 248 248 252 252 252 254 254 254 
255 255 255 255 255 255 249 249 249 253 253 253 249 249 249 255 255 255 247 247 247 244 244 244 
254 254 254 255 255 255 252 252 252 255 255 255 244 244 244 245 245 245 255 255 255 244 244 244 
255 255 255 247 247 247 253 253 253 249 249 249 255 255 255 252 252 252 255 255 255 246 246 246 
255 255 255 252 252 252 253 253 253 251 251 251 255 255 255 248 248 248 255 255 255 244 244 244 
248 248 248 255 255 255 253 253 253 254 254 254 253 253 253 255 255 255 255 255 255 250 250 250 
254 254 254 250 250 250 249 249 249 253 253 253 248 248 248 251 251 251 255 255 255 246 246 246 
255 255 255 255 255 255 252 252 252 255 255 255 255 255 255 242 242 242 255 255 255 255 255 255 
254 254 254 253 253 253 253 253 253 250 250 250 255 255 255 252 252 252 255 255 255 251 251 251 
253 253 253 244 244 244 253 253 253 249 249 249 255 255 255 255 255 255 249 249 249 252 252 252 
253 253 253 253 253 253 254 254 254 254 254 254 255 255 255 255 255 255 254 254 254 254 254 254 
255 255 255 255 255 255 254 254 254 254 254 254 254 254 254 254 254 254 254 254 254 254 254 254 
254 254 254 254 254 254 255 255 255 255 255 255 255 255 255 255 255 255 255 255 255 255 255 255 
255 255 255 255 255 255 255 255 255 255 255 255 255 255 255 255 255 255 254 254 254 254 254 254 

253 255 254 253 255 254 253 255 254 253 254 252 253 254 252 253 254 252 253 255 254 253 255 254 
255 255 255 255 255 255 255 255 255 254 254 254 254 254 254 255 255 255 255 255 255 255 255 255 
255 255 255 255 255 255 255 255 255 255 255 255 255 255 255 255 255 255 255 255 255 255 255 255 
254 254 254 254 254 254 254 254 254 254 254 254 254 254 254 254 254 254 254 254 254 254 254 254 
255 255 255 254 254 254 255 255 255 250 250 250 250 250 250 254 254 254 253 253 253 254 254 254 
254 254 254 251 251 251 248 248 248 252 252 252 252 252 252 248 248 248 255 255 255 249 249 249 
250 250 250 253 253 253 253 253 253 249 249 249 250 250 250 255 255 255 254 254 254 252 252 252 
249 249 249 255 255 255 249 249 249 252 252 252 255 255 255 244 244 244 253 253 253 254 254 254 
254 254 254 246 246 246 254 254 254 248 248 248 254 254 254 255 255 255 246 246 246 254 254 254 
246 246 246 254 254 254 253 253 253 255 255 255 253 253 253 252 252 252 249 249 249 253 253 253 
246 246 246 255 255 255 250 250 250 255 255 255 253 253 253 255 255 255 245 245 245 255 255 255 
255 255 255 246 246 246 255 255 255 253 253 253 248 248 248 254 254 254 250 250 250 253 253 253 
250 250 250 255 255 255 248 248 248 251 251 251 255 255 255 251 251 251 253 253 253 255 255 255 
252 252 252 250 250 250 255 255 255 245 245 245 251 251 251 255 255 255 250 250 250 252 252 252 
255 255 255 251 251 251 254 254 254 251 251 251 253 253 253 253 253 253 247 247 247 255 255 255 
249 249 249 254 254 254 255 255 255 251 251 251 252 252 252 253 253 253 254 254 254 254 254 254 
252 252 252 253 253 253 254 254 254 255 255 255 255 255 255 255 255 255 254 254 254 254 254 254 
255 255 255 255 255 255 254 254 254 254 254 254 254 254 254 254 254 254 254 254 254 254 254 254 
254 254 254 254 254 254 255 255 255 255 255 255 255 255 255 255 255 255 255 255 255 255 255 255 
255 255 255 255 255 255 255 255 255 255 255 255 255 255 255 255 255 255 254 254 254 254 254 254 

253 255 254 253 255 254 253 254 252 253 254 252 253 254 252 253 254 252 253 254 252 253 254 252 
255 255 255 254 254 254 254 254 254 254 254 254 255 255 255 255 255 255 255 255 255 255 255 255 
254 254 254 254 254 254 254 254 254 254 254 254 255 255 255 255 255 255 255 255 255 255 255 255 
254 254 254 255 255 255 255 255 255 255 255 255 255 255 255 254 254 254 254 254 254 254 254 254 
254 254 254 254 254 254 253 253 253 253 253 253 253 253 253 253 253 253 253 253 253 253 253 253 
252 252 252 252 252 252 252 252 252 253 253 253 253 253 253 253 253 253 253 253 253 253 253 253 
252 252 252 252 252 252 251 251 251 252 252 252 253 253 253 253 253 253 253 253 253 253 253 253 
252 252 252 252 252 252 251 251 251 251 251 251 251 251 251 252 252 252 252 252 252 252 252 252 
251 251 251 252 252 252 252 252 252 253 253 253 253 253 253 252 252 252 252 252 252 251 251 251 
252 252 252 252 252 252 252 252 252 252 252 252 252 252 252 252 252 252 253 253 253 253 253 253 
253 253 253 254 254 254 254 254 254 254 254 254 254 254 254 254 254 254 254 254 254 254 254 254 
252 252 252 252 252 252 252 252 252 252 252 252 252 252 252 253 253 253 253 253 253 253 253 253 
252 252 252 252 252 252 252 252 252 253 253 253 253 253 253 253 253 253 253 253 253 253 253 253 
253 253 253 253 253 253 253 253 253 253 253 253 253 253 253 252 252 252 252 252 252 252 252 252 
253 253 253 253 253 253 253 253 253 253 253 253 253 253 253 253 253 253 253 253 253 253 253 253 
253 253 253 253 253 253 252 252 252 253 253 253 253 253 253 254 254 254 253 253 253 253 253 253 
252 252 252 253 253 253 253 253 253 254 254 254 254 254 254 254 254 254 253 253 253 253 253 253 
254 254 254 253 253 253 253 253 253 253 253 253 254 254 254 254 254 254 254 254 254 254 254 254 
255 255 255 255 255 255 255 255 255 255 255 255 255 255 255 255 255 255 255 255 255 254 254 254 
254 254 254 254 254 254 254 254 254 254 254 254 254 254 254 254 254 254 254 254 254 253 253 253 

253 255 254 253 255 254 253 254 252 253 254 252 253 254 252 253 254 252 253 254 252 253 254 252 
254 254 254 254 254 254 254 254 254 254 254 254 255 255 255 255 255 255 255 255 255 254 254 254 
254 254 254 254 254 254 254 254 254 254 254 254 254 254 254 254 254 254 254 254 254 254 254 254 
254 254 254 254 254 254 254 254 254 254 254 254 254 254 254 254 254 254 254 254 254 253 253 253 
253 253 253 253 253 253 253 253 253 253 253 253 253 253 253 253 253 253 253 253 253 253 253 253 
253 253 253 253 253 253 253 253 253 253 253 253 253 253 253 253 253 253 253 253 253 253 253 253 
252 252 252 251 251 251 252 252 252 253 253 253 253 253 253 254 254 254 253 253 253 252 252 252 
250 250 250 251 251 251 251 251 251 251 251 251 252 252 252 252 252 252 253 253 253 252 252 252 
251 251 251 251 251 251 251 251 251 251 251 251 252 252 252 253 253 253 254 254 254 255 255 255 
253 253 253 253 253 253 253 253 253 253 253 253 253 253 253 254 254 254 254 254 254 254 254 254 
252 252 252 252 252 252 252 252 252 252 252 252 252 252 252 252 252 252 252 252 252 252 252 252 
254 254 254 254 254 254 254 254 254 253 253 253 253 253 253 253 253 253 253 253 253 253 253 253 
253 253 253 253 253 253 253 253 253 253 253 253 252 252 252 252 252 252 252 252 252 252 252 252 
252 252 252 252 252 252 252 252 252 252 252 252 253 253 253 253 253 253 253 253 253 253 253 253 
253 253 253 253 253 253 254 254 254 254 254 254 254 254 254 253 253 253 253 253 253 253 253 253 
253 253 253 253 253 253 252 252 252 253 253 253 253 253 253 254 254 254 253 253 253 253 253 253 
252 252 252 253 253 253 253 253 253 254 254 254 254 254 254 254 254 254 253 253 253 253 253 253 
254 254 254 253 253 253 253 253 253 253 253 253 254 254 254 255 255 255 254 254 254 254 254 254 
255 255 255 255 255 255 255 255 255 255 255 255 255 255 255 255 255 255 255 255 255 255 255 255 
255 255 255 254 254 254 254 254 254 254 254 254 255 255 255 255 255 255 254 254 254 253 253 253 

253 255 254 253 255 254 253 254 252 253 254 252 253 254 252 253 254 252 253 254 252 253 255 254 
254 254 254 253 253 253 253 253 253 253 253 253 254 254 254 255 255 255 254 254 254 254 254 254 
253 253 253 253 253 253 253 253 253 254 254 254 254 254 254 254 254 254 254 254 254 254 254 254 
254 254 254 254 254 254 254 254 254 254 254 254 254 254 254 254 254 254 253 253 253 253 253 253 
253 253 251 253 253 251 253 253 251 253 253 251 253 253 251 253 253 251 253 253 251 253 253 251 
253 253 251 253 253 251 253 253 251 253 253 251 253 253 251 253 253 251 253 253 251 253 253 251 
252 252 252 252 252 252 252 252 252 253 253 253 253 253 253 252 252 252 251 251 251 250 250 250 
252 252 252 251 251 251 251 251 251 252 252 252 252 252 252 252 252 252 253 253 253 253 253 253 
254 254 254 254 254 254 253 253 253 253 253 253 253 253 253 253 253 253 253 253 253 254 254 254 
253 253 253 253 253 253 253 253 253 253 253 253 253 253 253 253 253 253 253 253 253 253 253 253 
254 254 254 254 254 254 253 253 253 253 253 253 253 253 253 253 253 253 254 254 254 254 254 254 
254 254 254 254 254 254 254 254 254 254 254 254 254 254 254 254 254 254 254 254 254 254 254 254 
253 253 253 253 253 253 253 253 253 253 253 253 252 252 252 252 252 252 252 252 252 252 252 252 
252 252 252 252 252 252 252 252 252 252 252 252 253 253 253 253 253 253 254 254 254 254 254 254 
253 253 253 253 253 253 254 254 254 254 254 254 254 254 254 254 254 254 254 254 254 253 253 253 
253 253 253 253 253 253 252 252 252 253 253 253 253 253 253 254 254 254 254 254 254 253 253 253 
252 252 252 253 253 253 253 253 253 254 254 254 254 254 254 254 254 254 253 253 253 253 253 253 
253 253 253 253 253 253 253 253 253 253 253 253 254 254 254 255 255 255 255 255 255 254 254 254 
254 254 254 254 254 254 254 254 254 255 255 255 255 255 255 255 255 255 255 255 255 255 255 255 
255 255 255 255 255 255 254 254 254 255 255 255 255 255 255 255 255 255 254 254 254 253 253 253 

253 255 254 253 255 254 253 254 252 253 254 252 253 254 252 253 254 252 253 255 254 253 255 254 
254 254 254 254 254 254 253 253 253 254 254 254 254 254 254 255 255 255 254 254 254 254 254 254 
254 254 254 254 254 254 254 254 254 254 254 254 254 254 254 254 254 254 254 254 254 254 254 254 
254 254 254 254 254 254 254 254 254 254 254 254 254 254 254 254 254 254 254 254 254 253 253 253 
253 253 251 253 253 251 253 253 251 253 253 251 253 253 251 253 253 251 253 253 251 253 253 251 
253 253 251 253 253 251 253 253 251 253 253 251 253 253 251 253 253 251 253 253 251 253 253 251 
253 253 253 252 252 252 252 252 252 252 252 252 252 252 252 251 251 251 250 250 250 249 249 249 
254 254 254 253 253 253 252 252 252 253 253 253 253 253 253 252 252 252 253 253 253 254 254 254 
252 252 252 252 252 252 253 253 253 254 254 254 254 254 254 253 253 253 252 252 252 251 251 251 
252 252 252 252 252 252 252 252 252 252 252 252 252 252 252 252 252 252 252 252 252 252 252 252 
254 254 254 254 254 254 254 254 254 253 253 253 253 253 253 253 253 253 253 253 253 253 253 253 
252 252 252 252 252 252 253 253 253 253 253 253 253 253 253 254 254 254 254 254 254 254 254 254 
253 253 253 253 253 253 253 253 253 253 253 253 253 253 253 253 253 253 253 253 253 253 253 253 
252 252 252 252 252 252 253 253 253 253 253 253 253 253 253 253 253 253 254 254 254 254 254 254 
253 253 253 253 253 253 254 254 254 254 254 254 254 254 254 254 254 254 254 254 254 254 254 254 
253 253 253 253 253 253 252 252 252 253 253 253 254 254 254 254 254 254 254 254 254 253 253 253 
252 252 252 253 253 253 253 253 253 254 254 254 254 254 254 254 254 254 253 253 253 253 253 253 
253 253 253 253 253 253 253 253 253 253 253 253 254 254 254 255 255 255 255 255 255 254 254 254 
254 254 254 254 254 254 254 254 254 254 254 254 254 254 254 255 255 255 255 255 255 255 255 255 
255 255 255 255 255 255 255 255 255 255 255 255 255 255 255 255 255 255 255 255 255 254 254 254 

253 255 254 253 255 254 253 255 254 253 254 252 253 254 252 253 255 254 253 255 254 253 255 254 
255 255 255 254 254 254 254 254 254 254 254 254 255 255 255 255 255 255 255 255 255 255 255 255 
254 254 254 254 254 254 255 255 255 255 255 255 255 255 255 255 255 255 255 255 255 255 255 255 
255 255 255 255 255 255 255 255 255 255 255 255 255 255 255 255 255 255 254 254 254 254 254 254 
253 253 251 253 253 251 253 253 251 253 253 251 253 253 251 254 254 252 254 254 252 254 254 252 
254 254 252 254 254 252 254 254 252 253 253 251 253 253 251 253 253 251 253 253 251 253 253 251 
254 254 254 253 253 253 252 252 252 252 252 252 252 252 252 252 252 252 252 252 252 252 252 252 
249 249 249 248 248 248 249 249 249 252 252 252 252 252 252 250 250 250 250 250 250 251 251 251 
250 250 250 250 250 250 251 251 251 252 252 252 253 253 253 253 253 253 253 253 253 253 253 253 
253 253 253 253 253 253 253 253 253 253 253 253 253 253 253 253 253 253 253 253 253 253 253 253 
252 252 252 252 252 252 253 253 253 253 253 253 253 253 253 252 252 252 252 252 252 251 251 251 
253 253 253 253 253 253 253 253 253 253 253 253 253 253 253 253 253 253 253 253 253 254 254 254 
253 253 253 253 253 253 253 253 253 253 253 253 253 253 253 253 253 253 254 254 254 254 254 254 
253 253 253 253 253 253 253 253 253 253 253 253 253 253 253 253 253 253 253 253 253 253 253 253 
253 253 253 253 253 253 254 254 254 254 254 254 254 254 254 254 254 254 254 254 254 254 254 254 
253 253 253 253 253 253 252 252 252 253 253 253 254 254 254 254 254 254 254 254 254 254 254 254 
253 253 253 253 253 253 253 253 253 253 253 253 254 254 254 254 254 254 253 253 253 253 253 253 
253 253 253 253 253 253 253 253 253 254 254 254 255 255 255 255 255 255 255 255 255 255 255 255 
254 254 254 254 254 254 254 254 254 254 254 254 254 254 254 254 254 254 255 255 255 255 255 255 
255 255 255 255 255 255 255 255 255 255 255 255 255 255 255 255 255 255 255 255 255 254 254 254 

253 255 254 253 255 254 253 255 254 253 254 252 253 255 254 253 255 254 253 255 254 253 255 254 
255 255 255 255 255 255 254 254 254 255 255 255 255 255 255 255 255 255 255 255 255 255 255 255 
255 255 255 255 255 255 255 255 255 255 255 255 255 255 255 255 255 255 255 255 255 255 255 255 
255 255 255 255 255 255 255 255 255 255 255 255 255 255 255 255 255 255 255 255 255 254 254 254 
253 253 251 253 253 251 253 253 251 254 254 252 254 254 252 254 254 252 254 254 252 254 254 252 
254 254 252 254 254 252 254 254 252 254 254 252 254 254 252 253 253 251 253 253 251 253 253 251 
253 253 253 253 253 253 252 252 252 253 253 253 253 253 253 254 254 254 254 254 254 253 253 253 
252 252 252 251 251 251 252 252 252 255 255 255 255 255 255 254 254 254 254 254 254 255 255 255 
255 255 255 254 254 254 253 253 253 252 252 252 252 252 252 253 253 253 254 254 254 255 255 255 
254 254 254 254 254 254 254 254 254 254 254 254 254 254 254 254 254 254 254 254 254 254 254 254 
255 255 255 255 255 255 255 255 255 255 255 255 255 255 255 254 254 254 254 254 254 253 253 253 
253 253 253 253 253 253 253 253 253 253 253 253 253 253 253 253 253 253 252 252 252 252 252 252 
252 252 252 252 252 252 252 252 252 252 252 252 253 253 253 253 253 253 253 253 253 253 253 253 
253 253 253 253 253 253 253 253 253 253 253 253 252 252 252 252 252 252 252 252 252 252 252 252 
252 252 252 253 253 253 253 253 253 253 253 253 254 254 254 254 254 254 254 254 254 254 254 254 
253 253 253 253 253 253 252 252 252 253 253 253 254 254 254 254 254 254 254 254 254 254 254 254 
253 253 253 253 253 253 253 253 253 253 253 253 253 253 253 253 253 253 254 254 254 254 254 254 
253 253 253 253 253 253 253 253 253 254 254 254 255 255 255 255 255 255 255 255 255 255 255 255 
255 255 255 254 254 254 254 254 254 253 253 253 253 253 253 254 254 254 254 254 254 255 255 255 
255 255 255 255 255 255 254 254 254 255 255 255 255 255 255 255 255 255 254 254 254 253 253 253 

253 255 254 253 255 254 253 255 254 253 255 254 253 255 254 253 255 254 253 255 254 253 255 255 
255 255 255 254 254 254 254 254 254 254 254 254 255 255 255 255 255 255 255 255 255 254 254 254 
254 254 254 254 254 254 255 255 255 255 255 255 255 255 255 255 255 255 255 255 255 255 255 255 
255 255 255 255 255 255 255 255 255 255 255 255 255 255 255 255 255 255 254 254 254 254 254 254 
254 254 252 254 254 252 254 254 252 254 254 252 255 255 253 255 255 253 255 255 253 255 255 253 
255 255 253 254 254 252 254 254 252 254 254 252 254 254 252 253 253 251 253 253 251 253 253 251 
253 253 253 253 253 253 253 253 253 253 253 253 253 253 253 252 252 252 250 250 250 248 248 248 
251 251 251 245 245 245 242 242 242 242 242 242 242 242 242 242 242 242 246 246 246 252 252 252 
253 253 253 253 253 253 253 253 253 252 252 252 252 252 252 251 251 251 251 251 251 251 251 251 
251 251 251 251 251 251 251 251 251 251 251 251 250 250 250 250 250 250 250 250 250 250 250 250 
252 252 252 251 251 251 250 250 250 249 249 249 249 249 249 249 249 249 250 250 250 250 250 250 
250 250 250 250 250 250 250 250 250 250 250 250 251 251 251 251 251 251 251 251 251 252 252 252 
251 251 251 251 251 251 251 251 251 251 251 251 251 251 251 251 251 251 251 251 251 251 251 251 
251 251 251 251 251 251 251 251 251 251 251 251 251 251 251 251 251 251 251 251 251 251 251 251 
252 252 252 252 252 252 252 252 252 253 253 253 253 253 253 253 253 253 253 253 253 253 253 253 
253 253 253 253 253 253 252 252 252 253 253 253 254 254 254 255 255 255 255 255 255 254 254 254 
253 253 253 253 253 253 253 253 253 253 253 253 253 253 253 253 253 253 254 254 254 254 254 254 
253 253 253 253 253 253 253 253 253 254 254 254 255 255 255 255 255 255 255 255 255 255 255 255 
255 255 255 255 255 255 254 254 254 253 253 253 253 253 253 253 253 253 254 254 254 254 254 254 
255 255 255 254 254 254 254 254 254 254 254 254 255 255 255 255 255 255 254 254 254 253 253 253 

253 255 254 253 255 254 253 255 254 253 255 254 253 255 254 253 255 254 253 255 255 253 255 255 
254 254 254 254 254 254 253 253 253 254 254 254 254 254 254 255 255 255 254 254 254 254 254 254 
254 254 254 254 254 254 254 254 254 254 254 254 254 254 254 254 254 254 255 255 255 255 255 255 
254 254 254 254 254 254 255 255 255 255 255 255 255 255 255 254 254 254 254 254 254 254 254 254 
254 254 252 254 254 252 254 254 252 255 255 253 255 255 253 255 255 253 255 255 253 255 255 253 
255 255 253 255 255 253 254 254 252 254 254 252 254 254 252 253 253 251 253 253 251 253 253 251 
252 252 252 253 253 253 253 253 253 253 253 253 251 251 251 248 248 248 243 243 243 240 240 240 
226 226 228 216 212 216 208 210 207 202 204 202 203 203 200 202 204 202 211 212 213 223 223 223 
239 239 239 242 242 242 246 246 246 249 249 249 251 251 251 250 250 250 249 249 249 247 247 247 
246 246 246 246 246 246 246 246 246 245 245 245 245 245 245 245 245 245 245 245 245 245 245 245 
242 242 242 240 240 240 237 239 238 237 236 237 237 236 237 237 236 237 239 239 239 240 240 240 
244 244 244 245 245 245 246 246 246 247 247 247 249 249 249 250 250 250 251 251 251 252 252 252 
250 250 250 250 250 250 250 250 250 250 250 250 250 250 250 249 249 249 249 249 249 249 249 249 
249 249 249 249 249 249 249 249 249 249 249 249 250 250 250 250 250 250 250 250 250 251 251 251 
251 251 251 252 252 252 252 252 252 253 253 253 253 253 253 253 253 253 253 253 253 253 253 253 
253 253 253 252 252 252 252 252 252 253 253 253 254 254 254 255 255 255 255 255 255 254 254 254 
253 253 253 253 253 253 253 253 253 253 253 253 253 253 253 253 253 253 254 254 254 254 254 254 
253 253 253 253 253 253 253 253 253 254 254 254 255 255 255 255 255 255 255 255 255 255 255 255 
255 255 255 255 255 255 254 254 254 253 253 253 252 252 252 253 253 253 253 253 253 254 254 254 
254 254 254 254 254 254 254 254 254 254 254 254 254 254 254 254 254 254 254 254 254 253 253 253 

254 254 254 254 254 254 254 254 254 254 254 254 254 254 254 254 254 254 254 254 254 255 255 255 
253 253 253 253 253 253 253 253 253 254 254 254 254 254 254 254 254 254 254 254 254 254 254 254 
255 255 255 254 254 254 254 254 254 254 254 254 255 255 255 255 255 255 255 255 255 255 255 255 
255 255 255 254 254 254 254 254 254 254 254 254 254 254 254 255 255 255 254 254 254 253 253 253 
254 254 252 254 254 252 254 254 252 255 255 253 255 255 253 255 255 253 255 255 253 254 254 252 
255 255 255 254 254 254 254 254 254 255 255 255 255 255 255 254 254 254 253 253 253 252 252 252 
254 254 252 252 252 250 251 250 248 249 248 247 249 248 247 246 246 244 230 231 225 202 204 202 
180 181 179 160 160 159 142 142 140 127 130 126 117 116 117 116 116 111 127 130 126 160 160 159 
193 194 191 231 230 231 246 244 243 246 244 243 251 250 248 249 248 247 246 246 244 246 244 243 
240 240 240 237 239 238 235 235 235 231 230 231 226 226 228 223 219 223 216 212 216 216 212 216 
211 212 213 208 210 207 203 203 200 199 195 202 203 203 200 208 210 207 211 212 213 216 212 216 
223 219 223 231 230 231 235 235 235 239 239 239 250 250 250 245 245 245 249 249 249 247 247 247 
249 248 247 251 251 249 253 253 251 246 246 244 249 248 247 251 251 249 243 243 243 246 246 244 
246 246 244 243 243 243 242 242 242 246 246 244 251 251 249 252 252 250 252 252 250 251 251 249 
250 250 250 250 250 250 251 251 251 252 252 252 252 252 252 253 253 253 253 253 253 253 253 253 
252 252 252 252 252 252 253 253 253 253 253 253 253 253 253 254 254 254 253 253 253 253 253 253 
253 253 253 253 253 253 253 253 253 253 253 253 253 253 253 253 253 253 253 253 253 253 253 253 
252 252 252 253 253 253 253 253 253 254 254 254 254 254 254 255 255 255 255 255 255 255 255 255 
255 255 255 254 254 254 254 254 254 254 254 254 254 254 254 254 254 254 254 254 254 253 253 253 
254 254 254 254 254 254 254 254 254 254 254 254 254 254 254 254 254 254 254 254 254 254 254 254 

254 254 254 254 254 254 254 254 254 254 254 254 254 254 254 254 254 254 254 254 254 254 254 254 
253 253 253 253 253 253 253 253 253 254 254 254 254 254 254 254 254 254 254 254 254 254 254 254 
255 255 255 254 254 254 254 254 254 254 254 254 255 255 255 255 255 255 255 255 255 255 255 255 
255 255 255 255 255 255 254 254 254 254 254 254 255 255 255 255 255 255 254 254 254 254 254 254 
253 253 251 253 253 251 254 254 252 254 254 252 254 254 252 254 254 252 254 254 252 254 254 252 
255 255 255 254 254 254 254 254 254 254 254 254 255 255 255 254 254 254 253 253 253 252 252 252 
249 248 247 246 246 244 246 246 244 249 248 247 246 246 244 231 230 231 189 187 187 142 142 140 
106 105 107 84 84 82 66 69 70 53 56 53 43 46 42 43 46 42 58 58 56 90 92 89 
142 142 140 193 194 191 223 223 223 234 235 232 234 235 232 226 226 228 222 222 215 222 222 215 
208 210 207 202 204 202 203 203 200 196 198 193 193 194 191 190 194 189 190 194 189 190 194 189 
189 187 187 188 182 185 188 182 185 189 187 187 189 187 187 193 194 191 193 194 191 190 194 189 
193 194 191 202 204 202 211 212 213 223 219 223 235 235 235 237 236 237 249 249 249 250 250 250 
246 246 244 246 246 244 246 246 244 237 236 237 234 235 232 234 235 232 223 223 223 226 226 228 
226 226 228 231 230 231 237 236 237 242 243 239 246 244 243 246 246 244 249 248 247 251 250 248 
250 250 250 250 250 250 250 250 250 251 251 251 251 251 251 251 251 251 251 251 251 251 251 251 
252 252 252 252 252 252 252 252 252 253 253 253 253 253 253 253 253 253 253 253 253 253 253 253 
253 253 253 253 253 253 253 253 253 253 253 253 253 253 253 253 253 253 253 253 253 253 253 253 
253 253 253 253 253 253 254 254 254 254 254 254 255 255 255 255 255 255 255 255 255 255 255 255 
255 255 255 254 254 254 254 254 254 254 254 254 254 254 254 254 254 254 254 254 254 254 254 254 
254 254 254 254 254 254 254 254 254 254 254 254 254 254 254 254 254 254 254 254 254 254 254 254 

254 254 254 254 254 254 254 254 254 254 254 254 254 254 254 254 254 254 254 254 254 254 254 254 
253 253 253 253 253 253 253 253 253 254 254 254 254 254 254 254 254 254 254 254 254 255 255 255 
255 255 255 254 254 254 254 254 254 254 254 254 255 255 255 255 255 255 255 255 255 255 255 255 
255 255 255 255 255 255 254 254 254 255 255 255 255 255 255 255 255 255 255 255 255 254 254 254 
253 253 251 253 253 251 253 253 251 254 254 252 254 254 252 254 254 252 254 254 252 253 253 251 
255 255 255 254 254 254 254 254 254 254 254 254 255 255 255 254 254 254 253 253 253 252 252 252 
246 246 244 246 244 243 246 244 243 242 243 239 226 226 228 189 187 187 122 124 121 66 69 70 
39 42 37 27 28 24 14 16 17 9 11 6 6 6 4 2 2 0 9 11 6 32 32 30 
66 69 70 133 133 129 180 181 179 203 203 200 202 204 202 193 194 191 180 181 179 173 177 172 
173 177 172 173 177 172 173 177 172 173 177 172 180 181 179 188 182 185 190 194 189 193 194 191 
196 198 193 199 195 202 202 204 202 208 210 207 208 210 207 208 210 207 202 204 202 203 203 200 
193 194 191 189 187 187 182 181 182 182 181 182 199 195 202 216 212 216 237 236 237 240 240 240 
242 242 242 230 231 225 214 217 212 193 194 191 180 181 179 170 170 165 163 166 158 166 166 165 
180 181 179 196 198 193 221 223 223 239 239 238 246 246 244 249 248 247 251 250 248 251 251 249 
248 248 248 249 249 249 249 249 249 250 250 250 251 251 251 251 251 251 251 251 251 251 251 251 
251 251 251 252 252 252 252 252 252 253 253 253 253 253 253 253 253 253 253 253 253 253 253 253 
253 253 253 253 253 253 253 253 253 253 253 253 253 253 253 253 253 253 253 253 253 253 253 253 
253 253 253 254 254 254 254 254 254 255 255 255 255 255 255 255 255 255 255 255 255 255 255 255 
255 255 255 254 254 254 254 254 254 254 254 254 254 254 254 254 254 254 254 254 254 254 254 254 
254 254 254 254 254 254 254 254 254 254 254 254 254 254 254 254 254 254 254 254 254 254 254 254 

254 254 254 254 254 254 254 254 254 254 254 254 254 254 254 254 254 254 254 254 254 254 254 254 
253 253 253 253 253 253 254 254 254 254 254 254 254 254 254 254 254 254 255 255 255 255 255 255 
255 255 255 254 254 254 254 254 254 254 254 254 255 255 255 255 255 255 255 255 255 255 255 255 
255 255 255 255 255 255 255 255 255 255 255 255 255 255 255 255 255 255 255 255 255 254 254 254 
253 253 251 253 253 251 254 254 252 254 254 252 254 254 252 254 254 252 254 254 252 254 254 252 
255 255 255 254 254 254 254 254 254 254 254 254 254 254 254 254 254 254 253 253 253 252 252 252 
249 248 247 246 246 244 243 243 243 223 223 223 180 181 179 122 124 121 64 62 60 22 23 18 
8 8 6 4 4 2 4 4 2 4 4 2 7 7 5 6 6 4 2 2 0 9 11 6 
22 23 18 72 73 71 122 124 121 160 160 159 182 181 182 180 181 179 173 177 172 173 177 172 
188 182 185 189 187 187 196 198 193 202 204 202 211 212 213 223 219 223 223 223 223 226 226 228 
231 230 231 231 230 231 234 235 232 237 236 237 237 236 237 235 235 235 231 230 231 231 230 231 
226 226 228 211 212 213 193 194 191 173 177 172 180 181 179 189 187 187 208 210 207 208 210 207 
208 210 207 180 181 179 147 150 146 116 116 111 90 92 89 81 83 84 72 73 71 84 84 82 
98 95 96 127 130 126 170 170 165 208 210 207 234 235 232 246 246 244 251 250 248 246 246 244 
247 247 247 248 248 248 249 249 249 250 250 250 251 251 251 251 251 251 252 252 252 252 252 252 
251 251 251 251 251 251 252 252 252 252 252 252 252 252 252 253 253 253 252 252 252 252 252 252 
253 253 253 253 253 253 253 253 253 253 253 253 253 253 253 253 253 253 253 253 253 253 253 253 
254 254 254 254 254 254 255 255 255 255 255 255 255 255 255 255 255 255 255 255 255 255 255 255 
255 255 255 254 254 254 254 254 254 254 254 254 254 254 254 255 255 255 254 254 254 254 254 254 
255 255 255 255 255 255 254 254 254 254 254 254 254 254 254 254 254 254 253 253 253 253 253 253 

255 255 255 255 255 255 254 254 254 254 254 254 254 254 254 254 254 254 254 254 254 254 254 254 
253 253 253 253 253 253 254 254 254 254 254 254 254 254 254 254 254 254 255 255 255 255 255 255 
255 255 255 254 254 254 254 254 254 254 254 254 255 255 255 255 255 255 255 255 255 255 255 255 
255 255 255 255 255 255 254 254 254 255 255 255 255 255 255 255 255 255 255 255 255 254 254 254 
254 254 252 254 254 252 254 254 252 255 255 253 255 255 253 255 255 253 254 254 252 254 254 252 
254 254 254 254 254 254 254 254 254 254 254 254 254 254 254 254 254 254 253 253 253 251 251 251 
249 248 247 246 246 244 237 236 237 196 198 193 133 133 129 64 62 60 22 23 18 6 6 4 
3 3 1 3 3 1 4 4 2 3 3 1 8 8 7 13 13 13 5 5 3 4 4 2 
9 11 6 58 58 56 106 105 107 158 154 157 193 194 191 203 203 200 208 210 207 222 222 215 
221 223 223 223 223 223 231 230 231 235 235 235 237 239 238 240 240 240 241 241 241 241 241 241 
245 245 245 245 245 245 245 245 245 246 246 246 247 247 247 247 247 247 246 246 246 245 245 245 
244 244 244 242 242 242 237 236 237 216 212 216 202 204 202 189 187 187 189 187 187 170 173 173 
137 138 135 98 95 96 64 62 60 39 42 37 22 23 18 14 16 17 14 16 17 22 23 18 
27 28 24 43 46 42 84 84 82 137 138 135 190 194 189 231 230 231 246 244 243 242 242 242 
248 248 248 249 249 249 250 250 250 250 250 250 251 251 251 252 252 252 252 252 252 252 252 252 
251 251 251 251 251 251 252 252 252 252 252 252 252 252 252 253 253 253 252 252 252 252 252 252 
253 253 253 253 253 253 253 253 253 253 253 253 253 253 253 254 254 254 254 254 254 254 254 254 
254 254 254 254 254 254 255 255 255 255 255 255 255 255 255 255 255 255 255 255 255 255 255 255 
255 255 255 254 254 254 254 254 254 254 254 254 254 254 254 255 255 255 255 255 255 254 254 254 
255 255 255 255 255 255 254 254 254 254 254 254 254 254 254 254 254 254 253 253 253 253 253 253 

255 255 255 255 255 255 255 255 255 255 255 255 255 255 255 254 254 254 254 254 254 254 254 254 
253 253 253 254 254 254 254 254 254 254 254 254 254 254 254 255 255 255 255 255 255 255 255 255 
255 255 255 254 254 254 254 254 254 254 254 254 255 255 255 255 255 255 255 255 255 255 255 255 
255 255 255 255 255 255 254 254 254 254 254 254 255 255 255 255 255 255 254 254 254 254 254 254 
254 254 252 254 254 252 254 254 252 255 255 253 255 255 253 255 255 253 255 255 253 255 255 253 
254 254 254 254 254 254 254 254 254 254 254 254 254 254 254 254 254 254 252 252 252 251 251 251 
249 248 247 246 246 244 226 226 228 170 173 173 90 92 89 32 32 30 5 5 3 0 0 0 
6 6 4 7 7 5 8 8 7 5 5 3 7 7 5 8 8 6 2 2 0 6 6 4 
29 29 29 89 91 83 142 142 140 190 194 189 223 223 223 231 230 231 237 236 237 246 246 244 
243 243 243 244 244 244 244 244 244 245 245 245 244 244 244 244 244 244 243 243 243 242 242 242 
245 245 245 246 246 246 247 247 247 248 248 248 249 249 249 249 249 249 248 248 248 248 248 248 
246 246 246 246 246 246 250 250 250 246 246 246 237 236 237 216 212 216 193 194 191 151 152 150 
84 84 82 39 42 37 13 13 13 7 7 5 4 4 2 5 5 3 4 4 2 5 5 3 
2 2 0 4 4 2 22 23 18 64 62 60 133 133 129 196 198 193 237 236 237 249 248 247 
251 251 251 251 251 251 251 251 251 251 251 251 251 251 251 251 251 251 251 251 251 251 251 251 
251 251 251 252 252 252 252 252 252 253 253 253 253 253 253 253 253 253 253 253 253 253 253 253 
253 253 253 253 253 253 253 253 253 253 253 253 254 254 254 254 254 254 254 254 254 254 254 254 
254 254 254 254 254 254 254 254 254 255 255 255 255 255 255 255 255 255 255 255 255 255 255 255 
255 255 255 254 254 254 254 254 254 254 254 254 255 255 255 255 255 255 255 255 255 255 255 255 
255 255 255 255 255 255 255 255 255 254 254 254 254 254 254 253 253 253 253 253 253 253 253 253 

255 255 255 255 255 255 255 255 255 255 255 255 255 255 255 254 254 254 254 254 254 254 254 254 
254 254 254 254 254 254 254 254 254 254 254 254 254 254 254 255 255 255 255 255 255 255 255 255 
255 255 255 254 254 254 254 254 254 254 254 254 255 255 255 255 255 255 255 255 255 255 255 255 
255 255 255 254 254 254 254 254 254 254 254 254 254 254 254 254 254 254 254 254 254 253 253 253 
253 253 251 254 254 252 254 254 252 254 254 252 254 254 252 254 254 252 254 254 252 254 254 252 
254 254 254 254 254 254 254 254 254 254 254 254 254 254 254 254 254 254 252 252 252 251 251 251 
251 250 248 246 246 244 214 217 212 144 144 145 64 62 60 13 13 13 4 4 2 3 3 1 
5 5 3 4 4 2 8 8 6 6 6 4 4 4 2 4 4 2 13 13 13 39 42 37 
92 93 95 158 154 157 202 204 202 230 231 225 246 244 243 246 246 244 246 246 244 246 246 244 
251 251 251 251 251 251 251 251 251 250 250 250 250 250 250 250 250 250 249 249 249 249 249 249 
242 242 242 244 244 244 245 245 245 246 246 246 247 247 247 246 246 246 246 246 246 245 245 245 
246 246 246 240 240 240 242 242 242 244 244 244 248 248 248 239 239 239 223 219 223 173 177 172 
113 113 110 53 56 53 14 16 17 8 8 6 8 8 6 9 11 6 8 8 6 6 6 4 
7 7 5 4 4 2 3 3 1 22 23 18 72 73 71 151 152 150 211 212 213 246 244 243 
250 250 250 250 250 250 251 251 251 251 251 251 251 251 251 251 251 251 251 251 251 251 251 251 
252 252 252 252 252 252 252 252 252 253 253 253 253 253 253 253 253 253 253 253 253 253 253 253 
253 253 253 253 253 253 253 253 253 253 253 253 254 254 254 254 254 254 254 254 254 254 254 254 
254 254 254 254 254 254 254 254 254 254 254 254 255 255 255 254 254 254 254 254 254 254 254 254 
255 255 255 254 254 254 254 254 254 254 254 254 255 255 255 255 255 255 255 255 255 255 255 255 
255 255 255 255 255 255 255 255 255 254 254 254 254 254 254 253 253 253 253 253 253 253 253 253 

255 255 255 255 255 255 255 255 255 255 255 255 255 255 255 254 254 254 254 254 254 254 254 254 
254 254 254 254 254 254 254 254 254 254 254 254 254 254 254 255 255 255 255 255 255 255 255 255 
255 255 255 254 254 254 254 254 254 254 254 254 255 255 255 255 255 255 255 255 255 255 255 255 
254 254 254 254 254 254 253 253 253 253 253 253 254 254 254 254 254 254 253 253 253 253 253 253 
253 253 251 253 253 251 254 254 252 254 254 252 254 254 252 254 254 252 254 254 252 254 254 252 
254 254 254 254 254 254 254 254 254 254 254 254 254 254 254 253 253 253 252 252 252 251 251 251 
249 248 247 246 246 244 208 210 207 122 124 121 39 42 37 4 4 2 4 4 2 6 6 4 
8 8 7 3 3 1 5 5 3 7 7 5 5 5 3 13 13 13 43 46 42 92 93 95 
166 166 165 222 222 215 246 244 243 242 242 242 243 243 243 249 248 247 251 251 249 249 248 247 
249 249 249 249 249 249 249 249 249 249 249 249 248 248 248 247 247 247 245 245 245 244 244 244 
246 246 246 247 247 247 248 248 248 248 248 248 248 248 248 247 247 247 247 247 247 247 247 247 
246 246 246 243 243 243 245 245 245 242 242 242 243 243 243 244 244 244 244 244 244 216 212 216 
170 173 173 98 95 96 39 42 37 21 16 17 9 11 6 9 11 6 7 7 5 4 4 2 
7 7 5 9 11 6 8 8 6 7 7 5 36 37 33 100 102 97 180 181 179 230 231 225 
248 248 248 248 248 248 249 249 249 250 250 250 252 252 252 252 252 252 253 253 253 253 253 253 
252 252 252 252 252 252 253 253 253 253 253 253 253 253 253 254 254 254 253 253 253 253 253 253 
253 253 253 253 253 253 253 253 253 253 253 253 254 254 254 254 254 254 254 254 254 254 254 254 
253 253 253 254 254 254 254 254 254 254 254 254 254 254 254 254 254 254 254 254 254 254 254 254 
255 255 255 254 254 254 254 254 254 254 254 254 255 255 255 255 255 255 255 255 255 255 255 255 
255 255 255 255 255 255 255 255 255 254 254 254 254 254 254 253 253 253 253 253 253 253 253 253 

254 254 254 254 254 254 254 254 254 254 254 254 254 254 254 254 254 254 254 254 254 253 253 253 
253 253 253 254 254 254 255 255 255 255 255 255 255 255 255 255 255 255 255 255 255 255 255 255 
255 255 255 254 254 254 254 254 254 254 254 254 255 255 255 255 255 255 255 255 255 255 255 255 
255 255 255 254 254 254 254 254 254 254 254 254 254 254 254 254 254 254 254 254 254 255 255 255 
254 254 252 253 253 251 253 253 251 253 253 251 253 253 251 253 253 251 253 253 251 254 254 252 
252 252 252 253 253 253 254 254 254 255 255 255 255 255 255 254 254 254 252 252 252 251 251 251 
251 251 249 242 243 239 196 198 193 116 116 111 36 37 33 0 0 0 3 3 1 8 8 7 
8 8 6 7 7 5 5 5 3 3 3 1 3 3 1 36 37 33 89 91 83 147 150 146 
208 210 207 237 236 237 246 244 243 246 246 244 246 246 244 249 248 247 252 252 250 242 243 239 
246 246 246 249 249 249 250 250 250 248 248 248 246 246 246 246 246 246 244 244 244 242 242 242 
247 247 247 248 248 248 248 248 248 248 248 248 248 248 248 248 248 248 245 245 245 240 240 240 
243 243 243 243 243 243 246 246 246 246 246 246 244 244 244 245 245 245 245 245 245 241 241 241 
208 210 207 147 150 146 72 73 71 27 28 24 9 11 6 5 5 3 4 4 2 3 3 1 
8 8 6 9 11 6 9 11 6 9 11 6 22 23 18 66 69 70 142 142 140 222 222 215 
247 247 247 247 247 247 249 249 249 251 251 251 253 253 253 253 253 253 253 253 253 252 252 252 
251 251 251 252 252 252 253 253 253 254 254 254 254 254 254 254 254 254 254 254 254 253 253 253 
253 253 253 253 253 253 253 253 253 254 254 254 254 254 254 254 254 254 254 254 254 254 254 254 
254 254 254 254 254 254 254 254 254 254 254 254 254 254 254 254 254 254 254 254 254 254 254 254 
255 255 255 255 255 255 254 254 254 254 254 254 254 254 254 254 254 254 254 254 254 254 254 254 
254 254 254 254 254 254 254 254 254 254 254 254 255 255 255 254 254 254 253 253 253 252 252 252 

254 254 254 254 254 254 254 254 254 254 254 254 254 254 254 254 254 254 254 254 254 253 253 253 
253 253 253 254 254 254 255 255 255 255 255 255 255 255 255 255 255 255 255 255 255 255 255 255 
254 254 254 253 253 253 253 253 253 254 254 254 255 255 255 255 255 255 255 255 255 254 254 254 
255 255 255 255 255 255 254 254 254 254 254 254 254 254 254 254 254 254 255 255 255 255 255 255 
254 254 252 253 253 251 253 253 251 253 253 251 253 253 251 253 253 251 253 253 251 254 254 252 
252 252 252 253 253 253 253 253 253 254 254 254 255 255 255 254 254 254 252 252 252 251 251 251 
249 248 247 237 236 237 193 194 191 116 116 111 39 42 37 6 6 4 3 3 1 4 4 2 
0 0 0 3 3 1 0 0 0 4 4 2 22 23 18 72 73 71 137 138 135 196 198 193 
234 235 232 246 244 243 243 243 243 249 248 247 251 251 249 246 246 244 249 248 247 246 246 244 
248 248 248 249 249 249 248 248 248 247 247 247 246 246 246 246 246 246 246 246 246 246 246 246 
249 249 249 248 248 248 247 247 247 245 245 245 240 240 240 231 230 231 223 223 223 222 222 215 
223 219 223 223 219 223 226 226 228 231 230 231 237 236 237 243 243 243 247 247 247 244 244 244 
235 235 235 196 198 193 137 138 135 72 73 71 22 23 18 5 5 3 6 6 4 5 5 3 
5 5 3 7 7 5 5 5 3 5 5 3 9 11 6 52 50 44 117 116 117 203 203 200 
247 247 247 247 247 247 249 249 249 250 250 250 252 252 252 253 253 253 253 253 253 252 252 252 
252 252 252 252 252 252 253 253 253 254 254 254 254 254 254 254 254 254 254 254 254 253 253 253 
253 253 253 253 253 253 253 253 253 254 254 254 254 254 254 254 254 254 254 254 254 254 254 254 
254 254 254 254 254 254 254 254 254 254 254 254 254 254 254 254 254 254 254 254 254 254 254 254 
255 255 255 255 255 255 254 254 254 254 254 254 254 254 254 254 254 254 254 254 254 254 254 254 
254 254 254 254 254 254 254 254 254 254 254 254 254 254 254 254 254 254 253 253 253 252 252 252 

254 254 254 254 254 254 254 254 254 254 254 254 254 254 254 254 254 254 254 254 254 253 253 253 
253 253 253 254 254 254 255 255 255 255 255 255 255 255 255 255 255 255 255 255 255 255 255 255 
253 253 253 253 253 253 253 253 253 253 253 253 254 254 254 255 255 255 254 254 254 254 254 254 
255 255 255 255 255 255 255 255 255 254 254 254 254 254 254 255 255 255 255 255 255 255 255 255 
254 254 252 253 253 251 253 253 251 253 253 251 253 253 251 253 253 251 253 253 251 254 254 252 
253 253 253 253 253 253 253 253 253 254 254 254 255 255 255 254 254 254 252 252 252 251 251 251 
251 250 248 239 239 238 196 198 193 113 113 110 36 37 33 3 3 1 4 4 2 7 7 5 
4 4 2 7 7 5 3 3 1 9 11 6 43 46 42 122 124 121 189 187 187 240 240 240 
246 244 243 246 244 243 237 236 237 240 240 240 242 242 242 237 236 237 239 239 238 242 242 242 
245 245 245 244 244 244 244 244 244 244 244 244 243 243 243 241 241 241 241 241 241 242 242 242 
251 250 248 249 248 247 249 248 247 246 246 244 234 235 232 208 210 207 182 188 184 170 170 165 
166 166 165 170 169 172 182 188 184 203 203 200 222 222 215 237 236 237 246 246 244 246 246 244 
249 248 247 235 235 235 196 198 193 119 117 120 43 46 42 8 8 7 8 8 6 8 8 6 
8 8 6 8 8 7 6 6 4 6 6 4 5 5 3 36 37 33 106 105 107 189 187 187 
247 247 247 247 247 247 248 248 248 250 250 250 252 252 252 253 253 253 253 253 253 253 253 253 
253 253 253 253 253 253 253 253 253 253 253 253 253 253 253 254 254 254 254 254 254 254 254 254 
253 253 253 253 253 253 254 254 254 254 254 254 254 254 254 254 254 254 254 254 254 254 254 254 
253 253 253 253 253 253 253 253 253 253 253 253 253 253 253 253 253 253 253 253 253 253 253 253 
255 255 255 254 254 254 254 254 254 254 254 254 254 254 254 254 254 254 254 254 254 254 254 254 
255 255 255 254 254 254 254 254 254 254 254 254 254 254 254 254 254 254 253 253 253 253 253 253 

254 254 254 254 254 254 254 254 254 254 254 254 254 254 254 254 254 254 254 254 254 253 253 253 
253 253 253 254 254 254 254 254 254 255 255 255 255 255 255 255 255 255 254 254 254 254 254 254 
254 254 254 253 253 253 253 253 253 253 253 253 254 254 254 255 255 255 254 254 254 254 254 254 
255 255 255 255 255 255 255 255 255 255 255 255 255 255 255 255 255 255 255 255 255 255 255 255 
254 254 252 253 253 251 253 253 251 253 253 251 253 253 251 253 253 251 253 253 251 254 254 252 
253 253 253 253 253 253 253 253 253 254 254 254 254 254 254 254 254 254 252 252 252 251 251 251 
249 248 247 237 236 237 193 194 191 113 113 110 36 37 33 3 3 1 2 2 0 5 5 3 
3 3 1 3 3 1 0 0 0 13 13 13 66 69 70 151 152 150 208 210 207 242 243 239 
240 240 240 239 239 238 226 226 228 222 222 215 214 217 212 222 222 215 226 226 228 235 235 235 
241 241 241 241 241 241 243 243 243 245 245 245 244 244 244 242 242 242 241 241 241 242 242 242 
242 243 239 240 240 240 242 242 242 239 239 238 222 222 215 180 181 179 137 138 135 113 113 110 
106 105 107 117 116 117 142 142 140 166 166 165 193 194 191 222 222 215 239 239 238 243 243 243 
242 242 242 246 244 243 226 226 228 160 160 159 72 73 71 22 23 18 9 11 6 8 8 6 
7 7 5 6 6 4 5 5 3 4 4 2 0 0 0 29 29 29 98 95 96 182 181 182 
247 247 247 247 247 247 248 248 248 249 249 249 251 251 251 252 252 252 253 253 253 253 253 253 
253 253 253 253 253 253 253 253 253 253 253 253 253 253 253 253 253 253 254 254 254 254 254 254 
253 253 253 253 253 253 254 254 254 254 254 254 254 254 254 254 254 254 254 254 254 254 254 254 
254 254 254 254 254 254 254 254 254 254 254 254 254 254 254 254 254 254 254 254 254 254 254 254 
255 255 255 254 254 254 253 253 253 253 253 253 254 254 254 254 254 254 254 254 254 254 254 254 
255 255 255 255 255 255 254 254 254 253 253 253 254 254 254 254 254 254 254 254 254 253 253 253 

254 254 254 254 254 254 254 254 254 254 254 254 254 254 254 254 254 254 254 254 254 253 253 253 
253 253 253 253 253 253 254 254 254 254 254 254 254 254 254 254 254 254 254 254 254 254 254 254 
254 254 254 254 254 254 253 253 253 254 254 254 255 255 255 255 255 255 255 255 255 254 254 254 
255 255 255 255 255 255 255 255 255 254 254 254 254 254 254 255 255 255 255 255 255 255 255 255 
254 254 252 253 253 251 253 253 251 253 253 251 253 253 251 253 253 251 253 253 251 254 254 252 
253 253 253 253 253 253 253 253 253 253 253 253 254 254 254 253 253 253 252 252 252 251 251 251 
251 250 248 239 239 238 203 203 200 127 130 126 53 56 53 13 13 13 4 4 2 0 0 0 
3 3 1 0 0 0 0 0 0 32 32 30 100 102 97 182 188 184 221 223 223 237 236 237 
237 236 237 226 226 228 202 204 202 182 181 182 173 177 172 182 181 182 203 203 200 226 226 228 
237 236 237 239 239 239 241 241 241 242 242 242 241 241 241 240 240 240 239 239 239 237 236 237 
239 239 238 239 239 238 237 236 237 223 223 223 189 187 187 144 144 145 113 113 110 98 95 96 
92 93 95 106 105 107 122 124 121 147 150 146 170 173 173 203 203 200 226 226 228 239 239 238 
242 242 242 246 246 244 242 243 239 196 198 193 116 116 111 39 42 37 9 11 6 7 7 5 
9 11 6 8 8 6 5 5 3 5 5 3 0 0 0 27 28 24 90 92 89 180 181 179 
247 247 247 247 247 247 247 247 247 249 249 249 251 251 251 252 252 252 253 253 253 253 253 253 
253 253 253 253 253 253 253 253 253 253 253 253 253 253 253 253 253 253 254 254 254 254 254 254 
253 253 253 254 254 254 254 254 254 254 254 254 254 254 254 254 254 254 254 254 254 254 254 254 
254 254 254 254 254 254 254 254 254 254 254 254 254 254 254 254 254 254 254 254 254 254 254 254 
255 255 255 254 254 254 253 253 253 253 253 253 254 254 254 254 254 254 254 254 254 254 254 254 
255 255 255 255 255 255 254 254 254 254 254 254 254 254 254 254 254 254 254 254 254 253 253 253 

254 254 254 254 254 254 254 254 254 254 254 254 254 254 254 254 254 254 254 254 254 253 253 253 
253 253 253 253 253 253 253 253 253 253 253 253 253 253 253 253 253 253 253 253 253 254 254 254 
254 254 254 254 254 254 253 253 253 254 254 254 255 255 255 255 255 255 255 255 255 255 255 255 
255 255 255 255 255 255 254 254 254 254 254 254 254 254 254 254 254 254 255 255 255 255 255 255 
254 254 252 253 253 251 253 253 251 253 253 251 253 253 251 253 253 251 253 253 251 254 254 252 
253 253 253 253 253 253 253 253 253 253 253 253 254 254 254 253 253 253 252 252 252 251 251 251 
251 251 249 246 246 244 222 222 215 151 152 150 66 69 70 13 13 13 0 0 0 2 2 0 
5 5 3 5 5 3 14 16 17 66 69 70 142 142 140 214 217 212 234 235 232 237 236 237 
231 230 231 203 203 200 170 170 165 144 144 145 133 133 129 137 138 135 163 166 158 203 203 200 
235 235 235 240 240 240 242 242 242 239 239 239 237 236 237 235 235 235 231 230 231 223 223 223 
223 223 223 222 222 215 208 210 207 182 188 184 151 152 150 122 124 121 113 113 110 117 116 117 
133 133 129 134 134 135 144 144 145 158 154 157 170 173 173 196 198 193 223 223 223 237 236 237 
242 243 239 246 244 243 249 248 247 226 226 228 160 160 159 72 73 71 21 16 17 8 8 6 
13 13 13 9 11 6 7 7 5 6 6 4 3 3 1 32 32 30 98 95 96 182 181 182 
246 246 246 246 246 246 247 247 247 249 249 249 251 251 251 252 252 252 253 253 253 252 252 252 
253 253 253 253 253 253 253 253 253 253 253 253 253 253 253 253 253 253 253 253 253 253 253 253 
254 254 254 254 254 254 254 254 254 254 254 254 255 255 255 254 254 254 254 254 254 254 254 254 
255 255 255 255 255 255 255 255 255 255 255 255 255 255 255 255 255 255 255 255 255 255 255 255 
254 254 254 254 254 254 253 253 253 253 253 253 254 254 254 254 254 254 254 254 254 254 254 254 
255 255 255 255 255 255 254 254 254 254 254 254 254 254 254 254 254 254 254 254 254 253 253 253 

254 254 254 254 254 254 254 254 254 254 254 254 254 254 254 254 254 254 254 254 254 253 253 253 
253 253 253 253 253 253 253 253 253 253 253 253 253 253 253 253 253 253 253 253 253 253 253 253 
254 254 254 253 253 253 253 253 253 253 253 253 254 254 254 255 255 255 255 255 255 254 254 254 
254 254 254 254 254 254 254 254 254 254 254 254 254 254 254 254 254 254 254 254 254 254 254 254 
254 254 252 253 253 251 253 253 251 253 253 251 253 253 251 253 253 251 253 253 251 254 254 252 
253 253 253 253 253 253 252 252 252 253 253 253 253 253 253 253 253 253 252 252 252 251 251 251 
246 246 244 246 246 244 234 235 232 180 181 179 100 102 97 32 32 30 6 6 4 4 4 2 
4 4 2 9 11 6 39 42 37 106 105 107 180 181 179 231 230 231 234 235 232 234 235 232 
223 223 223 193 194 191 166 166 165 144 144 145 137 138 135 137 138 135 144 144 145 166 166 165 
216 212 216 226 226 228 235 235 235 234 235 232 231 230 231 231 230 231 223 219 223 208 210 207 
203 203 200 193 194 191 180 181 179 158 154 157 142 142 140 137 138 135 147 150 146 160 160 159 
166 166 165 166 166 165 170 170 165 173 177 172 189 187 187 208 210 207 230 231 225 239 239 238 
239 239 238 242 243 239 243 243 243 239 239 238 203 203 200 116 116 111 39 42 37 13 13 13 
8 8 6 6 6 4 2 2 0 3 3 1 6 6 4 39 42 37 107 112 109 193 194 191 
245 245 245 246 246 246 247 247 247 249 249 249 251 251 251 252 252 252 252 252 252 252 252 252 
253 253 253 253 253 253 254 254 254 254 254 254 254 254 254 253 253 253 253 253 253 253 253 253 
254 254 254 254 254 254 254 254 254 255 255 255 255 255 255 254 254 254 254 254 254 254 254 254 
254 254 254 254 254 254 254 254 254 254 254 254 254 254 254 254 254 254 254 254 254 254 254 254 
254 254 254 253 253 253 253 253 253 253 253 253 254 254 254 254 254 254 254 254 254 254 254 254 
255 255 255 255 255 255 254 254 254 255 255 255 255 255 255 255 255 255 254 254 254 253 253 253 

254 254 254 254 254 254 254 254 254 254 254 254 254 254 254 254 254 254 254 254 254 253 253 253 
253 253 253 253 253 253 253 253 253 253 253 253 253 253 253 253 253 253 253 253 253 253 253 253 
253 253 253 253 253 251 252 252 252 253 253 251 254 254 254 254 254 254 254 254 254 253 253 253 
254 254 254 254 254 254 253 253 253 253 253 253 253 253 253 253 253 253 254 254 254 254 254 254 
254 254 252 253 253 251 253 253 251 253 253 251 253 253 251 253 253 251 253 253 251 254 254 252 
253 253 253 253 253 253 252 252 252 253 253 253 253 253 253 253 253 253 252 252 252 251 251 251 
252 252 250 251 250 248 243 243 243 214 217 212 151 152 150 84 84 82 32 32 30 13 13 13 
8 8 6 22 23 18 64 62 60 142 142 140 208 210 207 246 244 243 237 236 237 237 236 237 
226 226 228 208 210 207 190 194 189 173 177 172 173 177 172 173 177 172 158 154 157 158 154 157 
173 177 172 193 194 191 211 212 213 216 212 216 216 212 216 216 212 216 202 204 202 188 182 185 
160 160 159 151 152 150 137 138 135 127 130 126 133 133 129 147 150 146 163 166 158 170 170 165 
173 177 172 173 177 172 180 181 179 189 187 187 196 198 193 214 217 212 231 230 231 237 236 237 
240 240 240 242 242 242 240 240 240 243 243 243 226 226 228 158 154 157 64 62 60 22 23 18 
7 7 5 6 6 4 4 4 2 8 8 6 14 16 17 58 58 56 127 130 126 213 210 212 
244 244 244 245 245 245 247 247 247 249 249 249 252 252 252 252 252 252 252 252 252 251 251 251 
252 252 252 253 253 253 254 254 254 254 254 254 254 254 254 254 254 254 253 253 253 252 252 252 
254 254 254 254 254 254 255 255 255 255 255 255 255 255 255 254 254 254 254 254 254 254 254 254 
254 254 254 254 254 254 254 254 254 254 254 254 254 254 254 254 254 254 254 254 254 254 254 254 
254 254 254 253 253 253 253 253 253 253 253 253 254 254 254 254 254 254 254 254 254 254 254 254 
254 254 254 254 254 254 255 255 255 255 255 255 255 255 255 255 255 255 253 253 253 252 252 252 

254 254 254 255 255 255 254 254 254 253 253 253 255 255 255 255 255 255 252 252 252 253 253 253 
255 255 255 252 252 252 252 252 252 255 255 255 250 250 250 248 248 248 254 254 254 252 252 252 
252 252 250 253 253 251 251 251 249 250 253 247 254 254 252 255 255 253 253 253 251 255 255 253 
254 254 252 254 254 252 255 255 253 255 255 253 255 255 253 255 255 253 254 254 254 254 254 254 
254 254 254 253 253 253 253 253 253 253 253 253 254 254 254 255 255 255 255 255 255 254 254 254 
254 254 254 254 254 254 254 254 254 254 254 254 253 253 253 253 253 253 252 252 252 252 252 252 
251 251 251 248 248 248 243 243 243 235 235 235 208 210 207 151 152 150 81 83 84 37 34 37 
27 28 24 29 29 29 90 92 89 166 166 165 223 219 223 245 245 245 237 236 237 241 241 241 
230 231 225 221 223 223 214 217 212 202 204 202 203 203 200 193 194 191 170 170 165 158 154 157 
151 152 150 160 160 159 170 169 172 193 194 191 208 210 207 208 210 207 202 204 202 173 177 172 
158 154 157 133 133 129 117 116 117 122 124 121 133 133 129 134 134 135 142 142 140 151 152 150 
158 154 157 160 160 159 173 177 172 193 194 191 208 210 207 221 223 223 231 230 231 237 239 238 
241 241 241 242 242 242 242 242 242 246 246 246 235 235 235 189 187 187 106 105 107 22 23 18 
8 8 7 13 13 13 5 5 3 7 7 7 37 34 37 100 101 105 182 181 182 231 230 231 
246 246 246 247 247 247 248 248 248 249 249 249 250 250 250 251 251 251 252 252 252 252 252 252 
253 253 253 253 253 253 253 253 253 254 254 254 254 254 254 254 254 254 253 253 253 253 253 253 
253 253 253 254 254 254 255 255 255 255 255 255 255 255 255 255 255 255 254 254 254 253 253 253 
253 253 253 253 253 253 253 253 253 253 253 253 253 253 253 253 253 253 253 253 253 253 253 253 
252 252 252 252 252 252 253 253 253 253 253 253 254 254 254 255 255 255 253 253 253 251 251 251 
254 254 254 254 254 254 254 254 254 254 254 254 254 254 254 254 254 254 254 254 254 254 254 254 

255 255 255 255 255 255 254 254 254 254 254 254 255 255 255 255 255 255 252 252 252 252 252 252 
255 255 255 252 252 252 249 249 249 249 249 249 247 247 247 249 249 249 253 253 253 251 251 251 
246 246 244 253 253 251 254 254 252 253 253 251 254 254 252 254 254 252 253 253 251 255 255 253 
253 253 251 254 254 252 254 254 252 254 254 252 254 254 252 254 254 252 254 254 254 253 253 253 
254 254 254 253 253 253 253 253 253 254 254 254 254 254 254 255 255 255 255 255 255 254 254 254 
254 254 254 254 254 254 253 253 253 253 253 253 253 253 253 253 253 253 253 253 253 253 253 253 
253 253 253 247 247 247 243 243 243 242 242 242 234 235 232 202 204 202 158 154 157 117 116 117 
72 73 71 81 83 84 137 138 135 193 194 191 231 230 231 246 246 246 240 240 240 243 243 243 
234 235 232 226 226 228 222 222 215 208 210 207 203 203 200 189 187 187 166 166 165 160 160 159 
158 154 157 166 166 165 170 173 173 193 194 191 208 210 207 208 210 207 208 210 207 189 187 187 
170 170 165 151 152 150 142 142 140 134 134 135 127 130 126 113 113 110 113 113 110 117 116 117 
127 130 126 142 142 140 160 160 159 188 182 185 202 204 202 221 223 223 235 235 235 241 241 241 
241 241 241 242 242 242 242 242 242 246 246 246 240 240 240 208 210 207 127 130 126 39 42 37 
13 13 13 13 13 13 14 16 17 43 46 42 100 101 105 173 177 172 226 226 228 245 245 245 
247 247 247 248 248 248 248 248 248 249 249 249 250 250 250 251 251 251 251 251 251 251 251 251 
253 253 253 253 253 253 253 253 253 254 254 254 254 254 254 254 254 254 253 253 253 253 253 253 
253 253 253 254 254 254 255 255 255 255 255 255 255 255 255 255 255 255 254 254 254 253 253 253 
255 255 255 255 255 255 254 254 254 253 253 253 252 252 252 252 252 252 252 252 252 252 252 252 
253 253 253 253 253 253 253 253 253 253 253 253 253 253 253 255 255 255 255 255 255 255 255 255 
254 254 254 254 254 254 254 254 254 254 254 254 254 254 254 254 254 254 254 254 254 254 254 254 

255 255 255 255 255 255 254 254 254 254 254 254 254 254 254 254 254 254 252 252 252 251 251 251 
250 250 250 249 249 249 243 243 243 235 235 235 235 235 235 237 236 237 242 242 242 248 248 248 
246 246 244 252 252 250 252 252 250 251 251 249 253 253 251 254 254 252 253 253 251 254 254 252 
253 253 251 253 253 251 253 253 253 253 253 253 253 253 253 253 253 253 253 253 253 253 253 253 
254 254 254 254 254 254 253 253 253 254 254 254 255 255 255 255 255 255 255 255 255 254 254 254 
254 254 254 253 253 253 253 253 253 252 252 252 252 252 252 253 253 253 253 253 253 254 254 254 
254 254 254 247 247 247 244 244 244 244 244 244 245 245 245 243 243 243 222 222 215 182 181 182 
134 134 135 142 142 140 189 187 187 226 226 228 237 239 238 244 244 244 241 241 241 243 243 243 
237 236 237 231 230 231 223 223 223 208 210 207 180 181 179 151 152 150 134 134 135 142 142 140 
151 152 150 166 166 165 180 181 179 196 198 193 216 212 216 223 219 223 216 212 216 208 210 207 
196 198 193 190 194 189 180 181 179 160 160 159 142 142 140 122 124 121 117 116 117 122 124 121 
142 142 140 160 160 159 182 181 182 202 204 202 222 222 215 226 226 228 235 235 235 241 241 241 
243 243 243 243 243 243 244 244 244 247 247 247 245 245 245 231 230 231 166 166 165 72 73 71 
32 32 30 27 28 24 43 46 42 106 105 107 180 181 179 226 226 228 245 245 245 248 248 248 
249 249 249 249 249 249 249 249 249 250 250 250 250 250 250 251 251 251 251 251 251 251 251 251 
253 253 253 253 253 253 253 253 253 254 254 254 254 254 254 254 254 254 253 253 253 253 253 253 
253 253 253 254 254 254 254 254 254 255 255 255 255 255 255 254 254 254 254 254 254 253 253 253 
252 252 252 252 252 252 251 251 251 251 251 251 250 250 250 251 251 251 251 251 251 251 251 251 
252 252 252 252 252 252 252 252 252 252 252 252 251 251 251 251 251 251 252 252 252 253 253 253 
254 254 254 254 254 254 254 254 254 254 254 254 254 254 254 254 254 254 254 254 254 254 254 254 

255 255 255 255 255 255 254 254 254 253 253 253 252 252 252 253 253 253 253 253 253 250 250 250 
243 243 243 231 230 231 208 210 207 188 182 185 182 181 182 189 187 187 208 210 207 231 230 231 
239 239 238 246 246 244 249 248 247 246 246 244 251 251 249 254 254 252 253 253 251 252 252 250 
253 253 251 253 253 251 253 253 253 253 253 253 253 253 253 253 253 253 253 253 253 253 253 253 
254 254 254 254 254 254 253 253 253 254 254 254 255 255 255 255 255 255 255 255 255 255 255 255 
254 254 254 254 254 254 253 253 253 252 252 252 252 252 252 252 252 252 253 253 253 253 253 253 
252 252 252 248 248 248 248 248 248 243 243 243 241 241 241 248 248 248 237 236 237 202 204 202 
166 166 165 180 181 179 222 222 215 242 242 242 241 241 241 242 242 242 243 243 243 244 244 244 
239 239 238 234 235 232 230 231 225 202 204 202 166 166 165 122 124 121 106 105 107 119 117 120 
151 152 150 173 177 172 196 198 193 216 212 216 231 230 231 231 230 231 231 230 231 231 230 231 
226 226 228 223 223 223 213 210 212 193 194 191 173 177 172 166 166 165 166 166 165 166 166 165 
170 169 172 189 187 187 208 210 207 221 223 223 231 230 231 237 236 237 240 240 240 243 243 243 
246 246 246 244 244 244 246 246 246 248 248 248 247 247 247 240 240 240 193 194 191 106 105 107 
72 73 71 81 83 84 127 130 126 182 181 182 231 230 231 244 244 244 247 247 247 249 249 249 
249 249 249 249 249 249 250 250 250 250 250 250 251 251 251 251 251 251 252 252 252 252 252 252 
253 253 253 253 253 253 253 253 253 254 254 254 254 254 254 254 254 254 253 253 253 253 253 253 
253 253 253 253 253 253 254 254 254 255 255 255 255 255 255 254 254 254 253 253 253 253 253 253 
255 255 255 255 255 255 254 254 254 253 253 253 253 253 253 253 253 253 254 254 254 254 254 254 
252 252 252 253 253 253 255 255 255 255 255 255 255 255 255 253 253 253 253 253 253 254 254 254 
254 254 254 254 254 254 254 254 254 254 254 254 254 254 254 254 254 254 254 254 254 254 254 254 

255 255 255 254 254 254 254 254 254 253 253 253 251 251 251 255 255 255 252 252 252 240 240 240 
223 219 223 173 177 172 134 134 135 92 93 95 92 93 95 100 102 97 134 134 135 173 177 172 
202 204 202 226 226 228 243 243 243 251 250 248 254 254 254 255 255 255 253 253 253 252 252 252 
253 253 253 253 253 253 254 254 254 254 254 254 254 254 254 254 254 254 253 253 255 253 253 255 
254 254 254 253 253 253 253 253 253 254 254 254 254 254 254 255 255 255 255 255 255 254 254 254 
255 255 255 255 255 255 253 253 253 252 252 252 252 252 252 252 252 252 252 252 252 252 252 252 
250 250 250 249 249 249 250 250 250 245 245 245 242 242 242 248 248 248 235 235 235 202 204 202 
180 181 179 196 198 193 231 230 231 246 246 246 242 242 242 244 244 244 247 247 247 246 246 246 
242 242 242 237 236 237 235 235 235 222 222 215 182 181 182 147 150 146 127 130 126 142 142 140 
170 173 173 199 195 202 222 222 215 231 230 231 242 242 242 240 240 240 242 242 242 243 243 243 
239 239 238 239 239 238 231 230 231 222 222 215 208 210 207 202 204 202 202 204 202 202 204 202 
202 204 202 211 212 213 223 223 223 231 230 231 237 239 238 240 240 240 242 242 242 244 244 244 
247 247 247 245 245 245 247 247 247 250 250 250 245 245 245 242 242 242 208 210 207 144 144 145 
113 113 110 144 144 145 199 195 202 223 219 223 240 240 240 246 246 246 247 247 247 244 244 244 
249 249 249 249 249 249 250 250 250 251 251 251 251 251 251 252 252 252 253 253 253 253 253 253 
253 253 253 253 253 253 253 253 253 254 254 254 254 254 254 254 254 254 253 253 253 253 253 253 
253 253 253 253 253 253 254 254 254 254 254 254 254 254 254 254 254 254 253 253 253 253 253 253 
255 255 255 254 254 254 253 253 253 252 252 252 252 252 252 251 251 251 251 251 251 251 251 251 
252 252 252 251 251 251 252 252 252 254 254 254 254 254 254 252 252 252 252 252 252 254 254 254 
254 254 254 254 254 254 254 254 254 254 254 254 254 254 254 254 254 254 254 254 254 254 254 254 

254 254 254 252 252 252 254 254 254 253 253 253 253 253 253 255 255 255 240 240 240 208 210 207 
151 152 150 92 93 95 52 50 44 13 13 13 14 16 17 22 23 18 43 46 42 84 84 82 
142 142 140 182 181 182 223 223 223 246 244 243 254 254 254 255 255 255 254 254 254 253 253 253 
253 253 253 253 253 253 254 254 254 254 254 254 254 254 254 254 254 254 253 253 255 253 253 255 
253 253 253 253 253 253 253 253 253 253 253 253 254 254 254 254 254 254 254 254 254 254 254 254 
255 255 255 255 255 255 254 254 254 253 253 253 252 252 252 251 251 251 251 251 251 251 251 251 
250 250 250 247 247 247 247 247 247 246 246 246 247 247 247 247 247 247 223 223 223 189 187 187 
182 181 182 208 210 207 235 235 235 244 244 244 244 244 244 246 246 246 247 247 247 244 244 244 
243 243 243 237 236 237 237 236 237 234 235 232 223 223 223 202 204 202 189 187 187 193 194 191 
208 210 207 226 226 228 237 236 237 241 241 241 242 242 242 241 241 241 247 247 247 248 248 248 
242 242 242 242 242 242 237 236 237 234 235 232 231 230 231 234 235 232 230 231 225 223 223 223 
235 235 235 237 236 237 237 239 238 240 240 240 242 242 242 243 243 243 243 243 243 243 243 243 
246 246 246 245 245 245 246 246 246 248 248 248 245 245 245 243 243 243 223 219 223 170 169 172 
160 160 159 189 187 187 235 235 235 240 240 240 251 251 251 250 250 250 251 251 251 253 253 253 
249 249 249 250 250 250 250 250 250 251 251 251 252 252 252 253 253 253 253 253 253 254 254 254 
253 253 253 253 253 253 253 253 253 254 254 254 254 254 254 254 254 254 253 253 253 253 253 253 
253 253 253 253 253 253 253 253 253 254 254 254 254 254 254 253 253 253 253 253 253 253 253 253 
251 251 251 251 251 251 251 251 251 251 251 251 251 251 251 251 251 251 251 251 251 251 251 251 
255 255 255 251 251 251 250 250 250 252 252 252 252 252 252 250 250 250 250 250 250 252 252 252 
253 253 253 253 253 253 253 253 253 253 253 253 253 253 253 253 253 253 253 253 253 253 253 253 

254 254 254 252 252 252 253 253 253 253 253 253 253 253 253 250 250 250 216 212 216 160 160 159 
92 93 95 43 46 42 27 28 24 7 7 5 13 13 13 8 8 11 22 23 18 37 34 37 
66 69 70 119 117 120 173 177 172 211 212 213 237 239 238 252 252 252 254 254 254 252 252 252 
252 251 254 253 253 255 253 253 255 253 253 255 253 253 255 253 253 255 253 253 255 252 251 254 
253 253 253 252 252 252 252 252 252 252 252 252 253 253 253 254 254 254 254 254 254 253 253 253 
254 254 254 254 254 254 253 253 253 253 253 253 252 252 252 252 252 252 251 251 251 251 251 251 
252 252 252 248 248 248 245 245 245 245 245 245 247 247 247 237 236 237 208 210 207 180 181 179 
189 187 187 222 222 215 237 239 238 243 243 243 246 246 246 248 248 248 246 246 246 243 243 243 
243 243 243 239 239 238 239 239 238 239 239 238 243 243 243 241 241 241 231 230 231 231 230 231 
235 235 235 242 242 242 243 243 243 245 245 245 243 243 243 243 243 243 249 249 249 245 245 245 
242 243 239 239 239 238 234 235 232 231 230 231 234 235 232 237 236 237 237 236 237 234 235 232 
237 236 237 237 236 237 239 239 239 241 241 241 243 243 243 244 244 244 246 246 246 246 246 246 
247 247 247 249 249 249 246 246 246 245 245 245 246 246 246 247 247 247 226 226 228 182 181 182 
170 173 173 189 187 187 231 230 231 240 240 240 251 251 251 244 244 244 243 243 243 252 252 252 
250 250 250 251 251 251 251 251 251 252 252 252 252 252 252 253 253 253 253 253 253 253 253 253 
253 253 253 253 253 253 253 253 253 254 254 254 254 254 254 254 254 254 253 253 253 253 253 253 
253 253 253 253 253 253 253 253 253 253 253 253 253 253 253 253 253 253 253 253 253 253 253 253 
255 255 255 255 255 255 254 254 254 253 253 253 251 251 251 249 249 249 247 247 247 246 246 246 
245 245 245 242 242 242 243 243 243 250 250 250 255 255 255 255 255 255 254 254 254 255 255 255 
253 253 253 253 253 253 253 253 253 253 253 253 253 253 253 253 253 253 253 253 253 253 253 253 

255 255 255 252 252 252 253 253 253 253 253 253 252 252 252 243 243 243 193 194 191 122 124 121 
39 42 37 7 7 5 13 13 13 6 6 4 13 13 13 6 6 4 8 8 7 14 16 17 
27 28 24 72 73 71 127 130 126 173 177 172 223 219 223 248 248 248 254 254 254 250 250 250 
252 251 254 252 251 254 252 251 254 252 251 254 252 251 254 252 251 254 252 251 254 252 251 254 
252 252 252 252 252 252 252 252 252 252 252 252 253 253 253 253 253 253 253 253 253 253 253 253 
253 253 253 253 253 253 253 253 253 253 253 253 253 253 253 252 252 252 252 252 252 251 251 251 
252 252 252 252 252 252 248 248 248 246 246 246 244 244 244 226 226 228 196 198 193 173 177 172 
193 194 191 226 226 228 243 243 243 244 244 244 250 250 250 251 251 251 248 248 248 246 246 246 
243 243 243 243 243 243 246 244 243 239 239 238 242 242 242 243 243 243 237 236 237 239 239 239 
241 241 241 243 243 243 244 244 244 248 248 248 246 246 246 248 248 248 252 252 252 241 241 241 
239 239 238 234 235 232 223 223 223 214 217 212 222 222 215 226 226 228 234 235 232 237 236 237 
241 241 241 242 242 242 244 244 244 244 244 244 244 244 244 244 244 244 245 245 245 245 245 245 
248 248 248 253 253 253 247 247 247 243 243 243 248 248 248 252 252 252 231 230 231 189 187 187 
170 169 172 190 194 189 240 240 240 241 241 241 253 253 253 252 252 252 251 251 251 254 254 254 
251 251 251 251 251 251 252 252 252 252 252 252 252 252 252 252 252 252 253 253 253 253 253 253 
253 253 253 253 253 253 253 253 253 254 254 254 254 254 254 254 254 254 253 253 253 253 253 253 
253 253 253 253 253 253 253 253 253 253 253 253 253 253 253 253 253 253 253 253 253 253 253 253 
253 253 253 252 252 252 248 248 248 243 243 243 237 236 237 231 230 231 226 226 228 221 223 223 
211 212 213 211 212 213 221 223 223 237 236 237 248 248 248 251 251 251 251 251 251 251 251 251 
253 253 253 253 253 253 253 253 253 253 253 253 253 253 253 253 253 253 253 253 253 253 253 253 

249 249 249 255 255 255 254 254 254 250 250 250 251 251 251 231 230 231 170 169 172 100 101 105 
37 34 37 7 7 5 4 4 2 4 4 2 8 8 7 5 5 3 5 5 3 5 5 3 
13 13 13 39 42 37 81 83 84 137 138 135 193 194 191 231 230 231 246 246 246 254 254 254 
252 251 254 253 253 255 253 253 255 250 250 253 250 250 250 250 250 253 252 251 254 253 253 255 
250 250 250 250 250 250 252 252 252 253 253 253 254 254 254 253 253 253 253 253 253 253 253 253 
252 252 252 252 252 252 252 252 252 251 251 251 251 251 251 251 251 251 251 251 251 251 251 251 
250 250 250 249 249 249 248 248 248 245 245 245 240 240 240 226 226 228 180 181 179 173 177 172 
208 210 207 231 230 231 244 244 244 247 247 247 249 249 249 249 249 249 247 247 247 246 246 246 
245 245 245 247 247 247 243 243 243 241 241 241 243 243 243 237 236 237 231 230 231 237 236 237 
240 240 240 242 242 242 245 245 245 237 239 238 235 235 235 240 240 240 239 239 238 242 243 239 
234 235 232 226 226 228 213 210 212 196 198 193 193 194 191 208 210 207 222 222 215 230 231 225 
234 235 232 237 236 237 241 241 241 244 244 244 245 245 245 246 246 246 247 247 247 248 248 248 
249 249 249 250 250 250 248 248 248 247 247 247 246 246 246 248 248 248 231 230 231 189 187 187 
170 173 173 196 198 193 235 235 235 244 244 244 249 249 249 250 250 250 253 253 253 252 252 252 
250 250 250 250 250 250 249 249 249 250 250 250 252 252 252 254 254 254 254 254 254 253 253 253 
253 253 253 253 253 253 252 252 252 252 252 252 252 252 252 252 252 252 252 252 252 252 252 252 
254 254 254 253 253 253 253 253 253 253 253 253 252 252 252 251 251 251 252 252 252 252 252 252 
251 251 251 246 246 246 239 239 239 216 212 216 193 194 191 180 181 179 160 160 159 144 144 145 
142 142 140 144 144 145 158 154 157 193 194 191 226 226 228 237 239 238 251 251 251 255 255 255 
252 252 252 252 252 252 255 255 255 254 254 254 253 253 253 255 255 255 253 253 253 254 254 254 

255 255 255 255 255 255 249 249 249 248 248 248 243 243 243 208 210 207 134 134 135 58 58 56 
27 28 24 8 8 7 13 13 13 8 8 7 7 7 5 5 5 3 7 7 7 7 7 7 
8 8 7 21 16 17 43 46 42 90 92 89 147 150 146 196 198 193 226 226 228 243 243 243 
242 242 244 245 245 245 247 246 247 250 250 253 254 254 254 255 255 255 252 251 254 247 246 247 
254 254 254 254 254 254 254 254 254 254 254 254 254 254 254 254 254 254 254 254 254 255 255 255 
253 253 253 253 253 253 253 253 253 252 252 252 252 252 252 252 252 252 252 252 252 252 252 252 
253 253 253 249 249 249 247 247 247 248 248 248 240 240 240 211 212 213 166 166 165 170 173 173 
223 219 223 237 236 237 247 247 247 248 248 248 250 250 250 250 250 250 248 248 248 247 247 247 
244 244 244 246 246 246 243 243 243 240 240 240 239 239 239 231 230 231 221 223 223 226 226 228 
234 235 232 235 235 235 239 239 239 231 230 231 226 226 228 226 226 228 222 222 215 222 222 215 
222 222 215 214 217 212 196 198 193 180 181 179 170 173 173 180 181 179 196 198 193 208 210 207 
226 226 228 231 230 231 235 235 235 239 239 239 241 241 241 243 243 243 244 244 244 245 245 245 
250 250 250 250 250 250 248 248 248 247 247 247 246 246 246 250 250 250 235 235 235 196 198 193 
173 177 172 196 198 193 235 235 235 247 247 247 252 252 252 251 251 251 253 253 253 250 250 250 
250 250 250 249 249 249 249 249 249 250 250 250 251 251 251 252 252 252 253 253 253 252 252 252 
253 253 253 253 253 253 253 253 253 252 252 252 252 252 252 252 252 252 252 252 252 253 253 253 
254 254 254 254 254 254 253 253 253 253 253 253 253 253 253 253 253 253 252 252 252 252 252 252 
248 248 248 231 230 231 202 204 202 160 160 159 117 116 117 92 93 95 72 73 71 58 58 56 
64 62 60 64 62 60 72 73 71 117 116 117 180 181 179 223 223 223 248 248 248 245 245 245 
251 251 251 251 251 251 253 253 253 253 253 253 254 254 254 255 255 255 253 253 253 255 255 255 

254 254 254 253 253 253 250 250 250 255 255 255 247 247 247 203 203 200 119 117 120 37 34 37 
7 7 7 0 0 0 13 13 13 7 7 7 7 7 5 6 6 4 8 8 7 5 5 3 
4 4 2 5 5 3 14 16 17 53 56 53 106 105 107 158 154 157 193 194 191 211 212 213 
231 230 231 240 240 240 245 245 245 245 245 245 245 245 245 250 250 250 253 253 255 253 253 255 
251 251 251 251 251 251 250 250 250 250 250 250 249 249 249 249 249 249 250 250 250 251 251 251 
250 250 250 250 250 250 250 250 250 250 250 250 250 250 250 250 250 250 250 250 250 250 250 250 
250 250 250 247 247 247 247 247 247 248 248 248 231 230 231 193 194 191 160 160 159 193 194 191 
231 230 231 243 243 243 249 249 249 248 248 248 250 250 250 251 251 251 248 248 248 247 247 247 
243 243 243 245 245 245 243 243 243 237 236 237 231 230 231 216 212 216 202 204 202 208 210 207 
208 210 207 216 212 216 222 222 215 208 210 207 203 203 200 193 194 191 189 187 187 182 181 182 
180 181 179 180 181 179 173 177 172 166 166 165 166 166 165 180 181 179 193 194 191 202 204 202 
211 212 213 216 212 216 223 223 223 231 230 231 237 236 237 241 241 241 245 245 245 249 249 249 
249 249 249 250 250 250 249 249 249 248 248 248 246 246 246 251 251 251 240 240 240 202 204 202 
170 173 173 189 187 187 226 226 228 242 242 242 247 247 247 247 247 247 250 250 250 250 250 250 
251 251 251 250 250 250 250 250 250 251 251 251 252 252 252 253 253 253 253 253 253 253 253 253 
253 253 253 253 253 253 252 252 252 252 252 252 252 252 252 252 252 252 253 253 253 253 253 253 
251 251 251 251 251 251 251 251 251 252 252 252 253 253 253 253 253 253 251 251 251 249 249 249 
243 243 243 216 212 216 173 177 172 119 117 120 66 69 70 43 46 42 27 28 24 22 23 18 
14 16 17 14 16 17 22 23 18 53 56 53 117 116 117 188 182 185 235 235 235 246 246 246 
249 249 249 252 252 252 252 252 252 252 252 252 254 254 254 254 254 254 253 253 253 255 255 255 

254 254 254 254 254 254 253 253 253 255 255 255 245 245 245 208 210 207 137 138 135 64 62 60 
22 23 18 7 7 7 8 8 7 5 5 3 7 7 5 7 7 5 8 8 7 2 2 1 
4 4 2 3 3 1 8 8 7 36 37 33 81 83 84 122 124 121 158 154 157 180 181 179 
196 198 193 216 212 216 237 236 237 242 242 242 242 242 244 245 245 245 247 246 247 247 246 247 
248 248 248 249 249 249 250 250 250 250 250 250 249 249 249 250 250 250 251 251 251 252 252 252 
252 252 252 252 252 252 252 252 252 252 252 252 251 251 251 251 251 251 251 251 251 251 251 251 
252 252 252 251 251 251 250 250 250 247 247 247 223 223 223 173 177 172 158 154 157 196 198 193 
239 239 239 246 246 246 248 248 248 246 246 246 249 249 249 250 250 250 247 247 247 245 245 245 
245 245 245 245 245 245 242 242 242 234 235 232 216 212 216 199 195 202 189 187 187 189 187 187 
182 181 182 182 181 182 189 187 187 173 177 172 160 160 159 147 150 146 137 138 135 134 134 135 
133 133 129 142 142 140 151 152 150 166 166 165 180 181 179 193 194 191 196 198 193 196 198 193 
196 198 193 199 195 202 202 204 202 211 212 213 223 219 223 226 226 228 237 236 237 242 242 242 
247 247 247 249 249 249 249 249 249 248 248 248 246 246 246 251 251 251 243 243 243 208 210 207 
173 177 172 182 181 182 223 219 223 241 241 241 246 246 246 244 244 244 251 251 251 255 255 255 
251 251 251 251 251 251 252 252 252 252 252 252 253 253 253 254 254 254 254 254 254 253 253 253 
252 252 252 252 252 252 252 252 252 251 251 251 251 251 251 252 252 252 253 253 253 253 253 253 
254 254 254 254 254 254 254 254 254 254 254 254 255 255 255 253 253 253 247 247 247 242 242 242 
226 226 228 190 194 189 142 142 140 84 84 82 39 42 37 22 23 18 13 13 13 8 8 7 
2 2 1 6 6 4 8 8 7 14 16 17 43 46 42 100 101 105 180 181 179 226 226 228 
242 242 242 252 252 252 252 252 252 253 253 253 255 255 255 252 252 252 252 252 252 253 253 253 

255 255 255 255 255 255 251 251 251 249 249 249 245 245 245 231 230 231 180 181 179 113 113 110 
53 56 53 22 23 18 13 13 13 5 5 3 6 6 4 4 4 2 7 7 5 7 7 5 
4 4 2 2 2 0 4 4 2 22 23 18 53 56 53 89 91 83 122 124 121 151 152 150 
163 166 158 180 181 179 203 203 200 216 212 216 226 226 228 235 235 235 237 239 238 237 236 237 
242 242 242 245 245 245 248 248 248 249 249 249 250 250 250 250 250 250 251 251 251 252 252 252 
252 252 252 252 252 252 251 251 251 251 251 251 251 251 251 251 251 251 251 251 251 251 251 251 
249 249 249 250 250 250 249 249 249 237 239 238 211 212 213 166 166 165 160 160 159 203 203 200 
242 242 242 247 247 247 247 247 247 246 246 246 249 249 249 250 250 250 246 246 246 244 244 244 
246 246 246 243 243 243 240 240 240 231 230 231 208 210 207 193 194 191 182 181 182 180 181 179 
173 177 172 170 173 173 166 166 165 147 150 146 127 130 126 113 113 110 100 102 97 98 95 96 
100 102 97 122 124 121 151 152 150 180 181 179 196 198 193 208 210 207 202 204 202 193 194 191 
193 194 191 190 194 189 193 194 191 199 195 202 208 210 207 216 212 216 226 226 228 235 235 235 
244 244 244 247 247 247 248 248 248 249 249 249 246 246 246 250 250 250 242 242 242 208 210 207 
166 166 165 166 166 165 202 204 202 239 239 239 250 250 250 243 243 243 248 248 248 252 252 252 
250 250 250 250 250 250 251 251 251 252 252 252 253 253 253 253 253 253 253 253 253 253 253 253 
253 253 253 253 253 253 252 252 252 252 252 252 252 252 252 253 253 253 253 253 253 253 253 253 
253 253 253 253 253 253 252 252 252 252 252 252 252 252 252 249 249 249 240 240 240 231 230 231 
216 212 216 170 169 172 117 116 117 64 62 60 32 32 30 21 16 17 13 13 13 8 8 7 
0 0 0 0 0 0 6 6 4 6 6 4 6 6 4 37 34 37 113 113 110 180 181 179 
223 223 223 247 247 247 250 250 250 252 252 252 255 255 255 251 251 251 252 252 252 253 253 253 

254 254 254 255 255 255 251 251 251 249 249 249 251 251 251 247 247 247 203 203 200 127 130 126 
43 46 42 13 13 13 7 7 5 6 6 4 7 7 7 0 0 0 2 2 1 6 6 4 
2 2 0 2 2 0 3 3 1 9 11 6 29 29 29 53 56 53 84 84 82 113 113 110 
127 130 126 144 144 145 160 160 159 170 173 173 188 182 185 199 195 202 216 212 216 226 226 228 
226 226 228 234 235 232 239 239 239 242 242 242 244 244 244 245 245 245 247 247 247 249 249 249 
248 248 248 248 248 248 249 249 249 249 249 249 250 250 250 250 250 250 250 250 250 250 250 250 
247 247 247 251 251 251 244 244 244 211 212 213 170 173 173 138 135 139 166 166 165 222 222 215 
244 244 244 248 248 248 247 247 247 247 247 247 251 251 251 251 251 251 247 247 247 245 245 245 
245 245 245 240 240 240 237 236 237 226 226 228 208 210 207 196 198 193 196 198 193 193 194 191 
190 194 189 182 181 182 173 177 172 151 152 150 133 133 129 119 117 120 106 105 107 106 105 107 
122 124 121 151 152 150 182 181 182 208 210 207 222 222 215 222 222 215 208 210 207 203 203 200 
188 182 185 182 181 182 189 187 187 193 194 191 202 204 202 211 212 213 223 223 223 234 235 232 
242 242 242 245 245 245 247 247 247 249 249 249 247 247 247 250 250 250 242 242 242 208 210 207 
151 152 150 133 133 129 170 173 173 226 226 228 253 253 253 248 248 248 248 248 248 249 249 249 
249 249 249 250 250 250 251 251 251 252 252 252 253 253 253 253 253 253 253 253 253 254 254 254 
253 253 253 253 253 253 253 253 253 253 253 253 253 253 253 252 252 252 252 252 252 252 252 252 
250 250 250 250 250 250 250 250 250 251 251 251 253 253 253 251 251 251 241 241 241 231 230 231 
199 195 202 147 150 146 92 93 95 43 46 42 22 23 18 13 13 13 7 7 5 6 6 4 
8 8 7 0 0 1 6 6 4 13 13 13 13 13 13 22 23 18 64 62 60 122 124 121 
199 195 202 237 236 237 247 247 247 251 251 251 255 255 255 251 251 251 255 255 255 254 254 254 

254 254 254 255 255 255 253 253 253 251 251 251 248 248 248 242 242 242 196 198 193 119 117 120 
43 46 42 8 8 7 4 4 2 5 5 3 8 8 7 2 2 1 0 0 1 2 2 1 
2 2 0 3 3 0 3 3 0 7 8 3 19 19 9 22 23 18 39 42 37 64 62 60 
72 73 71 92 93 95 119 117 120 137 138 135 144 144 145 151 152 150 166 166 165 180 181 179 
196 198 193 202 204 202 211 212 213 222 222 215 223 223 223 226 226 228 231 230 231 235 235 235 
237 236 237 237 236 237 237 239 238 239 239 239 241 241 241 242 242 242 243 243 243 244 244 244 
245 245 245 239 239 239 216 212 216 160 160 159 107 112 109 92 93 95 158 154 157 223 223 223 
246 246 246 249 249 249 248 248 248 247 247 247 251 251 251 251 251 251 248 248 248 248 248 248 
242 242 244 235 235 235 231 230 231 226 226 228 211 212 213 208 210 207 216 212 216 216 212 216 
213 210 212 203 203 200 193 194 191 170 173 173 158 154 157 151 152 150 144 144 145 147 150 146 
170 173 173 190 194 189 214 217 212 230 231 225 231 230 231 221 223 223 202 204 202 189 187 187 
173 177 172 173 177 172 182 181 182 193 194 191 203 203 200 208 210 207 223 219 223 231 230 231 
242 242 242 244 244 244 246 246 246 249 249 249 248 248 248 251 251 251 242 242 242 208 210 207 
151 152 150 106 105 107 133 133 129 199 195 202 243 243 243 247 247 247 248 248 248 246 246 246 
244 244 244 246 246 246 248 248 248 250 250 250 250 250 250 250 250 250 251 251 251 251 251 251 
250 250 250 251 251 251 251 251 251 251 251 251 251 251 251 250 250 250 249 249 249 248 248 248 
250 250 250 249 249 249 246 246 246 245 245 245 247 247 247 246 246 246 237 236 237 223 223 223 
189 187 187 142 142 140 89 91 83 43 46 42 21 16 17 8 8 7 2 2 1 4 4 2 
6 6 4 0 0 1 2 2 1 7 7 5 13 13 13 13 13 13 29 29 29 81 83 84 
170 173 173 226 226 228 245 245 245 249 249 249 254 254 254 250 250 250 255 255 255 253 253 253 

252 252 252 254 254 254 255 255 255 253 253 253 248 248 248 247 247 247 216 212 216 147 150 146 
72 73 71 32 32 30 8 8 11 4 4 2 7 7 7 5 5 3 5 5 3 2 2 1 
3 3 1 2 2 0 0 0 0 3 3 0 5 6 1 7 8 3 14 16 17 32 32 30 
43 46 42 53 56 53 72 73 71 90 92 89 106 105 107 116 116 111 127 130 126 142 142 140 
151 152 150 160 160 159 170 169 172 180 181 179 189 187 187 193 194 191 203 203 200 202 204 202 
211 212 213 211 212 213 216 212 216 216 212 216 222 222 215 223 219 223 221 223 223 223 223 223 
223 223 223 203 203 200 166 166 165 113 113 110 72 73 71 72 73 71 158 154 157 221 223 223 
246 246 246 249 249 249 247 247 247 247 247 247 250 250 250 250 250 250 248 248 248 249 249 249 
242 242 242 231 230 231 231 230 231 226 226 228 216 212 216 216 212 216 226 226 228 231 230 231 
222 222 215 208 210 207 196 198 193 182 181 182 170 170 165 166 166 165 166 166 165 170 169 172 
173 177 172 189 187 187 208 210 207 222 222 215 226 226 228 222 222 215 203 203 200 182 181 182 
180 181 179 180 181 179 189 187 187 199 195 202 208 210 207 216 212 216 223 223 223 231 230 231 
242 242 242 244 244 244 246 246 246 250 250 250 248 248 248 252 252 252 244 244 244 211 212 213 
151 152 150 84 84 82 90 92 89 160 160 159 222 222 215 231 230 231 234 235 232 231 230 231 
237 239 238 240 240 240 243 243 243 244 244 244 244 244 244 244 244 244 245 245 245 246 246 246 
247 247 247 248 248 248 248 248 248 248 248 248 248 248 248 246 246 246 245 245 245 244 244 244 
242 242 242 237 239 238 231 230 231 226 226 228 223 223 223 223 219 223 208 210 207 193 194 191 
160 160 159 117 116 117 72 73 71 39 42 37 14 16 17 8 8 7 5 5 3 7 7 7 
0 0 0 6 6 4 7 7 7 2 2 1 7 7 5 7 7 5 22 23 18 72 73 71 
160 160 159 221 223 223 244 244 244 248 248 248 252 252 252 248 248 248 254 254 254 250 250 250 

253 253 253 255 255 255 254 254 254 249 249 249 252 252 252 251 251 251 231 230 231 202 204 202 
134 134 135 72 73 71 43 46 42 29 29 29 22 23 18 13 13 13 21 16 17 8 8 7 
2 2 0 5 5 3 3 3 1 4 4 2 7 7 5 3 3 1 3 3 1 13 13 13 
22 23 18 29 29 29 39 42 37 52 50 44 58 58 56 66 69 70 84 84 82 90 92 89 
106 105 107 117 116 117 133 133 129 142 142 140 144 144 145 151 152 150 160 160 159 166 166 165 
170 169 172 170 169 172 170 169 172 170 173 173 173 177 172 170 173 173 166 166 165 166 166 165 
158 154 157 122 124 121 89 91 83 53 56 53 36 37 33 66 69 70 151 152 150 221 223 223 
251 250 248 249 248 247 246 244 243 243 243 243 246 246 244 249 248 247 249 249 249 248 248 248 
244 244 244 235 235 235 221 223 223 226 226 228 226 226 228 231 230 231 237 236 237 221 223 223 
211 212 213 193 194 191 173 177 172 166 166 165 160 160 159 151 152 150 147 150 146 138 135 139 
134 134 135 142 142 140 160 160 159 180 181 179 196 198 193 203 203 200 193 194 191 182 181 182 
180 181 179 188 182 185 193 194 191 208 210 207 216 212 216 223 219 223 223 223 223 231 230 231 
237 236 237 249 248 247 246 246 244 246 244 243 253 253 251 251 251 249 246 244 243 208 210 207 
144 144 145 84 84 82 72 73 71 106 105 107 137 138 135 151 152 150 160 160 159 166 166 165 
173 177 172 190 194 189 208 210 207 214 217 212 222 222 215 226 226 228 226 226 228 226 226 228 
231 230 231 234 235 232 231 230 231 230 231 225 226 226 228 223 223 223 222 222 215 214 217 212 
208 210 207 203 203 200 193 194 191 182 181 182 173 177 172 160 160 159 144 144 145 134 134 135 
106 105 107 89 91 83 52 50 44 22 23 18 8 8 11 8 8 7 6 6 4 5 5 3 
3 3 1 5 6 1 9 11 6 2 2 0 4 4 2 7 7 5 32 32 30 98 95 96 
180 181 179 223 223 223 240 240 240 249 248 247 249 249 249 253 253 253 251 251 251 253 253 253 

251 251 251 255 255 255 253 253 253 249 249 249 252 252 252 254 254 254 242 242 242 226 226 228 
193 194 191 137 138 135 100 101 105 81 83 84 72 73 71 58 58 56 58 58 56 43 46 42 
32 32 30 27 28 24 9 11 6 0 0 0 0 0 0 0 0 0 0 0 0 5 5 3 
9 11 6 13 13 13 21 16 17 22 23 18 27 28 24 32 32 30 39 42 37 43 46 42 
53 56 53 64 62 60 72 73 71 84 84 82 92 93 95 98 95 96 106 105 107 107 112 109 
117 116 117 117 116 117 117 116 117 117 116 117 113 113 110 100 101 105 90 92 89 84 84 82 
64 62 60 43 46 42 29 29 29 13 13 13 13 13 13 53 56 53 137 138 135 214 217 212 
242 242 242 246 246 244 246 246 244 246 246 244 249 248 247 249 248 247 246 246 246 249 249 249 
239 239 239 237 236 237 226 226 228 231 230 231 234 235 232 231 230 231 216 212 216 189 187 187 
158 154 157 144 144 145 134 134 135 137 138 135 137 138 135 133 133 129 117 116 117 106 105 107 
92 93 95 92 93 95 100 102 97 122 124 121 142 142 140 158 154 157 166 166 165 166 166 165 
170 169 172 182 181 182 196 198 193 208 210 207 216 212 216 223 219 223 223 223 223 231 230 231 
234 235 232 243 243 243 246 244 243 242 242 242 251 251 249 251 251 249 246 246 244 208 210 207 
134 134 135 64 62 60 36 37 33 43 46 42 58 58 56 53 56 53 58 58 56 64 62 60 
81 83 84 98 95 96 113 113 110 127 130 126 144 144 145 160 160 159 170 169 172 173 177 172 
173 177 172 180 181 179 173 177 172 170 173 173 170 169 172 166 166 165 160 160 159 158 154 157 
142 142 140 133 133 129 122 124 121 107 112 109 98 95 96 84 84 82 72 73 71 64 62 60 
53 56 53 39 42 37 22 23 18 7 7 5 5 5 3 6 6 4 5 5 3 4 4 2 
4 4 2 2 2 0 7 8 3 5 6 1 9 11 6 8 8 7 27 28 24 89 91 83 
170 170 165 226 226 228 246 246 244 251 250 248 250 250 250 254 254 254 250 250 250 251 251 251 

253 253 253 255 255 255 255 255 255 252 252 252 252 252 252 253 253 253 249 249 249 243 243 243 
235 235 235 196 198 193 166 166 165 142 142 140 117 116 117 100 102 97 98 95 96 81 83 84 
72 73 71 64 62 60 36 37 33 9 11 6 2 2 0 2 2 0 2 2 0 3 3 1 
6 6 4 5 5 3 6 6 4 8 8 7 9 11 6 13 13 13 13 13 13 14 16 17 
22 23 18 29 29 29 36 37 33 43 46 42 52 50 44 53 56 53 58 58 56 58 58 56 
64 62 60 64 62 60 64 62 60 64 62 60 58 58 56 43 46 42 32 32 30 22 23 18 
22 23 18 7 8 3 9 11 6 2 2 0 7 8 3 39 42 37 106 105 107 189 187 187 
231 230 231 243 243 243 243 243 243 239 239 238 246 246 244 246 246 244 241 241 241 244 244 244 
244 244 244 244 244 244 234 235 232 234 235 232 237 236 237 223 219 223 180 181 179 134 134 135 
113 113 110 107 112 109 117 116 117 127 130 126 142 142 140 138 135 139 127 130 126 113 113 110 
90 92 89 81 83 84 72 73 71 72 73 71 90 92 89 106 105 107 127 130 126 144 144 145 
160 160 159 180 181 179 193 194 191 202 204 202 211 212 213 216 212 216 223 219 223 223 223 223 
230 231 225 242 243 239 246 244 243 243 243 243 251 251 249 251 251 249 242 242 242 203 203 200 
133 133 129 53 56 53 22 23 18 21 16 17 22 23 18 21 16 17 22 23 18 27 28 24 
27 28 24 36 37 33 43 46 42 53 56 53 58 58 56 72 73 71 84 84 82 90 92 89 
98 95 96 98 95 96 92 93 95 90 92 89 90 92 89 90 92 89 84 84 82 81 83 84 
72 73 71 64 62 60 58 58 56 52 50 44 39 42 37 32 32 30 22 23 18 21 16 17 
13 13 13 13 13 13 7 7 5 2 2 1 5 5 3 6 6 4 5 5 3 5 5 3 
2 2 0 0 2 0 3 5 0 0 2 0 3 3 1 0 0 0 9 11 6 58 58 56 
151 152 150 222 222 215 246 246 244 249 248 247 249 249 249 254 254 254 250 250 250 252 252 252 

254 254 254 255 255 255 255 255 255 255 255 255 253 253 253 251 251 251 249 249 249 248 248 248 
249 249 249 231 230 231 222 222 215 193 194 191 166 166 165 144 144 145 137 138 135 122 124 121 
100 102 97 90 92 89 64 62 60 32 32 30 13 13 13 3 3 1 0 0 0 0 0 0 
3 3 1 2 2 0 4 4 2 6 6 4 7 7 5 6 6 4 6 6 4 8 8 6 
6 6 4 8 8 6 9 11 6 13 13 13 13 13 13 14 16 17 14 16 17 14 16 17 
22 23 18 22 23 18 22 23 18 22 23 18 22 23 18 22 23 18 13 13 13 9 11 6 
13 13 13 3 5 0 9 11 6 5 6 1 11 14 5 29 29 29 64 62 60 144 144 145 
208 210 207 239 239 238 246 244 243 237 236 237 246 246 244 251 250 248 245 245 245 247 247 247 
244 244 244 242 242 242 234 235 232 231 230 231 223 223 223 182 181 182 117 116 117 72 73 71 
72 73 71 84 84 82 106 105 107 122 124 121 144 144 145 147 150 146 142 142 140 134 134 135 
113 113 110 92 93 95 72 73 71 64 62 60 58 58 56 66 69 70 90 92 89 116 116 111 
147 150 146 166 166 165 189 187 187 199 195 202 208 210 207 211 212 213 216 212 216 222 222 215 
226 226 228 237 236 237 246 244 243 246 246 244 252 252 250 251 250 248 237 236 237 189 187 187 
113 113 110 39 42 37 13 13 13 7 7 5 8 8 7 5 5 3 5 5 3 8 8 7 
8 8 6 9 11 6 13 13 13 13 13 13 13 13 13 21 16 17 27 28 24 27 28 24 
32 32 30 32 32 30 32 32 30 32 32 30 32 32 30 32 32 30 27 28 24 22 23 18 
14 16 17 13 13 13 13 13 13 8 8 7 7 7 5 5 5 3 4 4 2 3 3 1 
3 3 1 5 5 3 5 5 3 4 4 2 7 7 5 5 5 3 2 2 1 4 4 2 
0 0 0 5 6 1 9 11 6 5 6 1 7 7 5 9 11 6 32 32 30 84 84 82 
160 160 159 221 223 223 242 242 242 246 246 244 250 250 250 255 255 255 250 250 250 253 253 253 

252 252 252 252 252 252 252 252 252 254 254 254 254 254 254 252 252 252 251 251 251 251 251 251 
245 245 245 241 241 241 240 240 240 221 223 223 202 204 202 182 181 182 170 169 172 151 152 150 
133 133 129 113 113 110 84 84 82 58 58 56 32 32 30 13 13 13 4 4 2 0 0 0 
0 0 0 2 2 0 4 4 2 6 6 4 5 5 3 3 3 1 3 3 1 5 5 3 
7 7 5 7 7 5 6 6 4 6 6 4 7 7 5 6 6 4 6 6 4 5 5 3 
5 5 3 4 4 2 3 3 1 4 4 2 6 6 4 8 8 6 8 8 7 8 8 7 
9 11 6 0 2 0 7 8 3 3 5 0 9 11 6 19 19 9 32 32 30 92 93 95 
170 169 172 222 222 215 246 244 243 240 240 240 246 244 243 249 248 247 247 247 247 249 249 249 
244 244 244 239 239 239 235 235 235 226 226 228 189 187 187 122 124 121 64 62 60 43 46 42 
58 58 56 84 84 82 113 113 110 138 135 139 160 160 159 166 166 165 166 166 165 166 166 165 
151 152 150 137 138 135 116 116 111 100 102 97 89 91 83 84 84 82 100 102 97 119 117 120 
144 144 145 166 166 165 182 181 182 193 194 191 203 203 200 208 210 207 208 210 207 211 212 213 
214 217 212 226 226 228 235 235 235 239 239 238 246 246 244 249 248 247 234 235 232 180 181 179 
92 93 95 29 29 29 7 7 5 4 4 2 8 8 6 5 5 3 3 3 1 3 3 1 
2 2 0 3 3 1 4 4 2 2 2 0 2 2 0 5 5 3 8 8 6 9 11 6 
7 7 5 8 8 6 7 7 5 7 7 5 8 8 6 8 8 7 7 7 5 3 3 1 
5 5 3 5 5 3 5 5 3 5 5 3 4 4 2 4 4 2 5 5 3 6 6 4 
4 4 2 6 6 4 6 6 4 6 6 4 7 7 7 6 6 4 2 2 1 5 5 3 
2 2 0 2 2 0 4 4 2 4 4 2 2 2 0 8 8 7 58 58 56 127 130 126 
196 198 193 235 235 235 245 245 245 249 249 249 253 253 253 254 254 254 248 248 248 252 252 252 

255 255 255 253 253 253 252 252 252 252 252 252 253 253 253 253 253 253 253 253 253 253 253 253 
254 254 254 253 253 253 254 254 254 245 245 245 240 240 240 226 226 228 208 210 207 189 187 187 
166 166 165 137 138 135 107 112 109 84 84 82 64 62 60 36 37 33 14 16 17 4 4 2 
3 3 1 3 3 1 4 4 2 6 6 4 5 5 3 4 4 2 5 5 3 7 7 5 
4 4 2 3 3 1 3 3 1 3 3 1 3 3 1 4 4 2 3 3 1 3 3 1 
6 6 4 5 5 3 4 4 2 4 4 2 5 5 3 6 6 4 6 6 4 6 6 4 
9 11 6 3 5 0 7 8 3 3 3 0 9 11 6 9 11 6 13 13 13 53 56 53 
122 124 121 189 187 187 237 236 237 246 244 243 246 244 243 246 244 243 245 245 245 248 248 248 
248 248 248 239 239 239 231 230 231 202 204 202 142 142 140 72 73 71 43 46 42 58 58 56 
81 83 84 113 113 110 144 144 145 170 173 173 193 194 191 196 198 193 193 194 191 193 194 191 
190 194 189 180 181 179 170 170 165 158 154 157 142 142 140 134 134 135 142 142 140 151 152 150 
160 160 159 173 177 172 189 187 187 193 194 191 199 195 202 203 203 200 203 203 200 202 204 202 
202 204 202 214 217 212 223 223 223 230 231 225 239 239 238 246 244 243 231 230 231 170 170 165 
72 73 71 14 16 17 0 0 0 0 0 0 6 6 4 6 6 4 5 5 3 4 4 2 
7 7 5 8 8 6 8 8 6 6 6 4 5 5 3 5 5 3 5 5 3 5 5 3 
4 4 2 5 5 3 5 5 3 4 4 2 4 4 2 4 4 2 3 3 1 0 0 0 
2 2 0 2 2 0 2 2 0 2 2 0 0 0 0 0 0 0 0 0 0 2 2 0 
6 6 4 7 7 5 6 6 4 4 4 2 4 4 2 0 0 1 0 0 1 7 7 5 
22 23 18 13 13 13 13 13 13 14 16 17 13 13 13 22 23 18 84 84 82 166 166 165 
226 226 228 246 246 244 245 245 245 252 252 252 253 253 253 253 253 253 249 249 249 252 252 252 

255 255 255 255 255 255 254 254 254 252 252 252 253 253 253 253 253 253 253 253 253 251 251 251 
252 252 252 251 251 251 252 252 252 246 246 246 250 250 250 242 242 242 231 230 231 216 212 216 
196 198 193 170 169 172 142 142 140 116 116 111 89 91 83 64 62 60 39 42 37 21 16 17 
7 7 5 3 3 1 0 0 0 0 0 0 2 2 0 2 2 0 3 3 1 5 5 3 
5 5 3 5 5 3 5 5 3 6 6 4 6 6 4 7 7 5 7 7 5 7 7 5 
5 5 3 5 5 3 4 4 2 4 4 2 4 4 2 4 4 2 4 4 2 3 3 1 
0 0 0 2 2 0 3 3 0 2 2 0 9 11 6 9 11 6 8 8 7 32 32 30 
84 84 82 142 142 140 202 204 202 237 236 237 246 246 244 249 248 247 248 248 248 250 250 250 
247 247 247 235 235 235 226 226 228 189 187 187 127 130 126 90 92 89 89 91 83 107 112 109 
144 144 145 173 177 172 196 198 193 208 210 207 223 223 223 223 223 223 211 212 213 208 210 207 
208 210 207 203 203 200 196 198 193 193 194 191 189 187 187 189 187 187 182 181 182 189 187 187 
182 181 182 189 187 187 193 194 191 196 198 193 199 195 202 196 198 193 193 194 191 199 195 202 
203 203 200 202 204 202 214 217 212 223 223 223 234 235 232 239 239 238 221 223 223 151 152 150 
66 69 70 14 16 17 5 5 3 4 4 2 6 6 4 4 4 2 4 4 2 4 4 2 
3 3 1 3 3 1 3 3 1 4 4 2 5 5 3 5 5 3 5 5 3 5 5 3 
5 5 3 6 6 4 7 7 5 5 5 3 3 3 1 3 3 1 3 3 1 3 3 1 
3 3 1 3 3 1 3 3 1 2 2 0 2 2 0 3 3 1 4 4 2 4 4 2 
3 3 1 5 5 3 4 4 2 0 0 1 4 4 2 7 7 7 21 16 17 32 32 30 
52 50 44 53 56 53 53 56 53 53 56 53 53 56 53 72 73 71 134 134 135 203 203 200 
237 239 238 247 247 247 245 245 245 252 252 252 249 249 249 252 252 252 252 252 252 253 253 253 

251 251 251 253 253 253 255 255 255 254 254 254 255 255 255 255 255 255 254 254 254 252 252 252 
253 253 253 254 254 254 255 255 255 249 249 249 253 253 253 249 249 249 247 247 247 239 239 239 
221 223 223 203 203 200 180 181 179 151 152 150 116 116 111 90 92 89 66 69 70 43 46 42 
22 23 18 13 13 13 5 5 3 3 3 1 3 3 1 3 3 1 3 3 1 3 3 1 
4 4 2 4 4 2 4 4 2 4 4 2 4 4 2 4 4 2 4 4 2 5 5 3 
5 5 3 5 5 3 5 5 3 5 5 3 5 5 3 5 5 3 5 5 3 5 5 3 
3 3 0 9 11 6 7 8 3 5 6 1 9 11 6 5 6 1 5 5 3 13 13 13 
36 37 33 89 91 83 158 154 157 208 210 207 234 235 232 243 243 243 245 245 245 245 245 245 
245 245 245 237 239 238 235 235 235 202 204 202 166 166 165 158 154 157 160 160 159 173 177 172 
190 194 189 208 210 207 208 210 207 208 210 207 211 212 213 202 204 202 189 187 187 182 181 182 
180 181 179 173 177 172 180 181 179 182 181 182 189 187 187 193 194 191 193 194 191 190 194 189 
196 198 193 196 198 193 193 194 191 196 198 193 203 203 200 199 195 202 196 198 193 203 203 200 
203 203 200 202 204 202 214 217 212 223 223 223 234 235 232 235 235 235 213 210 212 137 138 135 
53 56 53 8 8 6 4 4 2 5 5 3 6 6 4 4 4 2 5 5 3 7 7 5 
6 6 4 5 5 3 5 5 3 5 5 3 6 6 4 6 6 4 6 6 4 6 6 4 
5 5 3 7 7 5 8 8 6 6 6 4 4 4 2 4 4 2 5 5 3 5 5 3 
3 3 1 2 2 0 0 0 0 0 0 0 0 0 0 2 2 0 3 3 1 4 4 2 
3 3 1 7 7 5 8 8 7 13 13 13 21 16 17 36 37 33 58 58 56 81 83 84 
106 105 107 133 133 129 134 134 135 117 116 117 117 116 117 144 144 145 196 198 193 230 231 225 
241 241 241 249 249 249 248 248 248 254 254 254 246 246 246 250 250 250 254 254 254 251 251 251 

254 254 254 254 254 254 254 254 254 254 254 254 255 255 255 255 255 255 253 253 253 252 252 252 
253 253 253 253 253 253 253 253 253 253 253 253 253 253 253 251 251 251 250 250 250 248 248 248 
239 239 238 226 226 228 213 210 212 193 194 191 158 154 157 122 124 121 90 92 89 72 73 71 
53 56 53 32 32 30 13 13 13 7 7 5 2 2 0 0 0 0 2 2 0 2 2 0 
4 4 2 5 5 3 4 4 2 4 4 2 3 3 1 4 4 2 4 4 2 4 4 2 
2 2 0 3 3 1 5 5 3 6 6 4 6 6 4 6 6 4 6 6 4 6 6 4 
5 6 1 5 6 1 5 6 1 5 6 1 5 6 1 7 8 3 9 11 6 13 13 13 
21 16 17 43 46 42 106 105 107 166 166 165 214 217 212 242 243 239 246 246 246 246 246 246 
244 244 244 246 246 246 237 236 237 223 223 223 216 212 216 216 212 216 216 212 216 223 219 223 
216 212 216 208 210 207 203 203 200 182 181 182 173 177 172 166 166 165 144 144 145 137 138 135 
127 130 126 137 138 135 142 142 140 151 152 150 170 173 173 180 181 179 182 181 182 182 188 184 
189 187 187 193 194 191 199 195 202 196 198 193 208 210 207 202 204 202 203 203 200 202 204 202 
214 217 212 222 222 215 230 231 225 237 236 237 239 239 238 230 231 225 189 187 187 98 95 96 
22 23 18 13 13 13 4 4 2 2 2 0 4 4 2 6 6 4 6 6 4 5 5 3 
6 6 4 5 5 3 5 5 3 5 5 3 5 5 3 5 5 3 6 6 4 6 6 4 
8 8 6 8 8 6 7 7 5 5 5 3 5 5 3 6 6 4 5 5 3 2 2 0 
0 0 0 3 3 1 2 2 0 0 0 0 4 4 2 5 5 3 2 2 0 2 2 0 
6 6 4 6 6 4 8 8 11 22 23 18 39 42 37 58 58 56 90 92 89 122 124 121 
166 166 165 182 181 182 196 198 193 203 203 200 196 198 193 208 210 207 226 226 228 243 243 243 
248 248 248 249 249 249 250 250 250 251 251 251 251 251 251 252 252 252 252 252 252 252 252 252 

255 255 255 254 254 254 254 254 254 255 255 255 255 255 255 255 255 255 254 254 254 253 253 253 
252 252 252 252 252 252 251 251 251 251 251 251 251 251 251 250 250 250 248 248 248 247 247 247 
246 246 244 239 239 238 234 235 232 222 222 215 189 187 187 158 154 157 122 124 121 100 102 97 
84 84 82 58 58 56 36 37 33 22 23 18 9 11 6 4 4 2 5 5 3 6 6 4 
6 6 4 5 5 3 4 4 2 3 3 1 2 2 0 2 2 0 2 2 0 2 2 0 
6 6 4 6 6 4 6 6 4 5 5 3 5 5 3 4 4 2 4 4 2 5 5 3 
5 6 1 5 6 1 5 6 1 5 6 1 5 6 1 7 8 3 8 8 6 8 8 7 
13 13 13 22 23 18 53 56 53 113 113 110 180 181 179 230 231 225 240 240 240 239 239 239 
240 240 240 245 245 245 244 244 244 240 240 240 240 240 240 239 239 239 235 235 235 234 235 232 
216 212 216 208 210 207 190 194 189 166 166 165 144 144 145 133 133 129 113 113 110 106 105 107 
106 105 107 122 124 121 137 138 135 158 154 157 180 181 179 189 187 187 193 194 191 193 194 191 
199 195 202 208 210 207 216 212 216 211 212 213 221 223 223 216 212 216 223 219 223 226 226 228 
226 226 228 237 236 237 246 246 244 246 246 244 234 235 232 190 194 189 127 130 126 53 56 53 
13 13 13 8 8 6 2 2 0 2 2 0 4 4 2 5 5 3 5 5 3 5 5 3 
5 5 3 5 5 3 5 5 3 5 5 3 5 5 3 5 5 3 6 6 4 6 6 4 
0 0 0 5 5 3 7 7 5 6 6 4 5 5 3 6 6 4 4 4 2 2 2 0 
2 2 0 4 4 2 2 2 0 0 0 0 3 3 1 4 4 2 5 5 3 9 11 6 
7 7 5 13 13 13 27 28 24 43 46 42 64 62 60 84 84 82 122 124 121 160 160 159 
193 194 191 208 210 207 226 226 228 234 235 232 231 230 231 235 235 235 243 243 243 249 249 249 
249 249 249 250 250 250 250 250 250 251 251 251 252 252 252 252 252 252 252 252 252 252 252 252 

255 255 255 255 255 255 255 255 255 255 255 255 255 255 255 255 255 255 255 255 255 254 254 254 
252 252 252 252 252 252 251 251 251 251 251 251 251 251 251 250 250 250 248 248 248 247 247 247 
249 248 247 246 246 244 246 246 244 239 239 238 222 222 215 193 194 191 160 160 159 134 134 135 
113 113 110 90 92 89 64 62 60 43 46 42 22 23 18 13 13 13 8 8 6 6 6 4 
5 6 1 5 6 1 3 3 0 3 5 0 3 5 0 5 6 1 3 5 0 3 3 0 
3 3 0 3 3 0 3 3 0 3 3 0 3 3 0 3 5 0 5 6 1 5 6 1 
5 6 1 5 6 1 5 6 1 5 6 1 5 6 1 5 6 1 5 5 3 6 6 4 
13 13 13 13 13 13 22 23 18 58 58 56 127 130 126 189 187 187 223 219 223 234 235 232 
240 240 240 245 245 245 243 243 243 241 241 241 244 244 244 244 244 244 239 239 239 235 235 235 
231 230 231 223 219 223 203 203 200 170 173 173 158 154 157 142 142 140 122 124 121 122 124 121 
134 134 135 151 152 150 166 166 165 182 188 184 203 203 200 202 204 202 202 204 202 202 204 202 
208 210 207 216 212 216 226 226 228 226 226 228 234 235 232 226 226 228 231 230 231 237 236 237 
246 246 244 243 243 243 234 235 232 223 223 223 208 210 207 147 150 146 81 83 84 27 28 24 
7 7 5 4 4 2 0 0 0 3 3 1 4 4 2 4 4 2 4 4 2 4 4 2 
4 4 2 4 4 2 4 4 2 5 5 3 5 5 3 6 6 4 6 6 4 6 6 4 
4 4 2 7 7 5 8 8 7 8 8 6 7 7 5 6 6 4 5 5 3 4 4 2 
0 0 0 0 0 0 3 3 1 5 5 3 7 7 5 6 6 4 8 8 6 14 16 17 
21 16 17 29 29 29 53 56 53 84 84 82 117 116 117 142 142 140 170 173 173 202 204 202 
222 222 215 231 230 231 239 239 238 242 243 239 242 242 242 245 245 245 247 247 247 248 248 248 
251 251 251 251 251 251 252 252 252 252 252 252 252 251 254 252 251 254 252 251 254 252 251 254 

255 255 255 255 255 255 254 254 254 255 255 255 255 255 255 255 255 255 254 254 254 254 254 254 
253 253 253 253 253 253 252 252 252 252 252 252 253 253 253 252 252 252 251 251 251 250 250 250 
249 248 247 249 248 247 249 248 247 242 242 242 231 230 231 214 217 212 193 194 191 166 166 165 
142 142 140 122 124 121 100 102 97 81 83 84 58 58 56 39 42 37 27 28 24 14 16 17 
7 8 3 3 5 0 0 2 0 2 2 0 3 3 0 3 5 0 3 3 0 2 2 0 
2 2 0 2 2 0 2 2 0 3 3 0 3 5 0 5 6 1 5 6 1 5 6 1 
5 6 1 5 6 1 5 6 1 5 6 1 5 6 1 5 6 1 4 4 2 4 4 2 
4 4 2 9 11 6 13 13 13 22 23 18 58 58 56 113 113 110 160 160 159 208 210 207 
231 230 231 239 239 239 243 243 243 242 242 242 245 245 245 246 246 246 242 242 242 239 239 239 
237 236 237 231 230 231 216 212 216 196 198 193 182 181 182 170 173 173 160 160 159 166 166 165 
173 177 172 189 187 187 196 198 193 213 210 212 221 223 223 223 223 223 226 226 228 223 223 223 
231 230 231 235 235 235 242 242 242 241 241 241 247 247 247 244 244 244 247 247 247 246 246 246 
243 243 243 234 235 232 214 217 212 182 188 184 144 144 145 72 73 71 29 29 29 8 8 6 
6 6 4 4 4 2 4 4 2 5 5 3 5 5 3 3 3 1 3 3 1 4 4 2 
3 3 1 4 4 2 4 4 2 5 5 3 5 5 3 5 5 3 6 6 4 6 6 4 
4 4 2 5 5 3 5 5 3 4 4 2 4 4 2 4 4 2 4 4 2 3 3 1 
6 6 4 4 4 2 0 0 0 0 0 0 2 2 0 6 6 4 21 16 17 36 37 33 
53 56 53 72 73 71 107 112 109 147 150 146 180 181 179 202 204 202 223 219 223 235 235 235 
242 243 239 243 243 243 246 244 243 243 243 243 244 244 244 247 247 247 250 250 250 251 251 251 
252 252 252 252 252 252 253 253 253 253 253 253 253 253 255 253 253 255 253 253 255 253 253 255 

255 255 255 254 254 254 254 254 254 254 254 254 254 254 254 254 254 254 254 254 254 253 253 253 
253 253 253 253 253 253 253 253 253 253 253 253 254 254 254 254 254 254 253 253 253 253 253 253 
253 253 251 252 252 250 251 251 249 246 246 244 242 243 239 235 235 235 222 222 215 203 203 200 
173 177 172 160 160 159 142 142 140 122 124 121 100 102 97 84 84 82 64 62 60 52 50 44 
27 28 24 21 16 17 9 11 6 5 6 1 3 5 0 3 3 0 3 3 0 3 3 0 
3 5 0 3 5 0 3 5 0 3 5 0 5 6 1 5 6 1 3 5 0 3 5 0 
3 5 0 5 6 1 5 6 1 5 6 1 5 6 1 5 6 1 5 5 3 5 5 3 
2 2 0 7 7 5 8 8 7 4 4 2 13 13 13 36 37 33 81 83 84 137 138 135 
182 181 182 208 210 207 226 226 228 237 236 237 242 242 242 245 245 245 243 243 243 242 242 242 
241 241 241 239 239 239 237 236 237 223 223 223 216 212 216 208 210 207 196 198 193 203 203 200 
213 210 212 214 217 212 222 222 215 226 226 228 231 230 231 234 235 232 240 240 240 239 239 238 
237 239 238 237 236 237 241 241 241 240 240 240 248 248 248 245 245 245 242 242 242 231 230 231 
214 217 212 182 181 182 151 152 150 113 113 110 66 69 70 29 29 29 14 16 17 9 11 6 
5 5 3 4 4 2 4 4 2 5 5 3 4 4 2 3 3 1 3 3 1 4 4 2 
3 3 1 4 4 2 4 4 2 5 5 3 5 5 3 5 5 3 5 5 3 5 5 3 
6 6 4 5 5 3 4 4 2 6 6 4 7 7 5 7 7 5 5 5 3 4 4 2 
0 0 0 2 2 0 4 4 2 8 8 7 14 16 17 27 28 24 43 46 42 66 69 70 
92 93 95 127 130 126 166 166 165 190 194 189 208 210 207 221 223 223 231 230 231 240 240 240 
247 247 247 249 249 249 251 251 251 250 250 250 251 251 251 252 252 252 253 253 253 253 253 253 
253 253 253 253 253 253 253 253 255 254 254 254 254 254 254 253 253 255 253 253 255 253 253 255 

255 255 255 254 254 254 253 253 253 253 253 253 254 254 254 254 254 254 254 254 254 253 253 253 
253 253 253 252 252 252 252 252 252 252 252 252 253 253 253 254 254 254 253 253 253 253 253 253 
254 254 252 252 252 250 252 252 250 251 250 248 246 246 244 246 244 243 237 236 237 221 223 223 
208 210 207 193 194 191 173 177 172 160 160 159 142 142 140 127 130 126 106 105 107 89 91 83 
64 62 60 52 50 44 27 28 24 13 13 13 9 11 6 3 5 0 0 2 0 0 2 0 
2 2 0 0 2 0 0 2 0 2 2 0 3 5 0 5 6 1 5 6 1 3 5 0 
3 5 0 5 6 1 5 6 1 5 6 1 5 6 1 5 6 1 6 6 4 6 6 4 
6 6 4 4 4 2 6 6 4 7 7 5 8 8 6 8 8 6 21 16 17 43 46 42 
90 92 89 119 117 120 151 152 150 180 181 179 199 195 202 222 222 215 231 230 231 237 239 238 
240 240 240 242 242 242 246 246 246 242 242 242 240 240 240 235 235 235 226 226 228 234 235 232 
237 236 237 235 235 235 234 235 232 237 236 237 235 235 235 237 236 237 246 244 243 242 243 239 
247 247 247 241 241 241 242 242 242 235 235 235 231 230 231 208 210 207 182 181 182 151 152 150 
117 116 117 72 73 71 43 46 42 22 23 18 9 11 6 8 8 6 13 13 13 5 5 3 
4 4 2 3 3 1 3 3 1 4 4 2 3 3 1 2 2 0 3 3 1 5 5 3 
3 3 1 4 4 2 4 4 2 5 5 3 5 5 3 5 5 3 4 4 2 4 4 2 
6 6 4 5 5 3 6 6 4 8 8 6 8 8 6 6 6 4 3 3 1 0 0 0 
2 2 0 13 13 13 22 23 18 39 42 37 58 58 56 72 73 71 106 105 107 127 130 126 
166 166 165 193 194 191 216 212 216 223 223 223 231 230 231 240 240 240 245 245 245 247 247 247 
245 245 245 247 247 247 248 248 248 248 248 248 248 248 248 249 249 249 251 251 251 253 253 253 
253 253 253 253 253 253 254 254 254 254 254 254 254 254 254 254 254 254 253 253 255 253 253 255 

255 255 255 255 255 255 254 254 254 253 253 253 254 254 254 254 254 254 254 254 254 254 254 254 
254 254 254 253 253 253 252 252 252 252 252 252 253 253 253 253 253 253 253 253 253 252 252 252 
252 252 250 251 250 248 251 251 249 251 250 248 246 246 244 246 246 244 242 242 242 234 235 232 
230 231 225 222 222 215 208 210 207 193 194 191 180 181 179 166 166 165 147 150 146 133 133 129 
100 102 97 84 84 82 58 58 56 43 46 42 32 32 30 22 23 18 9 11 6 7 8 3 
5 6 1 2 2 0 0 0 0 0 0 0 2 2 0 5 6 1 5 6 1 5 6 1 
5 6 1 5 6 1 5 6 1 5 6 1 5 6 1 5 6 1 5 5 3 5 5 3 
4 4 2 0 0 0 2 2 0 6 6 4 5 5 3 0 0 0 0 0 0 7 7 5 
27 28 24 53 56 53 84 84 82 113 113 110 144 144 145 180 181 179 202 204 202 216 212 216 
226 226 228 231 230 231 235 235 235 237 236 237 237 239 238 239 239 239 235 235 235 243 243 243 
239 239 238 239 239 238 240 240 240 249 248 247 249 248 247 249 248 247 253 253 251 246 244 243 
243 243 243 231 230 231 226 226 228 202 204 202 182 181 182 147 150 146 117 116 117 81 83 84 
52 50 44 22 23 18 22 23 18 21 16 17 13 13 13 8 8 6 8 8 6 5 5 3 
4 4 2 3 3 1 3 3 1 4 4 2 4 4 2 2 2 0 3 3 1 4 4 2 
3 3 1 4 4 2 5 5 3 5 5 3 5 5 3 4 4 2 3 3 1 3 3 1 
0 0 0 2 2 0 4 4 2 6 6 4 6 6 4 5 5 3 7 7 5 9 11 6 
22 23 18 36 37 33 52 50 44 66 69 70 92 93 95 122 124 121 158 154 157 182 181 182 
211 212 213 223 223 223 231 230 231 237 236 237 244 244 244 248 248 248 247 247 247 246 246 246 
250 250 250 249 249 249 248 248 248 248 248 248 249 249 249 250 250 250 253 253 253 255 255 255 
253 253 253 253 253 253 253 253 255 254 254 254 254 254 254 254 254 254 254 254 254 254 254 254 

255 255 255 255 255 255 254 254 254 254 254 254 254 254 254 255 255 255 255 255 255 255 255 255 
255 255 255 255 255 255 254 254 254 253 253 253 253 253 253 253 253 253 253 253 253 252 252 252 
254 254 252 251 251 249 251 251 249 251 250 248 246 246 244 246 246 244 249 248 247 246 244 243 
249 248 247 242 243 239 234 235 232 221 223 223 208 210 207 196 198 193 180 181 179 166 166 165 
144 144 145 122 124 121 100 102 97 84 84 82 72 73 71 53 56 53 39 42 37 29 29 29 
19 19 9 11 14 5 7 8 3 3 3 0 3 3 0 3 5 0 3 5 0 3 5 0 
5 6 1 5 6 1 5 6 1 3 5 0 4 4 2 3 6 3 7 7 7 7 7 7 
7 7 7 0 0 1 4 4 2 0 0 0 0 0 0 2 2 0 14 16 17 29 29 29 
53 56 53 72 73 71 84 84 82 100 102 97 121 121 125 147 150 146 166 166 165 170 173 173 
180 181 179 180 181 179 182 181 182 180 181 179 182 181 182 182 181 182 182 181 182 193 194 191 
199 195 202 199 195 202 203 203 200 214 217 212 208 210 207 208 210 207 208 210 207 193 194 191 
182 181 182 170 169 172 158 154 157 134 134 135 119 117 120 100 101 105 90 92 89 66 69 70 
58 58 56 27 28 24 22 23 18 13 13 13 19 19 9 9 11 6 6 5 1 6 5 1 
6 6 4 5 5 3 3 6 3 3 6 3 7 7 7 3 1 3 2 2 1 4 4 2 
4 4 2 4 4 2 5 5 3 5 5 3 5 5 3 4 4 2 3 3 1 2 2 0 
5 5 3 7 7 5 9 11 6 13 13 13 14 16 17 22 23 18 32 32 30 39 42 37 
64 62 60 89 91 83 117 116 117 142 142 140 166 166 165 189 187 187 202 204 202 222 222 215 
223 223 223 231 230 231 239 239 239 246 246 246 250 250 250 248 248 248 247 247 247 253 253 253 
250 250 250 249 249 249 250 250 250 252 252 252 253 253 253 252 252 252 251 251 251 251 251 251 
252 252 252 252 252 252 253 253 255 254 254 254 254 254 254 254 254 254 254 254 254 254 254 254 

255 255 255 255 255 255 255 255 255 255 255 255 255 255 255 255 255 255 255 255 255 255 255 255 
255 255 255 254 254 254 254 254 254 254 254 254 254 254 254 254 254 254 254 254 254 253 253 253 
252 252 252 252 252 252 251 251 251 250 250 250 249 249 249 247 247 247 246 246 246 245 245 245 
248 248 248 247 247 247 244 244 244 242 242 242 241 241 241 235 235 235 216 212 216 196 198 193 
180 181 179 160 160 159 142 142 140 122 124 121 106 105 107 98 95 96 84 84 82 64 62 60 
52 50 44 36 37 33 21 16 17 3 3 1 2 2 0 2 2 0 2 2 0 0 2 0 
5 4 0 5 4 0 5 4 0 4 4 2 3 6 3 3 2 9 3 2 9 3 2 9 
3 2 9 3 2 9 29 29 29 39 42 37 43 46 42 64 62 60 72 73 71 106 105 107 
133 133 129 142 142 140 158 154 157 166 166 165 170 169 172 170 169 172 166 166 165 163 166 158 
151 152 150 151 152 150 151 152 150 151 152 150 151 152 150 151 152 150 150 151 156 150 151 156 
161 154 166 158 154 157 158 154 157 163 166 158 170 170 165 170 170 165 166 166 165 160 160 159 
137 138 135 127 130 126 119 117 120 117 116 117 119 117 120 122 124 121 133 133 129 133 133 129 
119 117 120 100 102 97 84 84 82 72 73 71 52 50 44 19 19 9 11 14 5 5 1 0 
9 3 3 3 1 3 2 7 10 2 7 10 3 2 9 2 7 10 3 2 9 3 1 3 
6 6 4 3 3 1 2 2 0 2 2 0 4 4 2 5 5 3 5 5 3 4 4 2 
8 8 7 14 16 17 22 23 18 27 28 24 37 34 37 58 58 56 84 84 82 100 101 105 
122 124 121 151 152 150 180 181 179 199 195 202 216 212 216 226 226 228 235 235 235 237 239 238 
244 244 244 245 245 245 247 247 247 249 249 249 251 251 251 251 251 251 250 250 250 249 249 249 
250 250 250 250 250 250 251 251 251 251 251 251 251 251 251 251 251 251 252 252 252 252 252 252 
253 253 253 253 253 253 253 253 253 253 253 253 254 254 254 254 254 254 254 254 254 254 254 254 

255 255 255 255 255 255 255 255 255 255 255 255 255 255 255 255 255 255 255 255 255 255 255 255 
255 255 255 254 254 254 254 254 254 254 254 254 254 254 254 254 254 254 254 254 254 253 253 253 
252 252 252 252 252 252 252 252 252 251 251 251 250 250 250 249 249 249 248 248 248 248 248 248 
250 250 250 249 249 249 247 247 247 244 244 244 245 245 245 245 245 245 237 236 237 226 226 228 
214 217 212 203 203 200 182 181 182 166 166 165 151 152 150 137 138 135 117 116 117 100 102 97 
84 84 82 66 69 70 43 46 42 22 23 18 9 11 6 3 3 1 0 0 0 6 6 4 
3 5 0 3 5 0 3 5 0 3 5 0 3 6 3 2 7 10 3 2 9 3 2 9 
3 2 9 37 34 37 138 135 139 196 198 193 203 203 200 214 217 212 223 219 223 226 231 228 
226 231 228 234 235 232 237 236 237 242 242 242 241 236 242 241 236 242 237 236 237 234 235 232 
232 237 226 232 237 226 234 235 232 235 235 235 235 235 235 235 235 235 235 235 235 239 235 240 
234 229 232 234 229 232 230 231 225 232 237 226 234 235 232 235 235 235 235 235 235 231 230 231 
232 237 226 226 231 228 223 223 223 225 223 228 230 224 224 230 231 225 230 231 225 230 231 225 
239 235 240 226 226 228 222 222 215 221 223 223 151 152 150 27 28 24 5 1 0 9 9 2 
9 3 3 3 1 1 3 1 3 2 7 10 2 7 10 3 2 9 6 6 4 9 3 3 
0 0 0 0 0 0 0 0 0 4 4 2 7 7 5 9 11 6 13 13 13 21 16 17 
22 23 18 37 34 37 58 58 56 81 83 84 98 95 96 122 124 121 147 150 146 166 166 165 
189 187 187 208 210 207 221 223 223 231 230 231 240 240 240 245 245 245 246 246 246 249 249 249 
247 247 247 247 247 247 248 248 248 250 250 250 251 251 251 252 252 252 251 251 251 250 250 250 
251 251 251 251 251 251 251 251 251 251 251 251 252 252 252 252 252 252 252 252 252 252 252 252 
253 253 253 253 253 253 253 253 253 253 253 253 254 254 254 254 254 254 254 254 254 254 254 254 

255 255 255 255 255 255 255 255 255 255 255 255 255 255 255 255 255 255 255 255 255 255 255 255 
255 255 255 254 254 254 254 254 254 254 254 254 254 254 254 255 255 255 254 254 254 253 253 253 
252 252 252 252 252 252 252 252 252 252 252 252 252 252 252 252 252 252 251 251 251 251 251 251 
252 252 252 253 253 253 250 250 250 247 247 247 247 247 247 249 249 249 249 249 249 246 246 246 
237 236 237 226 226 228 222 222 215 208 210 207 193 194 191 180 181 179 160 160 159 142 142 140 
122 124 121 107 112 109 89 91 83 64 62 60 53 56 53 32 32 30 7 7 5 0 2 0 
3 2 9 3 6 3 3 5 0 3 10 0 3 5 0 3 5 0 3 3 0 5 4 0 
0 0 0 39 42 37 182 181 182 254 254 252 250 253 247 250 253 247 242 255 250 242 255 250 
247 252 251 253 255 254 253 255 255 253 255 255 253 253 255 253 254 252 250 253 252 253 254 252 
253 253 251 253 253 251 254 254 252 254 255 253 253 255 255 253 255 255 253 255 255 254 255 253 
255 255 255 255 255 253 250 253 247 250 253 247 250 253 252 253 253 255 254 254 254 254 254 254 
253 253 255 252 252 250 250 253 247 250 253 247 254 254 252 254 254 252 253 255 255 253 255 255 
252 251 254 253 253 255 249 248 247 250 253 252 203 210 206 43 46 42 5 6 1 3 3 1 
14 7 13 9 3 3 9 3 3 9 3 3 3 3 0 0 2 0 5 4 0 3 1 1 
3 3 0 5 5 3 7 7 5 8 8 6 9 11 6 22 23 18 36 37 33 43 46 42 
72 73 71 98 95 96 122 124 121 147 150 146 166 166 165 189 187 187 208 210 207 223 219 223 
231 230 231 239 239 239 245 245 245 246 246 246 249 249 249 250 250 250 249 249 249 250 250 250 
250 250 250 250 250 250 250 250 250 251 251 251 252 252 252 252 252 252 252 252 252 251 251 251 
252 252 252 252 252 252 252 252 252 252 252 252 252 252 252 252 252 252 253 253 253 253 253 253 
253 253 253 253 253 253 253 253 253 253 253 253 253 253 253 254 254 254 254 254 254 254 254 254 

254 254 254 254 254 254 254 254 254 254 254 254 254 254 254 254 254 254 254 254 254 254 254 254 
255 255 255 254 254 254 254 254 254 254 254 254 255 255 255 255 255 255 254 254 254 254 254 254 
253 253 253 253 253 253 253 253 253 253 253 253 253 253 253 253 253 253 253 253 253 253 253 253 
251 251 251 253 253 253 252 252 252 250 250 250 249 249 249 250 250 250 249 249 249 247 247 247 
246 246 244 242 243 239 239 239 238 235 235 235 230 231 225 222 222 215 202 204 202 190 194 189 
173 177 172 173 177 172 170 169 172 158 154 157 134 134 135 72 73 71 32 32 30 14 16 17 
8 8 11 8 8 11 9 11 6 3 10 0 3 10 0 9 9 2 9 9 2 9 9 2 
9 9 2 43 46 42 180 181 179 250 253 247 242 243 239 247 251 242 247 251 242 242 255 250 
242 255 250 250 253 252 250 253 254 250 253 254 250 253 252 252 252 250 250 253 252 250 253 252 
250 253 252 250 253 252 253 253 251 253 254 252 254 254 254 254 254 254 253 251 249 250 253 247 
250 253 247 253 253 251 253 254 252 250 253 252 253 254 252 252 251 254 252 251 254 253 253 255 
252 251 254 251 251 249 247 251 242 247 251 242 250 253 247 250 253 252 250 253 252 250 253 254 
249 249 249 255 255 255 248 248 248 247 252 251 203 210 206 66 69 70 20 27 27 13 13 13 
9 3 3 14 7 13 14 7 13 9 3 3 9 9 2 11 14 5 19 19 9 19 19 9 
32 32 30 39 42 37 53 56 53 64 62 60 81 83 84 100 102 97 122 124 121 142 142 140 
166 166 165 180 181 179 196 198 193 208 210 207 223 219 223 231 230 231 237 239 238 243 243 243 
242 242 242 247 247 247 247 247 247 246 246 246 249 249 249 250 250 250 250 250 250 252 252 252 
252 252 252 251 251 251 251 251 251 251 251 251 252 252 252 253 253 253 253 253 253 252 252 252 
252 252 252 252 252 252 253 253 253 253 253 253 253 253 253 253 253 253 253 253 253 253 253 253 
253 253 253 253 253 253 253 253 253 253 253 253 253 253 253 253 253 253 253 253 253 253 253 253 

254 254 254 254 254 254 254 254 254 254 254 254 254 254 254 254 254 254 254 254 254 254 254 254 
255 255 255 254 254 254 254 254 254 254 254 254 255 255 255 255 255 255 255 255 255 254 254 254 
254 254 254 253 253 253 253 253 253 252 252 252 252 252 252 252 252 252 252 252 252 253 253 253 
250 250 250 250 250 250 251 251 251 251 251 251 253 253 253 254 254 254 253 253 253 250 250 250 
251 251 249 249 248 247 249 248 247 249 248 247 246 246 244 243 243 243 237 236 237 226 226 228 
222 222 215 213 210 212 208 210 207 208 210 207 193 194 191 107 112 109 53 56 53 14 16 17 
14 7 13 14 7 13 14 7 13 13 13 13 11 14 5 11 14 5 11 14 5 11 14 5 
9 11 6 39 42 37 151 152 150 213 210 212 216 212 216 223 219 223 208 210 207 208 210 207 
208 210 207 211 212 213 211 212 213 211 212 213 208 210 207 208 210 207 208 210 207 208 210 207 
211 212 213 211 212 213 211 212 213 211 212 213 211 212 213 213 210 212 208 210 207 208 210 207 
203 203 200 208 210 207 211 212 213 211 212 213 208 210 207 208 210 207 213 210 212 213 210 212 
216 212 216 213 210 212 208 210 207 208 210 207 211 212 213 211 212 213 208 210 207 208 210 207 
208 210 207 208 210 207 213 210 212 216 212 216 189 187 187 81 83 84 20 27 27 14 16 17 
21 16 17 21 16 17 21 16 17 14 7 13 27 28 24 36 37 33 64 62 60 89 91 83 
90 92 89 106 105 107 127 130 126 147 150 146 166 166 165 182 181 182 203 203 200 213 210 212 
226 226 228 231 230 231 235 235 235 237 239 238 241 241 241 244 244 244 246 246 246 246 246 246 
248 248 248 250 250 250 248 248 248 246 246 246 249 249 249 250 250 250 249 249 249 251 251 251 
251 251 251 251 251 251 250 250 250 251 251 251 252 252 252 253 253 253 254 254 254 253 253 253 
253 253 253 253 253 253 253 253 253 253 253 253 253 253 253 253 253 253 253 253 253 253 253 253 
253 253 253 253 253 253 253 253 253 253 253 253 253 253 253 253 253 253 253 253 253 253 253 253 

254 254 254 254 254 254 254 254 254 254 254 254 254 254 254 254 254 254 254 254 254 254 254 254 
255 255 255 254 254 254 254 254 254 254 254 254 255 255 255 255 255 255 255 255 255 254 254 254 
254 254 254 254 254 254 253 253 253 252 252 252 252 252 252 252 252 252 252 252 252 252 252 252 
252 252 252 251 251 251 250 250 250 251 251 251 253 253 253 255 255 255 254 254 254 253 253 253 
251 251 249 249 248 247 251 250 248 251 250 248 249 248 247 249 248 247 246 246 244 237 236 237 
242 243 239 239 239 238 240 240 240 226 226 228 203 203 200 133 133 129 173 177 172 197 190 194 
197 190 194 197 190 194 197 190 194 189 187 187 191 193 183 191 193 183 182 188 184 190 194 189 
189 187 187 188 182 185 222 214 214 223 219 223 223 219 223 223 219 223 222 214 214 226 222 223 
226 222 223 221 223 223 223 219 223 222 222 215 222 222 215 222 222 215 222 222 215 223 219 223 
223 219 223 221 223 223 223 219 223 223 219 223 223 219 223 222 214 214 222 214 214 222 214 214 
214 217 212 214 217 212 223 219 223 223 219 223 222 222 215 222 222 215 222 222 215 223 219 223 
223 219 223 223 219 223 222 222 215 222 222 215 223 219 223 221 223 223 214 217 212 214 217 212 
222 222 215 214 217 212 229 221 206 222 214 214 230 224 224 208 210 207 182 188 184 190 194 189 
188 182 185 188 182 185 189 187 187 197 190 194 202 204 202 150 151 156 147 150 146 180 181 179 
189 187 187 196 198 193 208 210 207 222 222 215 226 226 228 230 231 225 234 235 232 237 236 237 
240 240 240 241 241 241 241 241 241 242 242 242 245 245 245 248 248 248 248 248 248 245 245 245 
247 247 247 249 249 249 247 247 247 245 245 245 247 247 247 247 247 247 246 246 246 248 248 248 
250 250 250 250 250 250 250 250 250 251 251 251 252 252 252 253 253 253 254 254 254 254 254 254 
253 253 253 253 253 253 253 253 253 253 253 253 253 253 253 253 253 253 253 253 253 253 253 253 
253 253 253 253 253 253 253 253 253 253 253 253 253 253 253 253 253 253 253 253 253 253 253 253 

254 254 254 254 254 254 254 254 254 254 254 254 254 254 254 254 254 254 254 254 254 254 254 254 
255 255 255 254 254 254 254 254 254 254 254 254 255 255 255 255 255 255 255 255 255 255 255 255 
254 254 254 253 253 253 252 252 252 252 252 252 251 251 251 252 252 252 252 252 252 253 253 253 
255 255 255 254 254 254 252 252 252 252 252 252 252 252 252 252 252 252 252 252 252 252 252 252 
255 255 255 253 253 253 253 253 253 253 253 253 250 250 250 252 252 252 251 251 251 246 246 246 
243 243 243 242 242 242 249 249 249 240 240 240 222 222 215 137 138 135 221 223 223 254 254 254 
253 253 255 253 253 255 255 254 255 255 255 253 254 254 252 253 255 254 248 252 253 250 253 254 
255 253 255 253 249 255 255 252 253 255 252 253 253 253 255 253 255 255 255 253 255 255 252 253 
255 255 253 254 254 252 253 253 251 250 253 247 250 253 247 253 253 251 255 255 255 255 254 255 
253 255 255 253 255 255 250 253 247 247 251 242 250 253 247 254 254 252 255 253 255 255 253 255 
253 253 251 253 253 251 253 253 255 255 253 255 254 254 252 253 253 251 253 253 251 253 253 251 
253 253 251 253 251 249 250 253 247 253 253 251 253 255 255 253 255 255 253 255 255 254 254 252 
253 253 251 247 251 242 247 251 242 253 241 197 253 241 197 247 251 242 254 254 252 250 253 254 
253 255 255 253 255 255 250 253 254 248 252 253 250 253 254 190 194 189 182 180 170 232 237 226 
242 243 239 242 242 242 243 243 243 243 243 243 246 244 243 246 244 243 246 246 244 246 246 244 
246 246 246 247 247 247 246 246 246 247 247 247 249 249 249 252 252 252 252 252 252 250 250 250 
248 248 248 250 250 250 249 249 249 248 248 248 249 249 249 248 248 248 247 247 247 250 250 250 
250 250 250 250 250 250 250 250 250 251 251 251 252 252 252 253 253 253 254 254 254 253 253 253 
253 253 253 253 253 253 253 253 253 253 253 253 253 253 253 253 253 253 253 253 253 253 253 253 
253 253 253 253 253 253 253 253 253 253 253 253 253 253 253 253 253 253 253 253 253 253 253 253 

254 254 254 254 254 254 254 254 254 254 254 254 254 254 254 254 254 254 254 254 254 254 254 254 
255 255 255 254 254 254 254 254 254 254 254 254 255 255 255 255 255 255 255 255 255 255 255 255 
254 254 254 253 253 253 252 252 252 252 252 252 252 252 252 252 252 252 253 253 253 253 253 253 
254 254 254 254 254 254 254 254 254 255 255 255 254 254 254 253 253 253 253 253 253 254 254 254 
254 254 254 252 252 252 253 253 253 253 253 253 251 251 251 253 253 253 253 253 253 249 249 249 
251 251 251 244 244 244 249 249 249 245 245 245 226 226 228 134 134 135 231 230 231 255 255 255 
252 251 254 252 251 254 252 252 250 250 253 247 252 252 250 250 253 254 248 252 253 248 252 253 
252 251 254 253 249 255 254 251 252 254 254 252 248 252 253 250 253 254 255 254 255 254 251 252 
255 252 253 254 252 251 250 253 247 250 253 247 250 253 247 253 251 249 255 253 255 253 253 255 
250 253 254 248 252 253 242 255 250 242 255 250 246 252 250 250 253 254 255 253 255 255 253 255 
254 254 254 254 254 252 255 253 255 255 254 255 255 255 255 253 255 254 253 255 254 247 252 251 
250 253 247 249 252 248 246 252 250 246 252 250 248 252 253 250 253 254 253 253 255 254 252 251 
254 252 251 253 241 197 223 219 152 189 172 115 189 172 115 253 241 197 247 251 242 250 250 253 
250 250 253 253 255 255 248 252 253 248 252 253 250 253 254 196 198 193 182 181 182 245 240 239 
249 248 247 249 248 247 246 246 244 249 248 247 251 250 248 251 251 249 251 250 248 249 248 247 
248 248 248 249 249 249 248 248 248 246 246 246 246 246 246 248 248 248 250 250 250 249 249 249 
247 247 247 250 250 250 248 248 248 247 247 247 248 248 248 246 246 246 245 245 245 249 249 249 
250 250 250 250 250 250 250 250 250 251 251 251 253 253 253 254 254 254 253 253 253 253 253 253 
253 253 253 253 253 253 253 253 253 253 253 253 253 253 253 253 253 253 253 253 253 253 253 253 
253 253 253 253 253 253 253 253 253 253 253 253 253 253 253 253 253 253 253 253 253 252 252 252 

254 254 254 254 254 254 254 254 254 254 254 254 254 254 254 254 254 254 254 254 254 254 254 254 
253 253 253 253 253 253 253 253 253 253 253 253 253 253 253 253 253 253 253 253 253 253 253 253 
253 253 253 253 253 253 253 253 253 253 253 253 253 253 253 253 253 253 253 253 253 253 253 253 
254 254 254 254 254 254 254 254 254 254 254 254 254 254 254 254 254 254 253 253 253 253 253 253 
254 254 254 253 253 253 253 253 253 253 253 253 253 253 253 253 253 253 253 253 253 252 252 252 
251 251 251 247 247 247 245 245 245 244 244 244 223 223 223 137 138 135 226 226 228 255 254 255 
253 249 255 253 249 255 250 253 247 247 251 242 250 253 247 255 255 255 250 253 254 250 253 254 
253 255 255 253 254 252 254 254 252 254 254 252 242 255 250 247 252 251 246 252 250 255 255 255 
255 253 255 255 253 255 255 253 255 251 250 248 250 253 247 250 253 247 255 252 253 255 253 255 
253 249 255 250 253 254 242 255 250 242 255 250 248 252 253 250 253 254 255 253 255 255 253 255 
253 249 255 255 253 255 255 252 253 254 252 251 255 254 255 253 255 255 248 252 253 250 253 254 
248 252 253 242 255 250 250 253 254 250 253 254 253 253 255 250 246 253 255 253 255 254 251 252 
250 253 247 223 219 152 189 172 115 189 172 115 189 172 115 223 219 152 247 251 242 254 251 252 
250 253 247 250 253 247 253 253 251 253 255 255 250 253 254 199 195 202 188 182 185 249 245 246 
250 248 249 249 248 247 249 248 247 249 248 247 249 248 247 249 248 247 251 250 248 251 250 248 
249 249 249 249 249 249 248 248 248 249 249 249 250 250 250 250 250 250 250 250 250 249 249 249 
249 249 249 249 249 249 248 248 248 247 247 247 247 247 247 248 248 248 249 249 249 249 249 249 
251 251 251 251 251 251 251 251 251 252 252 252 253 253 253 253 253 253 253 253 253 253 253 253 
254 254 254 253 253 253 253 253 253 253 253 253 253 253 253 253 253 253 253 253 253 254 254 254 
252 252 252 253 253 253 253 253 253 254 254 254 254 254 254 254 254 254 254 254 254 253 253 253 

255 255 255 254 254 254 254 254 254 253 253 253 253 253 253 253 253 253 253 253 253 253 253 253 
253 253 253 253 253 253 253 253 253 253 253 253 253 253 253 253 253 253 253 253 253 253 253 253 
253 253 253 253 253 253 253 253 253 253 253 253 253 253 253 253 253 253 253 253 253 253 253 253 
253 253 253 253 253 253 253 253 253 253 253 253 253 253 253 253 253 253 253 253 253 253 253 253 
254 254 254 253 253 253 253 253 253 253 253 253 253 253 253 253 253 253 253 253 253 252 252 252 
252 252 252 247 247 247 246 246 246 245 245 245 223 223 223 137 138 135 226 226 228 255 254 255 
255 253 255 253 253 255 232 244 252 232 244 252 248 252 253 232 244 252 232 244 252 232 244 252 
232 244 252 242 255 250 250 253 254 250 253 252 242 255 250 242 255 250 250 253 254 248 247 252 
250 246 253 250 246 253 252 251 254 255 254 255 254 254 252 250 253 247 254 254 252 245 238 245 
253 253 255 232 244 252 198 223 240 117 143 166 117 143 166 198 211 226 253 255 255 248 247 252 
255 253 255 253 249 255 255 253 255 253 253 253 253 255 255 242 248 251 248 252 253 242 255 250 
242 255 250 172 182 195 117 143 166 117 143 166 232 244 252 255 253 255 250 246 253 254 254 252 
253 251 249 253 241 197 189 172 115 189 172 115 223 219 152 253 241 197 247 251 242 255 253 255 
250 253 247 242 250 242 247 252 251 239 243 241 254 254 254 199 195 202 188 182 185 245 238 245 
250 246 253 249 248 247 249 248 247 249 248 247 249 248 247 251 250 248 251 250 248 251 251 249 
250 250 250 249 249 249 249 249 249 249 249 249 250 250 250 251 251 251 250 250 250 250 250 250 
250 250 250 249 249 249 249 249 249 248 248 248 248 248 248 249 249 249 249 249 249 250 250 250 
252 252 252 251 251 251 251 251 251 252 252 252 253 253 253 254 254 254 253 253 253 253 253 253 
254 254 254 253 253 253 253 253 253 253 253 253 253 253 253 253 253 253 253 253 253 254 254 254 
253 253 253 253 253 253 253 253 253 254 254 254 254 254 254 254 254 254 254 254 254 253 253 253 

255 255 255 255 255 255 254 254 254 253 253 253 252 252 252 252 252 252 252 252 252 252 252 252 
253 253 253 253 253 253 253 253 253 253 253 253 253 253 253 253 253 253 253 253 253 253 253 253 
253 253 253 253 253 253 253 253 253 253 253 253 253 253 253 253 253 253 253 253 253 253 253 253 
252 252 252 252 252 252 253 253 253 253 253 253 253 253 253 253 253 253 253 253 253 254 254 254 
254 254 254 253 253 253 253 253 253 253 253 253 253 253 253 253 253 253 253 253 253 252 252 252 
252 252 252 248 248 248 247 247 247 246 246 246 226 226 228 137 138 135 226 226 228 253 255 255 
242 255 250 198 211 226 27 79 144 27 79 144 27 79 144 63 97 153 63 97 153 27 79 144 
27 79 144 63 97 153 198 211 226 242 255 250 242 255 250 242 248 251 248 252 253 250 253 254 
250 253 254 248 252 253 250 253 254 242 255 250 250 253 254 253 255 255 253 253 251 254 254 252 
248 252 253 242 255 250 63 97 153 11 44 92 11 44 92 198 211 226 242 255 250 250 253 254 
252 251 254 250 250 253 250 253 254 250 253 254 250 253 254 248 252 253 242 255 250 242 255 250 
232 244 252 51 71 97 11 44 92 51 71 97 242 248 251 248 252 253 250 253 252 253 253 251 
253 255 255 250 253 247 247 251 242 253 241 197 253 241 197 247 251 242 253 253 255 248 252 253 
242 255 250 242 255 250 242 255 250 242 255 250 253 255 255 203 203 200 197 190 194 239 235 240 
250 248 249 249 248 247 249 248 247 249 248 247 251 250 248 251 251 249 251 251 249 251 251 249 
251 251 251 250 250 250 250 250 250 250 250 250 251 251 251 251 251 251 251 251 251 251 251 251 
251 251 251 250 250 250 250 250 250 249 249 249 249 249 249 250 250 250 250 250 250 251 251 251 
252 252 252 252 252 252 252 252 252 253 253 253 254 254 254 254 254 254 254 254 254 254 254 254 
254 254 254 254 254 254 253 253 253 253 253 253 253 253 253 253 253 253 254 254 254 254 254 254 
253 253 253 253 253 253 253 253 253 254 254 254 254 254 254 254 254 254 254 254 254 253 253 253 

255 255 255 254 254 254 253 253 253 253 253 253 252 252 252 252 252 252 252 252 252 253 253 253 
253 253 253 253 253 253 253 253 253 253 253 253 253 253 253 253 253 253 253 253 253 253 253 253 
253 253 253 253 253 253 253 253 253 253 253 253 253 253 253 253 253 253 253 253 253 253 253 253 
252 252 252 252 252 252 253 253 253 253 253 253 253 253 253 254 254 254 254 254 254 254 254 254 
254 254 254 253 253 253 253 253 253 253 253 253 253 253 253 254 254 254 253 253 253 252 252 252 
252 252 252 248 248 248 248 248 248 247 247 247 226 226 228 137 138 135 226 226 228 250 253 254 
242 255 250 117 158 221 11 53 112 15 59 142 15 59 142 14 53 124 15 59 142 15 59 142 
15 59 142 11 53 112 63 97 153 242 255 250 232 244 252 198 211 226 161 154 166 117 143 166 
117 143 166 198 223 240 242 255 250 242 255 250 232 244 252 198 211 226 172 182 195 166 176 182 
166 176 182 167 178 222 27 79 144 14 53 124 63 97 153 232 244 252 198 223 240 166 176 182 
166 176 182 172 182 195 242 255 250 232 244 252 198 211 226 167 178 222 166 176 182 172 182 195 
167 178 222 14 53 124 14 53 124 117 158 221 242 255 250 198 223 240 198 211 226 232 244 252 
232 244 252 200 209 213 200 209 213 200 209 213 239 243 241 200 203 206 166 176 182 166 176 182 
117 143 166 166 176 182 167 178 222 232 244 252 250 253 254 182 181 182 188 182 185 240 240 240 
249 248 247 249 248 247 249 248 247 249 248 247 251 250 248 251 251 249 251 251 249 252 252 250 
252 252 252 252 252 252 251 251 251 252 252 252 252 252 252 252 252 252 252 252 252 251 251 251 
252 252 252 252 252 252 251 251 251 251 251 251 251 251 251 251 251 251 252 252 252 252 252 252 
253 253 253 253 253 253 252 252 252 253 253 253 254 254 254 255 255 255 255 255 255 254 254 254 
254 254 254 254 254 254 253 253 253 253 253 253 253 253 253 253 253 253 254 254 254 254 254 254 
253 253 253 253 253 253 254 254 254 254 254 254 254 254 254 254 254 254 254 254 254 253 253 253 

254 254 254 254 254 254 253 253 253 253 253 253 253 253 253 253 253 253 253 253 253 253 253 253 
253 253 253 253 253 253 253 253 253 253 253 253 253 253 253 253 253 253 253 253 253 253 253 253 
253 253 253 253 253 253 253 253 253 253 253 253 253 253 253 254 254 254 254 254 254 254 254 254 
253 253 253 253 253 253 253 253 253 254 254 254 254 254 254 255 255 255 255 255 255 255 255 255 
254 254 254 254 254 254 253 253 253 253 253 253 254 254 254 254 254 254 253 253 253 253 253 253 
252 252 252 248 248 248 248 248 248 247 247 247 226 226 228 134 134 135 226 226 228 250 253 254 
242 255 250 104 115 164 14 53 124 15 59 142 63 97 153 232 244 252 194 228 251 27 79 144 
14 53 124 14 53 124 104 115 164 194 228 251 63 97 153 11 53 112 11 44 92 11 44 92 
11 53 112 11 53 112 194 228 251 167 178 222 27 79 144 11 44 92 11 44 92 51 71 97 
51 71 97 63 97 153 15 59 142 14 53 124 63 97 153 117 158 221 14 53 124 11 44 92 
51 71 97 194 228 251 167 178 222 27 79 144 11 53 112 11 44 92 51 71 97 51 71 97 
63 97 153 15 59 142 15 59 142 27 79 144 14 53 124 11 44 92 11 53 112 63 97 153 
194 228 251 166 176 182 11 53 112 51 71 97 198 211 226 38 47 59 51 71 97 11 53 112 
11 53 112 14 53 124 14 53 124 63 97 153 232 244 252 203 210 206 163 166 158 242 243 239 
247 251 242 249 248 247 249 248 247 249 248 247 251 250 248 251 251 249 251 251 249 252 252 250 
253 253 253 253 253 253 252 252 252 252 252 252 253 253 253 253 253 253 253 253 253 252 252 252 
253 253 253 252 252 252 252 252 252 252 252 252 252 252 252 252 252 252 252 252 252 253 253 253 
253 253 253 253 253 253 253 253 253 253 253 253 254 254 254 255 255 255 255 255 255 254 254 254 
254 254 254 254 254 254 254 254 254 253 253 253 253 253 253 254 254 254 254 254 254 254 254 254 
253 253 253 254 254 254 254 254 254 254 254 254 254 254 254 254 254 254 253 253 253 253 253 253 

253 253 253 254 254 254 254 254 254 254 254 254 254 254 254 254 254 254 254 254 254 254 254 254 
253 253 253 253 253 253 253 253 253 253 253 253 253 253 253 253 253 253 253 253 253 253 253 253 
253 253 253 253 253 253 253 253 253 253 253 253 254 254 254 254 254 254 254 254 254 254 254 254 
254 254 254 254 254 254 254 254 254 254 254 254 254 254 254 255 255 255 255 255 255 255 255 255 
254 254 254 254 254 254 253 253 253 253 253 253 254 254 254 254 254 254 253 253 253 253 253 253 
252 252 252 249 249 249 249 249 249 247 247 247 226 226 228 134 134 135 226 226 228 250 253 254 
232 244 252 51 71 97 15 59 142 11 53 112 117 158 221 232 244 252 167 178 222 14 53 124 
11 53 112 14 53 124 167 178 222 63 97 153 11 53 112 27 79 144 167 178 222 117 158 221 
11 53 112 63 97 153 167 178 222 11 53 112 11 53 112 104 115 164 198 211 226 194 228 251 
232 244 252 117 158 221 14 53 124 15 59 142 27 79 144 14 53 124 11 53 112 117 158 221 
232 244 252 167 178 222 11 53 112 11 53 112 117 158 221 194 228 251 232 244 252 232 244 252 
63 97 153 15 59 142 15 59 142 27 79 144 167 178 222 63 97 153 14 53 124 11 53 112 
167 178 222 198 223 240 11 44 92 104 115 164 232 244 252 198 223 240 232 244 252 232 244 252 
117 158 221 15 59 142 15 59 142 11 44 92 166 176 182 203 210 206 180 181 179 236 238 233 
247 251 242 249 248 247 249 248 247 249 248 247 251 250 248 251 251 249 252 252 250 252 252 250 
254 254 254 253 253 253 253 253 253 253 253 253 253 253 253 253 253 253 253 253 253 252 252 252 
253 253 253 253 253 253 253 253 253 253 253 253 253 253 253 253 253 253 253 253 253 253 253 253 
253 253 253 253 253 253 253 253 253 253 253 253 254 254 254 255 255 255 255 255 255 254 254 254 
254 254 254 254 254 254 254 254 254 253 253 253 253 253 253 254 254 254 254 254 254 254 254 254 
254 254 254 254 254 254 254 254 254 254 254 254 254 254 254 254 254 254 253 253 253 253 253 253 

254 254 254 254 254 254 255 255 255 255 255 255 255 255 255 254 254 254 253 253 253 253 253 253 
253 253 253 253 253 253 253 253 253 253 253 253 253 253 253 253 253 253 253 253 253 253 253 253 
253 253 253 253 253 253 253 253 253 253 253 253 254 254 254 254 254 254 254 254 254 254 254 254 
254 254 254 254 254 254 254 254 254 254 254 254 254 254 254 254 254 254 254 254 254 254 254 254 
254 254 254 254 254 254 253 253 253 253 253 253 254 254 254 254 254 254 253 253 253 253 253 253 
252 252 252 250 250 250 250 250 250 248 248 248 226 226 228 134 134 135 226 226 228 248 252 253 
167 178 222 11 53 112 27 79 144 15 59 142 27 79 144 63 97 153 14 53 124 14 53 124 
63 97 153 194 228 251 167 178 222 11 53 112 14 53 124 117 158 221 242 255 250 232 244 252 
51 71 97 117 158 221 104 115 164 11 53 112 104 115 164 242 255 250 232 244 252 242 255 250 
242 255 250 104 115 164 14 53 124 15 59 142 15 59 142 15 59 142 167 178 222 242 255 250 
194 228 251 27 79 144 11 53 112 117 158 221 242 255 250 248 252 253 248 247 252 232 244 252 
63 97 153 14 53 124 14 53 124 194 228 251 232 244 252 167 178 222 14 53 124 14 53 124 
194 228 251 117 143 166 11 44 92 167 178 222 242 255 250 248 252 253 248 252 253 242 255 250 
194 228 251 27 79 144 15 59 142 14 53 124 166 176 182 200 209 213 182 181 182 241 236 242 
249 248 247 249 248 247 249 248 247 251 250 248 251 251 249 252 252 250 253 253 251 253 253 251 
254 254 254 254 254 254 253 253 253 253 253 253 254 254 254 254 254 254 253 253 253 252 252 252 
253 253 253 253 253 253 253 253 253 253 253 253 253 253 253 253 253 253 253 253 253 253 253 253 
253 253 253 253 253 253 253 253 253 253 253 253 254 254 254 255 255 255 255 255 255 254 254 254 
254 254 254 254 254 254 254 254 254 254 254 254 254 254 254 254 254 254 254 254 254 254 254 254 
254 254 254 254 254 254 254 254 254 254 254 254 254 254 254 254 254 254 253 253 253 253 253 253 

254 254 254 255 255 255 255 255 255 255 255 255 255 255 255 254 254 254 253 253 253 252 252 252 
253 253 253 253 253 253 253 253 253 253 253 253 253 253 253 253 253 253 253 253 253 253 253 253 
253 253 253 253 253 253 253 253 253 253 253 253 254 254 254 254 254 254 254 254 254 254 254 254 
254 254 254 254 254 254 254 254 254 254 254 254 253 253 253 253 253 253 253 253 253 253 253 253 
254 254 254 254 254 254 253 253 253 253 253 253 254 254 254 254 254 254 253 253 253 253 253 253 
253 253 253 250 250 250 251 251 251 249 249 249 226 226 228 134 134 135 226 226 228 248 252 253 
117 158 221 14 53 124 14 53 124 27 79 144 27 79 144 15 59 142 15 59 142 15 59 142 
194 228 251 232 244 252 104 115 164 11 53 112 14 53 124 167 178 222 232 244 252 198 223 240 
11 53 112 194 228 251 27 79 144 11 53 112 117 158 221 232 244 252 242 255 250 242 255 250 
194 228 251 27 79 144 14 53 124 15 59 142 15 59 142 14 53 124 117 143 166 232 244 252 
167 178 222 11 44 92 11 53 112 117 158 221 232 244 252 242 255 250 248 252 253 167 178 222 
14 53 124 15 59 142 104 115 164 232 244 252 232 244 252 104 115 164 14 53 124 27 79 144 
194 228 251 63 97 153 11 53 112 194 228 251 242 255 250 248 252 253 242 248 251 242 255 250 
167 178 222 11 53 112 15 59 142 11 53 112 198 211 226 200 209 213 188 182 185 239 235 240 
250 248 249 249 248 247 249 248 247 251 250 248 251 251 249 252 252 250 253 253 251 254 254 252 
254 254 254 254 254 254 253 253 253 253 253 253 254 254 254 254 254 254 253 253 253 252 252 252 
253 253 253 253 253 253 253 253 253 254 254 254 254 254 254 253 253 253 253 253 253 253 253 253 
253 253 253 252 252 252 252 252 252 253 253 253 254 254 254 255 255 255 254 254 254 254 254 254 
254 254 254 254 254 254 254 254 254 254 254 254 254 254 254 254 254 254 254 254 254 254 254 254 
254 254 254 254 254 254 254 254 254 254 254 254 254 254 254 254 254 254 253 253 253 253 253 253 

255 255 255 255 255 255 255 255 255 255 255 255 255 255 255 254 254 254 254 254 254 253 253 253 
253 253 253 253 253 253 253 253 253 254 254 254 254 254 254 254 254 254 254 254 254 253 253 253 
253 253 253 253 253 253 253 253 253 253 253 253 254 254 254 255 255 255 255 255 255 255 255 255 
254 254 254 254 254 254 254 254 254 254 254 254 254 254 254 254 254 254 254 254 254 254 254 254 
253 253 253 253 253 253 254 254 254 254 254 254 254 254 254 254 254 254 253 253 253 253 253 253 
254 254 254 250 250 250 254 254 254 253 253 253 226 226 228 127 130 126 231 230 231 248 252 253 
63 97 153 14 53 124 11 53 112 104 115 164 117 158 221 14 53 124 15 59 142 11 53 112 
63 97 153 232 244 252 104 115 164 11 53 112 15 59 142 117 158 221 194 228 251 63 97 153 
14 53 124 194 228 251 27 79 144 14 53 124 15 59 142 104 115 164 117 158 221 104 115 164 
27 79 144 63 97 153 14 53 124 63 97 153 63 97 153 14 53 124 11 53 112 167 178 222 
167 178 222 11 53 112 15 59 142 27 79 144 104 115 164 117 158 221 63 97 153 27 79 144 
63 97 153 11 53 112 167 178 222 232 244 252 232 244 252 63 97 153 14 53 124 63 97 153 
194 228 251 11 53 112 63 97 153 194 228 251 104 115 164 117 158 221 117 158 221 104 115 164 
15 59 142 15 59 142 14 53 124 63 97 153 232 244 252 196 198 193 180 181 179 241 236 242 
249 248 247 248 248 248 249 249 249 249 249 249 251 251 251 252 252 252 254 254 254 255 255 255 
254 254 254 254 254 254 254 254 254 253 253 253 253 253 253 253 253 253 253 253 253 254 254 254 
254 254 254 254 254 254 253 253 253 253 253 253 253 253 253 254 254 254 254 254 254 254 254 254 
255 255 255 255 255 255 254 254 254 255 255 255 255 255 255 255 255 255 255 255 255 254 254 254 
255 255 255 255 255 255 254 254 254 254 254 254 254 254 254 254 254 254 254 254 254 254 254 254 
255 255 255 255 255 255 255 255 255 254 254 254 254 254 254 254 254 254 254 254 254 254 254 254 

255 255 255 255 255 255 255 255 255 255 255 255 255 255 255 254 254 254 254 254 254 253 253 253 
254 254 254 253 253 253 253 253 253 254 254 254 254 254 254 254 254 254 254 254 254 253 253 253 
253 253 253 253 253 253 252 252 252 253 253 253 254 254 254 255 255 255 255 255 255 254 254 254 
253 253 253 254 254 254 254 254 254 254 254 254 254 254 254 254 254 254 254 254 254 253 253 253 
253 253 253 253 253 253 254 254 254 254 254 254 254 254 254 254 254 254 253 253 253 253 253 253 
251 251 251 253 253 253 254 254 254 247 247 247 226 226 228 137 138 135 231 230 231 232 244 252 
11 53 112 14 53 124 11 53 112 117 158 221 232 244 252 14 53 124 14 53 124 14 53 124 
11 53 112 167 178 222 194 228 251 11 53 112 11 44 92 11 53 112 11 53 112 11 44 92 
11 53 112 194 228 251 104 115 164 11 44 92 11 53 112 11 44 92 11 44 92 27 79 144 
104 115 164 14 53 124 11 44 92 117 158 221 194 228 251 14 53 124 11 53 112 11 53 112 
117 158 221 51 71 97 11 53 112 11 53 112 11 53 112 11 44 92 63 97 153 104 115 164 
11 53 112 11 44 92 198 211 226 242 255 250 198 211 226 11 44 92 11 53 112 117 158 221 
194 228 251 11 44 92 117 143 166 117 158 221 11 53 112 14 53 124 14 53 124 11 53 112 
14 53 124 11 53 112 27 79 144 198 211 226 242 255 250 190 194 189 170 169 172 237 236 237 
249 248 247 248 248 248 248 248 248 249 249 249 250 250 250 252 252 252 253 253 253 254 254 254 
254 254 254 254 254 254 254 254 254 253 253 253 253 253 253 253 253 253 253 253 253 254 254 254 
254 254 254 254 254 254 253 253 253 253 253 253 253 253 253 254 254 254 254 254 254 254 254 254 
255 255 255 254 254 254 254 254 254 255 255 255 255 255 255 255 255 255 255 255 255 254 254 254 
255 255 255 255 255 255 254 254 254 254 254 254 254 254 254 254 254 254 254 254 254 254 254 254 
255 255 255 255 255 255 254 254 254 254 254 254 254 254 254 254 254 254 254 254 254 254 254 254 

255 255 255 255 255 255 255 255 255 255 255 255 255 255 255 254 254 254 254 254 254 254 254 254 
254 254 254 254 254 254 254 254 254 254 254 254 254 254 254 254 254 254 253 253 253 252 252 252 
253 253 253 252 252 252 252 252 252 253 253 253 254 254 254 254 254 254 254 254 254 254 254 254 
253 253 253 253 253 253 254 254 254 254 254 254 254 254 254 254 254 254 253 253 253 253 253 253 
253 253 253 253 253 253 254 254 254 254 254 254 254 254 254 254 254 254 253 253 253 253 253 253 
250 250 250 253 253 253 253 253 253 245 245 245 226 226 228 142 142 140 226 226 228 225 223 228 
51 71 97 63 97 153 51 71 97 198 223 240 242 255 250 167 178 222 51 71 97 51 71 97 
51 71 97 104 115 164 232 244 252 198 211 226 117 143 166 63 97 153 104 115 164 117 143 166 
198 211 226 242 255 250 242 255 250 172 182 195 117 143 166 117 143 166 167 178 222 232 244 252 
198 211 226 117 143 166 117 143 166 198 223 240 242 255 250 198 211 226 117 143 166 117 143 166 
171 182 191 198 211 226 117 143 166 104 115 164 117 143 166 167 178 222 232 244 252 172 182 195 
117 143 166 161 154 166 232 244 252 242 255 250 198 211 226 117 143 166 117 143 166 194 228 251 
242 255 250 92 93 95 117 143 166 117 158 221 14 53 124 27 79 144 104 115 164 117 143 166 
117 143 166 167 178 222 232 244 252 248 252 253 250 253 254 190 194 189 173 177 172 235 235 235 
247 247 247 248 248 248 248 248 248 249 249 249 250 250 250 252 252 252 253 253 253 254 254 254 
254 254 254 254 254 254 254 254 254 253 253 253 253 253 253 253 253 253 253 253 253 254 254 254 
254 254 254 253 253 253 253 253 253 253 253 253 253 253 253 254 254 254 254 254 254 254 254 254 
255 255 255 254 254 254 254 254 254 254 254 254 255 255 255 255 255 255 255 255 255 254 254 254 
255 255 255 255 255 255 254 254 254 254 254 254 254 254 254 254 254 254 254 254 254 254 254 254 
255 255 255 254 254 254 254 254 254 254 254 254 254 254 254 254 254 254 254 254 254 254 254 254 

255 255 255 255 255 255 255 255 255 255 255 255 255 255 255 255 255 255 254 254 254 254 254 254 
255 255 255 254 254 254 254 254 254 254 254 254 254 254 254 254 254 254 253 253 253 252 252 252 
253 253 253 252 252 252 252 252 252 253 253 253 254 254 254 254 254 254 254 254 254 253 253 253 
253 253 253 253 253 253 253 253 253 253 253 253 253 253 253 253 253 253 253 253 253 253 253 253 
253 253 253 253 253 253 253 253 253 254 254 254 254 254 254 253 253 253 253 253 253 253 253 253 
252 252 252 251 251 251 252 252 252 250 250 250 231 230 231 142 142 140 226 226 228 242 248 251 
242 255 250 232 244 252 242 255 250 242 255 250 242 255 250 242 255 250 232 244 252 242 255 250 
242 255 250 242 248 251 242 248 251 242 255 250 242 255 250 242 255 250 242 248 251 242 255 250 
248 252 253 242 248 251 248 252 253 250 253 254 250 253 254 250 253 254 250 253 254 250 253 254 
242 248 251 250 253 254 250 253 254 250 253 254 242 248 251 250 253 254 248 252 253 250 253 254 
248 252 253 248 252 253 242 255 250 242 255 250 242 255 250 242 255 250 242 255 250 242 255 250 
248 252 253 250 253 254 250 253 254 253 255 255 248 252 253 248 252 253 242 255 250 242 255 250 
242 255 250 242 255 250 242 255 250 117 143 166 11 44 92 27 79 144 194 228 251 232 244 252 
242 255 250 242 255 250 250 253 254 246 246 250 250 253 247 193 194 191 170 173 173 239 243 241 
247 247 247 247 247 247 248 248 248 249 249 249 250 250 250 251 251 251 252 252 252 253 253 253 
254 254 254 254 254 254 254 254 254 253 253 253 253 253 253 253 253 253 253 253 253 254 254 254 
253 253 253 253 253 253 253 253 253 253 253 253 253 253 253 254 254 254 254 254 254 255 255 255 
255 255 255 254 254 254 254 254 254 254 254 254 255 255 255 255 255 255 255 255 255 254 254 254 
255 255 255 255 255 255 254 254 254 254 254 254 254 254 254 254 254 254 254 254 254 254 254 254 
254 254 254 254 254 254 254 254 254 254 254 254 254 254 254 254 254 254 254 254 254 254 254 254 

255 255 255 255 255 255 255 255 255 255 255 255 255 255 255 255 255 255 254 254 254 254 254 254 
255 255 255 254 254 254 254 254 254 254 254 254 254 254 254 254 254 254 253 253 253 252 252 252 
253 253 253 253 253 253 252 252 252 253 253 253 254 254 254 254 254 254 254 254 254 253 253 253 
253 253 253 253 253 253 253 253 253 253 253 253 253 253 253 253 253 253 253 253 253 253 253 253 
253 253 253 253 253 253 253 253 253 254 254 254 254 254 254 253 253 253 253 253 253 253 253 253 
253 253 253 251 251 251 252 252 252 252 252 252 231 230 231 142 142 140 231 230 231 253 255 255 
248 252 253 250 253 254 250 253 254 248 252 253 250 253 254 250 253 254 250 253 254 248 252 253 
247 252 251 253 255 255 253 255 255 248 247 252 250 250 253 253 253 255 253 255 255 248 252 253 
247 252 251 253 255 254 253 255 254 253 255 255 253 255 255 248 252 253 248 247 252 242 248 251 
253 255 255 253 255 255 248 252 253 250 253 254 250 253 254 248 247 252 250 253 254 252 251 254 
242 242 242 250 250 253 248 247 252 248 252 253 248 252 253 248 252 253 250 253 254 242 248 251 
254 254 254 248 247 252 253 251 249 254 254 252 249 248 247 255 255 255 253 255 255 253 255 255 
249 248 247 249 252 248 242 248 251 100 101 105 11 53 112 63 97 153 242 255 250 242 255 250 
246 252 250 247 251 242 254 254 252 253 251 249 254 252 251 193 194 191 166 166 165 234 235 232 
247 247 247 247 247 247 248 248 248 249 249 249 250 250 250 252 252 252 252 252 252 253 253 253 
254 254 254 254 254 254 254 254 254 253 253 253 253 253 253 253 253 253 253 253 253 254 254 254 
253 253 253 253 253 253 253 253 253 253 253 253 253 253 253 254 254 254 254 254 254 255 255 255 
255 255 255 254 254 254 253 253 253 253 253 253 254 254 254 255 255 255 255 255 255 255 255 255 
255 255 255 255 255 255 254 254 254 254 254 254 254 254 254 254 254 254 254 254 254 254 254 254 
254 254 254 254 254 254 254 254 254 254 254 254 254 254 254 254 254 254 254 254 254 254 254 254 

255 255 255 255 255 255 255 255 255 255 255 255 255 255 255 255 255 255 255 255 255 255 255 255 
254 254 254 254 254 254 254 254 254 254 254 254 254 254 254 254 254 254 253 253 253 252 252 252 
254 254 254 253 253 253 253 253 253 253 253 253 254 254 254 254 254 254 254 254 254 254 254 254 
253 253 253 253 253 253 254 254 254 254 254 254 254 254 254 254 254 254 253 253 253 253 253 253 
253 253 253 253 253 253 253 253 253 253 253 253 253 253 253 253 253 253 253 253 253 253 253 253 
252 252 252 253 253 253 252 252 252 248 248 248 231 230 231 151 152 150 231 230 231 255 255 255 
253 255 255 253 255 255 253 255 254 249 249 249 253 255 255 247 247 250 255 255 255 255 255 255 
254 254 252 251 250 248 255 255 253 255 253 255 255 254 255 253 253 255 250 248 249 255 254 255 
254 254 252 250 253 247 255 255 253 250 253 252 252 251 254 252 251 254 255 255 255 253 255 255 
237 236 237 231 230 231 239 239 239 241 241 241 193 194 191 226 226 228 234 229 232 250 250 253 
255 255 253 237 236 237 226 226 228 250 250 253 211 212 213 247 251 242 252 252 250 255 255 255 
166 166 165 234 229 232 203 203 200 254 252 251 170 170 165 226 222 223 255 255 253 246 247 243 
254 254 252 189 187 187 236 240 238 242 255 250 194 228 251 232 244 252 198 211 226 147 150 146 
147 150 146 170 170 165 151 152 150 151 152 150 254 252 251 191 193 183 173 177 172 234 235 232 
247 247 247 247 247 247 248 248 248 250 250 250 251 251 251 252 252 252 253 253 253 253 253 253 
254 254 254 254 254 254 254 254 254 253 253 253 253 253 253 253 253 253 253 253 253 254 254 254 
253 253 253 253 253 253 253 253 253 253 253 253 253 253 253 254 254 254 255 255 255 255 255 255 
255 255 255 254 254 254 253 253 253 253 253 253 254 254 254 255 255 255 255 255 255 255 255 255 
255 255 255 255 255 255 254 254 254 254 254 254 254 254 254 254 254 254 254 254 254 254 254 254 
254 254 254 254 254 254 254 254 254 254 254 254 254 254 254 254 254 254 254 254 254 253 253 253 

255 255 255 255 255 255 255 255 255 255 255 255 255 255 255 255 255 255 255 255 255 255 255 255 
254 254 254 253 253 253 253 253 253 254 254 254 254 254 254 254 254 254 254 254 254 253 253 253 
254 254 254 254 254 254 253 253 253 254 254 254 254 254 254 255 255 255 254 254 254 254 254 254 
253 253 253 254 254 254 254 254 254 254 254 254 254 254 254 254 254 254 254 254 254 253 253 253 
253 253 253 253 253 253 253 253 253 253 253 253 253 253 253 253 253 253 253 253 253 253 253 253 
251 251 251 254 254 254 252 252 252 248 248 248 235 235 235 160 160 159 231 230 231 250 250 253 
253 255 255 248 247 252 253 255 255 253 255 255 255 255 255 255 255 255 253 253 253 253 253 253 
255 255 253 255 255 253 251 251 249 255 254 255 253 253 255 255 254 255 255 254 255 251 251 251 
254 255 253 253 255 254 253 255 255 247 252 251 253 255 255 253 255 255 246 246 250 253 255 255 
189 187 187 53 56 53 137 138 135 122 124 121 107 112 109 127 130 126 117 116 117 235 235 235 
121 121 125 81 83 84 72 73 71 106 105 107 53 56 53 127 130 126 189 187 187 170 169 172 
117 116 117 150 151 156 100 101 105 142 142 140 92 93 95 203 203 200 234 235 232 142 142 140 
138 135 139 58 57 64 113 113 110 121 121 125 199 195 202 250 253 254 211 212 213 147 150 146 
170 170 165 116 116 111 37 34 37 119 117 120 254 252 251 191 193 183 170 170 165 231 230 231 
247 247 247 248 248 248 249 249 249 250 250 250 252 252 252 252 252 252 253 253 253 253 253 253 
254 254 254 254 254 254 254 254 254 253 253 253 253 253 253 253 253 253 253 253 253 254 254 254 
253 253 253 253 253 253 253 253 253 253 253 253 254 254 254 254 254 254 255 255 255 255 255 255 
255 255 255 254 254 254 253 253 253 253 253 253 254 254 254 255 255 255 255 255 255 255 255 255 
255 255 255 255 255 255 254 254 254 254 254 254 254 254 254 254 254 254 254 254 254 254 254 254 
254 254 254 254 254 254 254 254 254 254 254 254 254 254 254 254 254 254 253 253 253 253 253 253 

255 255 255 255 255 255 255 255 255 255 255 255 255 255 255 255 255 255 255 255 255 255 255 255 
253 253 253 253 253 253 253 253 253 254 254 254 254 254 254 254 254 254 254 254 254 253 253 253 
255 255 255 254 254 254 254 254 254 254 254 254 255 255 255 255 255 255 255 255 255 254 254 254 
254 254 254 254 254 254 254 254 254 254 254 254 254 254 254 254 254 254 254 254 254 254 254 254 
253 253 253 253 253 253 253 253 253 253 253 253 253 253 253 253 253 253 253 253 253 253 253 253 
252 252 252 253 253 253 252 252 252 252 252 252 237 239 238 160 160 159 231 230 231 255 255 255 
250 250 253 253 255 255 253 255 255 251 251 251 253 255 255 254 255 253 255 255 253 254 255 253 
254 254 252 253 253 251 255 255 253 254 254 254 255 254 255 253 253 255 255 254 255 255 255 255 
252 252 250 254 255 253 253 255 255 253 255 255 252 251 254 253 255 255 253 255 255 253 253 255 
250 250 253 134 134 135 211 212 213 107 112 109 122 124 121 92 93 95 144 144 145 237 236 237 
234 229 232 144 144 145 144 144 145 182 188 184 90 92 89 214 217 212 234 235 232 211 212 213 
107 112 109 127 130 126 134 134 135 98 95 96 84 84 82 84 84 82 202 204 202 84 84 82 
197 190 194 92 93 95 173 177 172 113 113 110 158 154 157 255 254 255 251 250 248 254 254 252 
223 219 223 106 105 107 239 235 240 250 250 250 254 254 252 196 198 193 170 169 172 245 240 239 
247 246 247 248 248 248 249 249 249 251 251 251 252 252 252 253 253 253 253 253 253 253 253 253 
254 254 254 254 254 254 254 254 254 253 253 253 253 253 253 253 253 253 253 253 253 254 254 254 
253 253 253 253 253 253 253 253 253 253 253 253 254 254 254 254 254 254 255 255 255 255 255 255 
255 255 255 254 254 254 253 253 253 253 253 253 253 253 253 255 255 255 255 255 255 255 255 255 
255 255 255 255 255 255 254 254 254 254 254 254 254 254 254 254 254 254 254 254 254 254 254 254 
254 254 254 254 254 254 254 254 254 254 254 254 254 254 254 253 253 253 253 253 253 253 253 253 

254 254 254 254 254 254 255 255 255 255 255 255 254 254 254 254 254 254 253 253 253 252 252 252 
253 253 253 253 253 253 253 253 253 253 253 253 253 253 253 254 254 254 254 254 254 254 254 254 
255 255 255 255 255 255 254 254 254 254 254 254 254 254 254 254 254 254 254 254 254 253 253 253 
252 252 252 253 253 253 254 254 254 255 255 255 255 255 255 254 254 254 253 253 253 253 253 253 
253 253 253 253 253 253 253 253 253 253 253 253 254 254 254 253 253 253 252 252 252 251 251 251 
250 250 250 255 255 255 251 251 251 243 243 243 241 241 241 166 166 165 231 230 231 252 252 252 
254 255 253 250 253 252 250 253 252 253 255 254 253 255 254 253 254 252 254 254 252 253 254 252 
254 255 253 254 255 253 254 255 253 254 255 253 255 255 253 254 255 253 255 255 255 255 255 255 
254 254 252 254 254 252 254 254 252 254 254 254 254 254 254 254 254 254 254 254 254 254 254 254 
170 173 173 43 46 42 158 154 157 158 154 157 72 73 71 138 135 139 158 154 157 246 246 250 
242 242 244 202 204 202 170 173 173 147 150 146 203 210 206 232 237 226 253 253 251 127 130 126 
98 95 96 144 144 145 138 135 139 158 154 157 151 152 150 151 152 150 234 235 232 90 92 89 
166 176 182 66 69 70 170 170 165 89 91 83 182 181 182 234 229 232 98 95 96 119 117 120 
81 83 84 58 57 64 127 130 126 90 92 89 203 203 200 208 210 207 161 154 166 245 238 245 
247 246 247 249 249 249 249 249 249 250 250 250 254 254 254 254 254 254 252 252 252 254 254 254 
253 253 253 253 253 253 253 253 253 253 253 253 253 253 253 253 253 253 252 252 252 252 252 252 
253 253 253 253 253 253 253 253 253 253 253 253 254 254 254 254 254 254 255 255 255 255 255 255 
255 255 255 255 255 255 255 255 255 254 254 254 254 254 254 255 255 255 255 255 255 255 255 255 
254 254 254 254 254 254 254 254 254 254 254 254 254 254 254 254 254 254 253 253 253 253 253 253 
255 255 255 254 254 254 253 253 253 253 253 253 252 252 252 253 253 253 253 253 253 253 253 253 

254 254 254 254 254 254 255 255 255 255 255 255 255 255 255 254 254 254 253 253 253 253 253 253 
253 253 253 253 253 253 253 253 253 253 253 253 253 253 253 254 254 254 254 254 254 254 254 254 
255 255 255 255 255 255 254 254 254 254 254 254 254 254 254 254 254 254 254 254 254 253 253 253 
253 253 253 253 253 253 254 254 254 255 255 255 255 255 255 254 254 254 253 253 253 253 253 253 
253 253 253 253 253 253 253 253 253 253 253 253 254 254 254 253 253 253 252 252 252 251 251 251 
250 250 250 255 255 255 255 255 255 251 251 251 237 236 237 160 160 159 226 226 228 255 255 253 
249 252 248 254 254 252 254 255 253 254 255 253 254 255 253 250 253 247 250 253 247 250 253 247 
254 255 253 254 255 253 254 255 253 254 255 253 254 254 252 255 255 253 255 255 255 254 254 254 
255 255 253 255 255 253 255 255 253 255 254 255 255 254 255 255 254 255 255 254 255 255 254 255 
231 230 231 137 138 135 190 194 189 72 73 71 81 83 84 106 105 107 127 130 126 255 254 255 
92 93 95 100 101 105 170 170 165 100 102 97 193 194 191 92 93 95 250 253 247 107 112 109 
137 138 135 113 113 110 100 101 105 170 169 172 66 69 70 208 210 207 214 217 212 72 73 71 
170 173 173 81 83 84 163 166 158 72 73 71 203 203 200 255 253 255 223 219 223 255 253 255 
161 154 166 119 117 120 250 253 254 221 223 223 253 253 251 189 187 187 170 173 173 231 230 231 
247 247 250 249 249 249 249 249 249 250 250 250 254 254 254 254 254 254 252 252 252 254 254 254 
253 253 253 253 253 253 253 253 253 253 253 253 253 253 253 253 253 253 253 253 253 252 252 252 
253 253 253 253 253 253 253 253 253 253 253 253 254 254 254 254 254 254 255 255 255 255 255 255 
255 255 255 255 255 255 254 254 254 254 254 254 254 254 254 254 254 254 255 255 255 255 255 255 
254 254 254 254 254 254 254 254 254 254 254 254 253 253 253 253 253 253 253 253 253 253 253 253 
254 254 254 253 253 253 253 253 253 253 253 253 253 253 253 253 253 253 253 253 253 253 253 253 

255 255 255 255 255 255 255 255 255 255 255 255 255 255 255 254 254 254 254 254 254 253 253 253 
253 253 253 253 253 253 253 253 253 253 253 253 253 253 253 253 253 253 254 254 254 254 254 254 
255 255 255 255 255 255 254 254 254 254 254 254 254 254 254 254 254 254 254 254 254 253 253 253 
253 253 253 253 253 253 254 254 254 254 254 254 254 254 254 254 254 254 253 253 253 253 253 253 
253 253 253 253 253 253 253 253 253 253 253 253 254 254 254 253 253 253 252 252 252 251 251 251 
255 255 255 251 251 251 249 249 249 247 247 247 231 230 231 166 166 165 226 226 228 255 255 253 
255 255 253 255 255 253 253 253 253 250 250 253 253 253 251 254 254 252 254 254 252 254 254 252 
255 255 255 255 255 255 255 255 255 255 255 255 255 255 253 255 255 253 255 253 255 255 253 255 
255 254 255 255 254 255 255 254 255 255 254 255 255 254 255 255 254 255 255 254 255 255 254 255 
160 160 159 72 73 71 117 116 117 98 95 96 134 134 135 170 173 173 127 130 126 197 190 194 
121 121 125 127 130 126 193 194 191 234 235 232 166 166 165 72 73 71 196 198 193 216 212 216 
64 62 60 147 150 146 106 105 107 72 73 71 37 34 37 235 235 235 203 203 200 117 116 117 
196 198 193 72 73 71 203 203 200 193 194 191 160 160 159 254 254 254 253 253 253 254 254 254 
144 144 145 138 135 139 253 255 255 253 253 251 253 254 252 196 198 193 166 166 165 242 243 239 
247 247 247 249 249 249 249 249 249 250 250 250 254 254 254 254 254 254 252 252 252 254 254 254 
253 253 253 253 253 253 253 253 253 253 253 253 253 253 253 253 253 253 253 253 253 252 252 252 
253 253 253 253 253 253 253 253 253 253 253 253 254 254 254 254 254 254 255 255 255 255 255 255 
255 255 255 255 255 255 254 254 254 254 254 254 254 254 254 254 254 254 255 255 255 255 255 255 
253 253 253 253 253 253 253 253 253 253 253 253 253 253 253 253 253 253 253 253 253 253 253 253 
253 253 253 253 253 253 253 253 253 253 253 253 254 254 254 254 254 254 253 253 253 253 253 253 

255 255 255 255 255 255 255 255 255 255 255 255 255 255 255 254 254 254 254 254 254 254 254 254 
253 253 253 253 253 253 253 253 253 253 253 253 253 253 253 253 253 253 254 254 254 254 254 254 
255 255 255 254 254 254 254 254 254 254 254 254 254 254 254 254 254 254 254 254 254 253 253 253 
253 253 253 254 254 254 254 254 254 254 254 254 254 254 254 254 254 254 253 253 253 253 253 253 
253 253 253 253 253 253 253 253 253 253 253 253 254 254 254 253 253 253 252 252 252 251 251 251 
246 246 246 251 251 251 255 255 255 251 251 251 231 230 231 160 160 159 226 226 228 249 249 249 
254 252 251 255 255 253 255 254 255 255 254 255 255 254 255 255 255 253 254 254 252 251 250 248 
253 253 255 255 254 255 255 254 255 255 254 255 255 255 253 255 255 253 255 253 255 255 253 255 
255 254 255 255 255 255 255 255 255 255 255 255 255 255 255 255 255 255 255 255 255 255 255 255 
173 177 172 231 230 231 142 142 140 151 152 150 189 187 187 117 116 117 144 144 145 225 223 228 
225 223 228 138 135 139 89 91 83 100 102 97 106 105 107 235 235 235 255 254 255 170 169 172 
106 105 107 248 248 248 138 135 139 121 121 125 182 181 182 127 130 126 246 246 246 239 239 238 
252 252 250 100 102 97 116 116 111 100 102 97 106 105 107 250 253 252 253 254 252 202 204 202 
66 69 70 211 212 213 249 249 249 246 246 244 253 255 255 196 198 193 163 166 158 236 238 233 
246 247 243 250 250 250 249 249 249 249 249 249 253 253 253 254 254 254 252 252 252 254 254 254 
253 253 253 253 253 253 254 254 254 254 254 254 253 253 253 253 253 253 253 253 253 253 253 253 
253 253 253 253 253 253 253 253 253 253 253 253 254 254 254 254 254 254 254 254 254 255 255 255 
254 254 254 254 254 254 254 254 254 254 254 254 254 254 254 254 254 254 254 254 254 254 254 254 
253 253 253 253 253 253 253 253 253 253 253 253 253 253 253 253 253 253 253 253 253 253 253 253 
253 253 253 253 253 253 254 254 254 254 254 254 254 254 254 253 253 253 253 253 253 252 252 252 

255 255 255 255 255 255 255 255 255 254 254 254 254 254 254 254 254 254 254 254 254 254 254 254 
253 253 253 253 253 253 253 253 253 253 253 253 253 253 253 253 253 253 254 254 254 254 254 254 
254 254 254 254 254 254 253 253 253 254 254 254 254 254 254 255 255 255 254 254 254 254 254 254 
254 254 254 254 254 254 254 254 254 254 254 254 254 254 254 253 253 253 253 253 253 253 253 253 
253 253 253 253 253 253 253 253 253 253 253 253 254 254 254 253 253 253 252 252 252 251 251 251 
253 253 253 253 253 253 249 249 249 246 246 246 235 235 235 158 154 157 237 236 237 255 254 255 
251 250 248 255 254 255 255 253 255 255 253 255 253 253 255 255 253 255 255 255 253 255 254 255 
255 253 255 255 253 255 255 253 255 255 254 255 255 254 255 255 254 255 255 253 255 255 253 255 
255 255 253 254 254 252 254 255 253 254 255 253 254 255 253 254 255 253 254 254 252 254 254 252 
254 254 252 253 253 251 236 238 233 247 251 242 254 254 252 230 231 225 248 248 248 250 250 253 
255 254 255 253 249 255 246 244 243 226 222 223 253 249 255 253 249 255 255 253 255 242 242 244 
249 248 247 249 248 247 242 242 244 255 254 255 253 249 255 248 247 252 255 254 255 255 253 255 
255 255 253 236 238 233 232 237 226 232 237 226 253 255 254 250 253 252 250 253 247 242 250 242 
242 242 244 255 253 255 255 253 255 255 253 255 252 251 254 193 194 191 173 177 172 232 237 226 
246 247 243 250 250 250 249 249 249 249 249 249 253 253 253 253 253 253 252 252 252 254 254 254 
253 253 253 253 253 253 254 254 254 254 254 254 254 254 254 253 253 253 253 253 253 253 253 253 
253 253 253 253 253 253 253 253 253 253 253 253 253 253 253 254 254 254 254 254 254 254 254 254 
254 254 254 254 254 254 254 254 254 254 254 254 254 254 254 254 254 254 254 254 254 254 254 254 
253 253 253 253 253 253 253 253 253 253 253 253 253 253 253 253 253 253 253 253 253 253 253 253 
254 254 254 254 254 254 254 254 254 254 254 254 254 254 254 253 253 253 252 252 252 251 251 251 

255 255 255 255 255 255 254 254 254 254 254 254 253 253 253 253 253 253 254 254 254 254 254 254 
253 253 253 253 253 253 253 253 253 253 253 253 253 253 253 253 253 253 253 253 253 254 254 254 
254 254 254 253 253 253 253 253 253 253 253 253 254 254 254 255 255 255 254 254 254 254 254 254 
254 254 254 254 254 254 254 254 254 254 254 254 253 253 253 253 253 253 253 253 253 253 253 253 
253 253 253 253 253 253 253 253 253 253 253 253 254 254 254 253 253 253 252 252 252 251 251 251 
252 252 252 250 250 250 247 247 247 250 250 250 237 239 238 158 154 157 226 226 228 254 252 251 
254 254 252 255 255 253 255 253 255 252 251 254 255 254 255 255 255 253 254 254 252 254 254 252 
255 254 255 255 254 255 255 254 255 255 255 255 255 255 253 254 254 252 253 253 255 252 251 254 
253 255 255 254 254 252 254 255 253 254 255 253 254 255 253 254 255 253 254 255 253 254 254 252 
250 253 247 253 253 251 253 253 251 254 254 252 252 252 250 254 255 253 251 251 251 253 255 255 
253 253 255 253 253 255 254 252 251 254 254 252 255 253 255 255 253 255 255 253 255 253 253 255 
254 252 251 254 254 252 255 255 255 252 251 254 253 253 255 255 254 255 250 246 253 255 253 255 
254 251 252 255 255 253 255 255 253 253 254 252 253 255 255 242 250 242 250 253 247 250 253 247 
249 249 249 255 254 255 254 251 252 249 245 246 255 254 255 193 194 191 173 177 172 236 238 233 
247 247 247 250 250 250 249 249 249 249 249 249 253 253 253 253 253 253 252 252 252 254 254 254 
253 253 253 254 254 254 254 254 254 254 254 254 254 254 254 253 253 253 253 253 253 253 253 253 
253 253 253 253 253 253 253 253 253 253 253 253 253 253 253 254 254 254 254 254 254 254 254 254 
254 254 254 254 254 254 253 253 253 253 253 253 253 253 253 253 253 253 254 254 254 254 254 254 
253 253 253 253 253 253 253 253 253 254 254 254 254 254 254 254 254 254 254 254 254 254 254 254 
255 255 255 255 255 255 254 254 254 254 254 254 253 253 253 252 252 252 252 252 252 251 251 251 

255 255 255 254 254 254 254 254 254 253 253 253 253 253 253 253 253 253 253 253 253 253 253 253 
254 254 254 253 253 253 253 253 253 253 253 253 253 253 253 253 253 253 253 253 253 254 254 254 
253 253 253 253 253 253 253 253 253 253 253 253 254 254 254 255 255 255 255 255 255 254 254 254 
255 255 255 254 254 254 254 254 254 254 254 254 253 253 253 253 253 253 253 253 253 253 253 253 
253 253 253 253 253 253 253 253 253 253 253 253 254 254 254 253 253 253 252 252 252 251 251 251 
249 249 249 253 253 253 252 252 252 248 248 248 234 235 232 180 181 179 226 226 228 255 255 253 
250 253 247 250 253 247 251 251 251 255 255 255 254 254 252 253 253 251 250 253 247 254 254 252 
252 251 254 252 251 254 253 253 255 253 253 251 250 253 247 250 253 247 253 253 253 253 253 255 
252 251 254 252 251 254 252 251 254 252 251 254 252 251 254 252 251 254 252 251 254 252 252 252 
254 254 252 249 248 247 253 253 251 255 255 253 254 254 254 247 247 250 255 254 255 252 251 254 
253 255 255 243 243 243 250 253 247 247 251 242 252 251 254 250 246 253 253 249 255 255 255 255 
250 253 247 247 251 242 250 253 247 254 255 253 249 248 247 255 255 253 254 254 254 254 251 252 
255 253 255 245 238 245 252 251 254 246 246 250 253 255 255 248 252 253 250 253 252 253 253 251 
255 255 255 250 248 249 254 254 252 254 254 252 253 249 255 199 195 202 173 177 172 237 239 238 
249 249 249 250 250 250 249 249 249 249 249 249 253 253 253 253 253 253 252 252 252 254 254 254 
254 254 254 254 254 254 254 254 254 254 254 254 254 254 254 253 253 253 253 253 253 253 253 253 
253 253 253 253 253 253 253 253 253 253 253 253 253 253 253 253 253 253 254 254 254 254 254 254 
254 254 254 254 254 254 253 253 253 253 253 253 253 253 253 253 253 253 254 254 254 254 254 254 
254 254 254 254 254 254 254 254 254 254 254 254 254 254 254 254 254 254 254 254 254 255 255 255 
255 255 255 254 254 254 254 254 254 253 253 253 253 253 253 252 252 252 252 252 252 252 252 252 

255 255 255 254 254 254 253 253 253 253 253 253 252 252 252 252 252 252 253 253 253 253 253 253 
254 254 254 253 253 253 253 253 253 253 253 253 253 253 253 253 253 253 253 253 253 253 253 253 
253 253 253 253 253 253 253 253 253 253 253 253 254 254 254 255 255 255 255 255 255 254 254 254 
255 255 255 254 254 254 254 254 254 253 253 253 253 253 253 253 253 253 253 253 253 253 253 253 
253 253 253 253 253 253 253 253 253 253 253 253 254 254 254 253 253 253 252 252 252 251 251 251 
253 253 253 255 255 255 252 252 252 250 250 250 237 236 237 173 177 172 127 130 126 90 92 89 
84 84 82 84 84 82 89 91 83 84 84 82 84 84 82 90 92 89 127 130 126 163 166 158 
193 194 191 193 194 191 193 194 191 193 194 191 196 198 193 196 198 193 196 198 193 199 195 202 
199 195 202 199 195 202 199 195 202 199 195 202 199 195 202 199 195 202 199 195 202 199 195 202 
196 198 193 199 195 202 203 203 200 197 190 194 199 195 202 200 203 206 197 190 194 200 203 206 
199 195 202 196 198 193 193 194 191 203 203 200 199 195 202 200 203 206 200 203 206 193 194 191 
196 198 193 191 193 183 196 198 193 196 198 193 196 198 193 196 198 193 203 203 200 197 190 194 
197 190 194 203 203 200 199 195 202 199 195 202 193 194 191 193 194 191 182 181 182 144 144 145 
113 113 110 84 84 82 84 84 82 84 84 82 100 101 105 127 130 126 200 203 206 237 236 237 
249 249 249 250 250 250 249 249 249 249 249 249 253 253 253 253 253 253 252 252 252 254 254 254 
254 254 254 254 254 254 254 254 254 254 254 254 254 254 254 254 254 254 253 253 253 253 253 253 
253 253 253 253 253 253 253 253 253 253 253 253 253 253 253 253 253 253 254 254 254 254 254 254 
254 254 254 253 253 253 253 253 253 253 253 253 253 253 253 253 253 253 253 253 253 254 254 254 
254 254 254 254 254 254 254 254 254 254 254 254 255 255 255 255 255 255 255 255 255 255 255 255 
254 254 254 254 254 254 253 253 253 253 253 253 252 252 252 253 253 253 253 253 253 253 253 253 

254 254 254 254 254 254 253 253 253 253 253 253 253 253 253 253 253 253 252 252 252 252 252 252 
251 251 251 251 251 251 252 252 252 252 252 252 252 252 252 252 252 252 252 252 252 252 252 252 
253 253 251 253 253 251 253 253 251 253 253 251 253 253 251 253 253 251 253 253 251 253 253 251 
254 254 254 254 254 254 254 254 254 255 255 255 254 254 254 254 254 254 254 254 254 253 253 253 
253 253 253 253 253 251 253 253 251 253 253 251 254 254 254 253 253 253 252 252 252 251 251 251 
252 252 252 251 251 251 252 252 252 248 248 248 239 239 238 202 204 202 116 116 111 32 32 30 
7 8 3 0 0 0 4 4 2 3 3 1 2 2 0 29 29 29 100 102 97 180 181 179 
221 223 223 235 235 235 234 235 232 237 236 237 242 243 239 236 238 233 237 236 237 243 243 243 
240 240 240 241 241 241 241 241 241 241 241 241 241 241 241 241 241 241 241 241 241 240 240 240 
240 240 240 240 240 240 240 240 240 240 240 240 240 240 240 241 241 241 241 241 241 241 241 241 
239 239 239 239 239 239 239 239 238 239 239 238 240 240 240 240 240 240 240 240 240 239 239 239 
239 239 238 237 239 238 239 239 238 239 239 238 239 239 238 239 239 238 239 239 239 239 239 239 
239 239 239 241 241 241 237 236 237 237 236 237 240 240 240 226 231 228 196 198 193 127 130 126 
52 50 44 13 13 13 2 2 0 5 6 1 37 34 37 127 130 126 208 210 207 241 241 241 
249 249 249 249 249 249 250 250 250 251 251 251 251 251 251 252 252 252 253 253 253 253 253 253 
253 253 253 253 253 253 253 253 253 253 253 253 253 253 253 253 253 253 253 253 253 253 253 253 
252 252 252 252 252 252 252 252 252 252 252 252 253 253 253 253 253 253 253 253 253 253 253 253 
253 253 253 253 253 253 254 254 254 254 254 254 254 254 254 254 254 254 254 254 254 254 254 254 
252 252 250 252 252 250 252 252 250 253 253 251 253 253 251 253 253 251 254 254 252 254 254 252 
252 252 250 252 252 250 253 253 251 253 253 251 253 253 251 252 252 250 252 252 250 251 251 249 

254 254 254 254 254 254 254 254 254 253 253 253 253 253 253 252 252 252 252 252 252 252 252 252 
252 252 252 252 252 252 252 252 252 252 252 252 253 253 253 253 253 253 253 253 253 253 253 253 
253 253 251 253 253 251 253 253 251 253 253 251 253 253 251 253 253 251 253 253 251 253 253 251 
254 254 254 254 254 254 254 254 254 254 254 254 254 254 254 254 254 254 253 253 255 253 253 253 
253 253 251 252 252 250 252 252 250 252 252 250 253 253 253 253 253 253 252 252 252 251 251 251 
252 252 252 251 251 251 252 252 252 251 251 251 246 246 244 211 212 213 127 130 126 43 46 42 
13 13 13 9 11 6 9 11 6 4 4 2 8 8 7 43 46 42 117 116 117 196 198 193 
235 235 235 246 246 244 249 248 247 251 251 249 255 255 253 255 255 253 255 255 253 253 253 251 
253 253 253 253 253 253 253 253 253 253 253 253 253 253 253 253 253 253 253 253 253 253 253 253 
253 253 253 253 253 253 253 253 253 253 253 253 253 253 253 253 253 253 253 253 253 253 253 253 
254 254 254 254 254 254 254 254 254 254 254 254 254 254 254 254 254 254 254 254 254 254 254 254 
254 254 254 254 254 254 254 254 254 254 254 254 254 254 254 254 254 254 254 254 254 254 254 254 
254 254 252 255 255 253 255 255 253 251 251 249 246 246 244 231 230 231 193 194 191 107 112 109 
39 42 37 8 8 7 3 3 1 9 11 6 52 50 44 134 134 135 211 212 213 240 240 240 
250 250 250 250 250 250 250 250 250 251 251 251 252 252 252 252 252 252 253 253 253 253 253 253 
253 253 253 253 253 253 253 253 253 253 253 253 253 253 253 253 253 253 253 253 253 253 253 253 
252 252 252 253 253 253 253 253 253 253 253 253 253 253 253 253 253 253 253 253 253 253 253 253 
252 252 252 252 252 252 253 253 253 253 253 253 253 253 253 253 253 253 253 253 253 253 253 253 
253 253 251 253 253 251 253 253 251 253 253 251 253 253 251 253 253 251 253 253 251 253 253 251 
252 252 250 252 252 250 253 253 251 253 253 251 252 252 250 252 252 250 252 252 250 252 252 250 

254 254 254 254 254 254 254 254 254 253 253 253 252 252 252 252 252 252 251 251 251 251 251 251 
253 253 253 253 253 253 253 253 253 253 253 253 253 253 253 253 253 253 253 253 253 254 254 254 
253 253 251 253 253 251 253 253 251 253 253 251 253 253 251 253 253 251 253 253 251 253 253 251 
253 253 253 253 253 253 254 254 254 254 254 254 254 254 254 253 253 253 253 253 253 253 253 253 
253 253 251 252 252 250 252 252 250 251 251 249 252 252 252 252 252 252 252 252 252 251 251 251 
252 252 252 251 251 251 250 250 250 249 249 249 246 246 244 214 217 212 137 138 135 52 50 44 
6 6 4 6 6 4 4 4 2 0 0 0 8 8 6 43 46 42 119 117 120 208 210 207 
243 243 243 251 251 249 251 250 248 251 251 249 251 251 249 252 252 250 255 255 253 253 253 251 
254 254 254 254 254 254 254 254 254 254 254 254 254 254 254 254 254 254 254 254 254 254 254 254 
254 254 254 254 254 254 254 254 254 254 254 254 254 254 254 254 254 254 254 254 254 254 254 254 
255 255 255 255 255 255 255 255 255 255 255 255 255 255 255 255 255 255 255 255 255 255 255 255 
255 255 255 255 255 255 255 255 255 255 255 255 255 255 255 255 255 255 255 255 255 255 255 255 
255 255 253 254 254 252 253 253 251 253 253 251 251 251 249 234 235 232 189 187 187 90 92 89 
22 23 18 0 0 0 0 0 0 13 13 13 58 58 56 144 144 145 214 217 212 242 243 239 
250 250 250 250 250 250 251 251 251 251 251 251 252 252 252 252 252 252 253 253 253 253 253 253 
252 252 252 252 252 252 252 252 252 252 252 252 252 252 252 252 252 252 252 252 252 252 252 252 
252 252 252 253 253 253 253 253 253 253 253 253 253 253 253 253 253 253 253 253 253 253 253 253 
252 252 252 252 252 252 253 253 253 253 253 253 253 253 253 253 253 253 253 253 253 253 253 253 
254 254 252 254 254 252 253 253 251 253 253 251 253 253 251 253 253 251 253 253 251 253 253 251 
253 253 251 252 252 250 252 252 250 252 252 250 252 252 250 252 252 250 252 252 250 252 252 250 

254 254 254 254 254 254 254 254 254 253 253 253 252 252 252 252 252 252 251 251 251 251 251 251 
253 253 253 253 253 253 253 253 253 253 253 253 253 253 253 254 254 254 254 254 254 254 254 254 
253 253 251 253 253 251 253 253 251 253 253 251 253 253 251 252 252 250 252 252 250 252 252 250 
253 253 253 253 253 253 253 253 253 253 253 253 253 253 253 253 253 253 253 253 253 252 252 252 
253 253 251 252 252 250 251 251 249 251 251 249 251 251 251 252 252 252 252 252 252 251 251 251 
252 252 252 251 251 251 248 248 248 248 248 248 246 244 243 222 222 215 142 142 140 52 50 44 
7 7 5 3 3 1 2 2 0 4 4 2 8 8 7 27 28 24 92 93 95 190 194 189 
231 230 231 249 248 247 249 248 247 252 252 250 255 255 253 255 255 253 254 254 252 255 255 253 
255 255 255 255 255 255 255 255 255 255 255 255 255 255 255 255 255 255 255 255 255 255 255 255 
255 255 255 255 255 255 255 255 255 255 255 255 255 255 255 255 255 255 255 255 255 255 255 255 
255 255 255 255 255 255 255 255 255 255 255 255 255 255 255 255 255 255 255 255 255 255 255 255 
254 254 254 254 254 254 254 254 254 254 254 254 254 254 254 254 254 254 254 254 254 254 254 254 
253 253 251 255 255 253 255 255 253 249 248 247 249 248 247 223 223 223 158 154 157 64 62 60 
7 7 5 0 0 0 0 0 0 9 11 6 64 62 60 147 150 146 214 217 212 240 240 240 
250 250 250 250 250 250 250 250 250 251 251 251 251 251 251 252 252 252 252 252 252 253 253 253 
252 252 252 252 252 252 252 252 252 252 252 252 252 252 252 252 252 252 252 252 252 252 252 252 
252 252 252 252 252 252 253 253 253 253 253 253 253 253 253 253 253 253 253 253 253 252 252 252 
252 252 252 253 253 253 253 253 253 253 253 253 254 254 254 254 254 254 254 254 254 254 254 254 
253 253 251 253 253 251 253 253 251 253 253 251 253 253 251 253 253 251 253 253 251 253 253 251 
253 253 251 253 253 251 252 252 250 252 252 250 252 252 250 252 252 250 252 252 250 253 253 251 

255 255 255 254 254 254 254 254 254 253 253 253 253 253 253 252 252 252 252 252 252 251 251 251 
253 253 253 253 253 253 253 253 253 253 253 253 253 253 253 253 253 253 253 253 253 254 254 254 
253 253 251 253 253 251 253 253 251 253 253 251 253 253 251 253 253 251 253 253 253 252 252 252 
252 252 252 252 252 252 253 253 253 253 253 253 253 253 253 253 253 253 253 253 253 252 252 252 
253 253 251 252 252 250 251 251 249 251 251 249 251 251 251 252 252 252 252 252 252 251 251 251 
252 252 252 252 252 252 249 249 249 251 251 251 249 248 247 226 226 228 158 154 157 58 58 56 
8 8 6 2 2 0 0 0 0 3 3 1 3 3 1 3 3 1 43 46 42 117 116 117 
211 212 213 252 252 250 255 255 253 246 246 244 254 254 252 255 255 253 254 254 252 255 255 253 
255 255 255 255 255 255 255 255 255 255 255 255 255 255 255 255 255 255 255 255 255 255 255 255 
255 255 255 255 255 255 255 255 255 255 255 255 255 255 255 255 255 255 255 255 255 255 255 255 
255 255 255 255 255 255 255 255 255 255 255 255 255 255 255 255 255 255 255 255 255 255 255 255 
255 255 255 255 255 255 255 255 255 255 255 255 255 255 255 255 255 255 255 255 255 255 255 255 
253 253 251 255 255 253 251 251 249 246 246 244 253 253 251 202 204 202 107 112 109 22 23 18 
8 8 6 3 3 1 4 4 2 13 13 13 66 69 70 158 154 157 221 223 223 246 246 244 
249 249 249 250 250 250 250 250 250 250 250 250 251 251 251 251 251 251 252 252 252 252 252 252 
251 251 251 251 251 251 251 251 251 251 251 251 251 251 251 251 251 251 251 251 251 251 251 251 
251 251 251 252 252 252 252 252 252 253 253 253 253 253 253 253 253 253 252 252 252 252 252 252 
252 252 252 252 252 252 252 252 252 253 253 253 253 253 253 253 253 253 253 253 253 253 253 253 
251 251 249 251 251 249 252 252 250 252 252 250 252 252 250 253 253 251 253 253 251 253 253 251 
253 253 251 253 253 251 252 252 250 252 252 250 252 252 250 252 252 250 253 253 251 253 253 251 

254 254 254 254 254 254 254 254 254 254 254 254 253 253 253 253 253 253 253 253 253 252 252 252 
253 253 253 253 253 253 253 253 253 253 253 253 253 253 253 254 254 254 254 254 254 254 254 254 
254 254 252 254 254 252 254 254 252 254 254 252 253 253 251 253 253 251 253 253 253 253 253 253 
252 252 252 252 252 252 253 253 253 253 253 253 253 253 253 253 253 253 253 253 253 253 253 253 
253 253 251 252 252 250 252 252 250 251 251 249 252 252 252 252 252 252 252 252 252 251 251 251 
252 252 252 253 253 253 249 249 249 250 250 250 246 246 244 230 231 225 166 166 165 66 69 70 
8 8 7 6 6 4 4 4 2 2 2 0 4 4 2 2 2 0 13 13 13 43 46 42 
137 138 135 214 217 212 252 252 250 249 248 247 249 248 247 249 248 247 251 250 248 255 255 253 
254 254 254 254 254 254 254 254 254 254 254 254 254 254 254 254 254 254 254 254 254 254 254 254 
254 254 254 254 254 254 254 254 254 254 254 254 254 254 254 254 254 254 254 254 254 254 254 254 
254 254 254 254 254 254 254 254 254 254 254 254 254 254 254 254 254 254 254 254 254 254 254 254 
254 254 254 254 254 254 254 254 254 254 254 254 254 254 254 254 254 254 254 254 254 254 254 254 
253 253 251 249 248 247 251 251 249 251 250 248 221 223 223 127 130 126 39 42 37 0 0 0 
0 0 0 2 2 0 0 0 0 9 11 6 72 73 71 166 166 165 226 226 228 251 250 248 
250 250 250 250 250 250 250 250 250 251 251 251 251 251 251 251 251 251 252 252 252 252 252 252 
251 251 251 251 251 251 251 251 251 251 251 251 251 251 251 251 251 251 251 251 251 251 251 251 
251 251 251 252 252 252 253 253 253 253 253 253 253 253 253 253 253 253 252 252 252 252 252 252 
250 250 250 251 251 251 251 251 251 252 252 252 252 252 252 252 252 252 252 252 252 252 252 252 
251 251 249 251 251 249 252 252 250 252 252 250 252 252 250 253 253 251 253 253 251 253 253 251 
253 253 251 253 253 251 253 253 251 253 253 251 253 253 251 253 253 251 254 254 252 254 254 252 

254 254 254 254 254 254 254 254 254 254 254 254 254 254 254 254 254 254 254 254 254 254 254 254 
254 254 254 254 254 254 254 254 254 254 254 254 254 254 254 254 254 254 254 254 254 254 254 254 
255 255 253 255 255 253 254 254 252 254 254 252 254 254 254 254 254 254 253 253 253 253 253 253 
252 252 252 253 253 253 253 253 253 253 253 253 254 254 254 254 254 254 253 253 253 253 253 253 
253 253 251 252 252 250 252 252 250 252 252 250 253 253 253 253 253 253 252 252 252 251 251 251 
252 252 252 255 255 255 248 248 248 250 250 250 246 246 244 234 235 232 180 181 179 81 83 84 
5 5 3 0 0 0 0 0 0 0 0 0 0 0 0 0 0 0 0 0 0 9 11 6 
39 42 37 122 124 121 203 203 200 243 243 243 255 255 253 255 255 253 255 255 253 254 254 252 
255 255 255 255 255 255 255 255 255 255 255 255 255 255 255 255 255 255 255 255 255 255 255 255 
255 255 255 255 255 255 255 255 255 255 255 255 255 255 255 255 255 255 255 255 255 255 255 255 
255 255 255 255 255 255 255 255 255 255 255 255 255 255 255 255 255 255 255 255 255 255 255 255 
255 255 255 255 255 255 255 255 255 255 255 255 255 255 255 255 255 255 255 255 255 255 255 255 
252 252 250 251 251 249 254 254 252 214 217 212 133 133 129 36 37 33 3 3 1 9 11 6 
0 0 0 0 0 0 0 0 0 9 11 6 84 84 82 173 177 172 230 231 225 246 246 244 
251 251 251 251 251 251 251 251 251 252 252 252 252 252 252 252 252 252 253 253 253 253 253 253 
252 252 252 252 252 252 252 252 252 252 252 252 252 252 252 252 252 252 252 252 252 252 252 252 
252 252 252 252 252 252 254 254 254 254 254 254 255 255 255 254 254 254 253 253 253 252 252 252 
251 251 251 251 251 251 252 252 252 252 252 252 253 253 253 253 253 253 253 253 253 253 253 253 
252 252 252 253 253 253 253 253 253 253 253 253 253 253 253 253 253 253 253 253 253 253 253 253 
253 253 253 254 254 254 254 254 254 254 254 254 254 254 254 254 254 254 254 254 254 254 254 254 

254 254 254 254 254 254 254 254 254 254 254 254 254 254 254 255 255 255 255 255 255 255 255 255 
254 254 254 254 254 254 255 255 255 255 255 255 255 255 255 255 255 255 255 255 255 255 255 255 
255 255 253 255 255 253 255 255 253 255 255 253 254 254 254 254 254 254 254 254 254 254 254 254 
253 253 253 253 253 253 253 253 253 254 254 254 254 254 254 254 254 254 254 254 254 254 254 254 
253 253 251 253 253 251 253 253 251 253 253 251 254 254 254 253 253 253 252 252 252 251 251 251 
253 253 253 255 255 255 250 250 250 253 253 253 252 252 250 246 244 243 193 194 191 98 95 96 
32 32 30 21 16 17 21 16 17 22 23 18 22 23 18 21 16 17 21 16 17 32 32 30 
27 28 24 58 58 56 127 130 126 203 203 200 237 236 237 246 246 244 255 255 253 254 254 252 
255 255 255 255 255 255 255 255 255 255 255 255 255 255 255 255 255 255 255 255 255 255 255 255 
255 255 255 255 255 255 255 255 255 255 255 255 255 255 255 255 255 255 255 255 255 255 255 255 
254 254 254 254 254 254 254 254 254 254 254 254 254 254 254 254 254 254 254 254 254 254 254 254 
255 255 255 255 255 255 255 255 255 255 255 255 255 255 255 255 255 255 255 255 255 255 255 255 
255 255 253 246 246 244 222 222 215 137 138 135 64 62 60 36 37 33 36 37 33 21 16 17 
14 16 17 22 23 18 14 16 17 32 32 30 106 105 107 196 198 193 240 240 240 251 251 249 
252 252 252 252 252 252 252 252 252 252 252 252 253 253 253 253 253 253 253 253 253 254 254 254 
253 253 253 253 253 253 253 253 253 253 253 253 253 253 253 253 253 253 253 253 253 253 253 253 
252 252 252 253 253 253 255 255 255 255 255 255 255 255 255 255 255 255 254 254 254 253 253 253 
253 253 253 253 253 253 254 254 254 254 254 254 254 254 254 254 254 254 254 254 254 254 254 254 
254 254 254 254 254 254 254 254 254 254 254 254 254 254 254 254 254 254 254 254 254 254 254 254 
253 253 253 254 254 254 254 254 254 255 255 255 255 255 255 255 255 255 255 255 255 254 254 254 

